; HEADER_BLOCK_START
; generated by OrcaSlicer 2.3.2 on 2026-05-19 at 10:24:15
; total layer number: 100
; filament_density: 1.24
; filament_diameter: 1.75
; max_z_height: 20.00
; filament: 1
; HEADER_BLOCK_END

; THUMBNAIL_BLOCK_START

;
; THUMBNAIL_BLOCK_END

; THUMBNAIL_BLOCK_START

;
; THUMBNAIL_BLOCK_END

; external perimeters extrusion width = 0.40mm
; perimeters extrusion width = 0.40mm
; infill extrusion width = 0.40mm
; solid infill extrusion width = 0.40mm
; top infill extrusion width = 0.40mm
; first layer extrusion width = 0.40mm

; EXECUTABLE_BLOCK_START
M73 P0 R24
M201 X1000 Y1000 Z200 E5000
M203 X200 Y200 Z10 E60
M204 P1250 R1250 T1250
M205 X8.00 Y8.00 Z0.40 E5.00 ; sets the jerk limits, mm/sec
M190 S45 ; set bed temperature and wait for it to be reached
M104 S220 ; set nozzle temperature
;TYPE:Custom
G21 ;metric values
G90 ;absolute positioning
M82 ;set extruder to absolute mode
M107 ;start with the fan off
G28 X0 Y0 ;move X/Y to min endstops
G28 Z0 ;move Z to min endstops
G0 Z0.2 F1800 ; move nozzle to print position
G92 E0 ; specify current extruder position as zero
G1 Y10 X180 E50 F1200 ; extrude a line in front of the printer
G92 E0 ; specify current extruder position as zero
G0 Z20 F6000 ; move head up
G1 E-7 F2400 ; retract
G04 S2 ; wait 2s
G0 X0 F6000 ; wipe from oozed filament
G1 E-1 F2400 ; undo some of the retraction to avoid oozing
G1 F6000 ; set travel speed to move to start printing point
M117
G90
G21
M83 ; use relative distances for extrusion
; filament start gcode
M106 S0
;LAYER_CHANGE
;Z:0.2
;HEIGHT:0.2
;BEFORE_LAYER_CHANGE 
G92 E0.0 
;0.2
G1 E-3 F2400
;AFTER_LAYER_CHANGE
;0.2
;_SET_FAN_SPEED_CHANGING_LAYER
M204 S1000
G1 Z.6 F9600
G1 X107.995 Y116.331
M73 P1 R24
G1 Z.6
G1 Z.2
G1 E3 F2400
;TYPE:Skirt
;WIDTH:0.4
G1 F3000
G1 X109.624 Y115.028 E.0607
G1 X112.598 Y114.274 E.08928
G1 X132.598 Y114.274 E.58195
G1 X134.789 Y114.671 E.0648
G1 X136.703 Y115.811 E.0648
G1 X138.095 Y117.55 E.0648
G1 X138.848 Y120.524 E.08928
M73 P1 R23
G1 X138.848 Y140.524 E.58195
G1 X138.451 Y142.716 E.0648
G1 X137.311 Y144.629 E.0648
G1 X135.573 Y146.021 E.0648
G1 X132.598 Y146.774 E.08928
G1 X112.598 Y146.774 E.58195
G1 X110.407 Y146.377 E.0648
G1 X108.493 Y145.237 E.0648
G1 X107.101 Y143.499 E.0648
G1 X106.348 Y140.524 E.08928
G1 X106.348 Y120.524 E.58195
G1 X106.745 Y118.333 E.0648
G1 X107.885 Y116.42 E.0648
G1 X107.964 Y116.356 E.00294
G1 X108.238 Y116.56 F9600
G1 F3000
G1 X109.962 Y115.254 E.06291
G1 X112.598 Y114.632 E.07882
G1 X132.598 Y114.632 E.58195
G1 X134.723 Y115.028 E.06291
G1 X136.563 Y116.165 E.06291
G1 X137.868 Y117.888 E.06291
G1 X138.491 Y120.524 E.07882
G1 X138.491 Y140.524 E.58195
G1 X138.094 Y142.65 E.06291
G1 X136.958 Y144.489 E.06291
G1 X135.234 Y145.794 E.06291
G1 X132.598 Y146.417 E.07882
G1 X112.598 Y146.417 E.58195
G1 X110.473 Y146.02 E.06291
G1 X108.634 Y144.884 E.06291
G1 X107.328 Y143.161 E.06291
G1 X106.705 Y140.524 E.07882
G1 X106.705 Y120.524 E.58195
G1 X107.102 Y118.399 E.06291
G1 X108.217 Y116.594 E.06174
G1 X108.532 Y116.796 F9600
G1 F3000
G1 X108.591 Y116.705 E.00316
G1 X110.297 Y115.489 E.06096
G1 X112.598 Y114.989 E.06851
G1 X132.598 Y114.989 E.58195
G1 X134.655 Y115.385 E.06096
G1 X136.417 Y116.517 E.06096
G1 X137.633 Y118.224 E.06096
G1 X138.134 Y120.524 E.06851
G1 X138.134 Y140.524 E.58195
G1 X137.737 Y142.581 E.06096
G1 X136.605 Y144.344 E.06096
G1 X134.899 Y145.559 E.06096
G1 X132.598 Y146.06 E.06851
G1 X112.598 Y146.06 E.58195
G1 X110.541 Y145.663 E.06096
G1 X108.779 Y144.531 E.06096
G1 X107.563 Y142.825 E.06096
G1 X107.062 Y140.524 E.06851
G1 X107.062 Y120.524 E.58195
G1 X107.459 Y118.467 E.06096
G1 X108.511 Y116.83 E.05663
G1 X108.821 Y117.038 F9600
G1 F3000
G1 X108.943 Y116.855 E.00639
G1 X110.63 Y115.734 E.05894
G1 X112.598 Y115.346 E.05836
G1 X132.598 Y115.346 E.58195
G1 X134.584 Y115.742 E.05894
G1 X136.267 Y116.87 E.05894
G1 X137.388 Y118.557 E.05894
G1 X137.777 Y120.524 E.05836
G1 X137.777 Y140.524 E.58195
G1 X137.38 Y142.511 E.05894
G1 X136.253 Y144.193 E.05894
G1 X134.566 Y145.314 E.05894
G1 X132.598 Y145.703 E.05836
G1 X112.598 Y145.703 E.58195
G1 X110.612 Y145.307 E.05894
G1 X108.929 Y144.179 E.05894
G1 X107.808 Y142.492 E.05894
G1 X107.419 Y140.524 E.05836
G1 X107.419 Y120.524 E.58195
G1 X107.816 Y118.538 E.05894
G1 X108.799 Y117.071 E.05138
; printing object calibration_cube.stl id:4630854464341383582 copy 0
G1 E-2.2 F2400
;WIPE_START
G1 F3000
G1 X108.943 Y116.855 E-.20782
G1 X109.56 Y116.446 E-.59218
;WIPE_END
G1 Z.6 F9600
G1 X131.462 Y139.389 Z.6
G1 Z.2
G1 E3 F2400
;TYPE:Inner wall
;WIDTH:0.399999
G1 F3000
G1 X113.734 Y139.389 E.51586
G1 X113.734 Y121.66 E.51586
G1 X131.462 Y121.66 E.51586
G1 X131.462 Y139.349 E.5147
G1 X131.819 Y139.746 F9600
G1 F3000
M73 P2 R23
G1 X113.377 Y139.746 E.53664
G1 X113.377 Y121.303 E.53664
G1 X131.819 Y121.303 E.53664
G1 X131.819 Y139.706 E.53548
G1 X132.198 Y140.124 F9600
;TYPE:Outer wall
G1 F3000
G1 X112.998 Y140.124 E.55867
G1 X112.998 Y120.924 E.55867
G1 X132.198 Y120.924 E.55867
G1 X132.198 Y140.084 E.55751
G1 E-2.2 F2400
;WIPE_START
G1 F3000
G1 X131.198 Y140.086 E-.8
;WIPE_END
G1 Z.6 F9600
G1 X131.355 Y122.494 Z.6
G1 Z.2
G1 E3 F2400
;TYPE:Bottom surface
;WIDTH:0.402626
G1 X130.789 Y121.928 E.02349
G1 X130.28 Y121.928 E.01491
G1 X131.195 Y122.842 E.03792
G1 X131.195 Y123.351 E.01491
G1 X129.771 Y121.928 E.05901
G1 X129.262 Y121.928 E.01491
G1 X131.195 Y123.86 E.08009
G1 X131.195 Y124.368 E.01491
G1 X128.754 Y121.928 E.10118
G1 X128.245 Y121.928 E.01491
G1 X131.195 Y124.877 E.12227
G1 X131.195 Y125.386 E.01491
G1 X127.736 Y121.928 E.14335
G1 X127.228 Y121.928 E.01491
G1 X131.195 Y125.895 E.16444
G1 X131.195 Y126.403 E.01491
G1 X126.719 Y121.928 E.18553
G1 X126.21 Y121.928 E.01491
G1 X131.195 Y126.912 E.20661
G1 X131.195 Y127.421 E.01491
G1 X125.702 Y121.928 E.2277
G1 X125.193 Y121.928 E.01491
G1 X131.195 Y127.929 E.24879
G1 X131.195 Y128.438 E.01491
G1 X124.684 Y121.928 E.26988
G1 X124.175 Y121.928 E.01491
G1 X131.195 Y128.947 E.29096
G1 X131.195 Y129.456 E.01491
G1 X123.667 Y121.928 E.31205
G1 X123.158 Y121.928 E.01491
G1 X131.195 Y129.964 E.33314
G1 X131.195 Y130.473 E.01491
G1 X122.649 Y121.928 E.35422
G1 X122.141 Y121.928 E.01491
G1 X131.195 Y130.982 E.37531
G1 X131.195 Y131.49 E.01491
G1 X121.632 Y121.928 E.3964
G1 X121.123 Y121.928 E.01491
G1 X131.195 Y131.999 E.41749
G1 X131.195 Y132.508 E.01491
G1 X120.615 Y121.928 E.43857
G1 X120.106 Y121.928 E.01491
G1 X131.195 Y133.016 E.45966
G1 X131.195 Y133.525 E.01491
G1 X119.597 Y121.928 E.48075
G1 X119.088 Y121.928 E.01491
G1 X131.195 Y134.034 E.50183
G1 X131.195 Y134.543 E.01491
G1 X118.58 Y121.928 E.52292
G1 X118.071 Y121.928 E.01491
G1 X131.195 Y135.051 E.54401
G1 X131.195 Y135.56 E.01491
G1 X117.562 Y121.928 E.56509
G1 X117.054 Y121.928 E.01491
G1 X131.195 Y136.069 E.58618
G1 X131.195 Y136.577 E.01491
G1 X116.545 Y121.928 E.60727
G1 X116.036 Y121.928 E.01491
G1 X131.195 Y137.086 E.62836
G1 X131.195 Y137.595 E.01491
G1 X115.528 Y121.928 E.64944
G1 X115.019 Y121.928 E.01491
G1 X131.195 Y138.103 E.67053
G1 X131.195 Y138.612 E.01491
M73 P3 R23
G1 X114.51 Y121.928 E.69162
G1 X114.001 Y121.928 E.01491
G1 X131.195 Y139.121 E.7127
G1 X130.686 Y139.121 E.01491
G1 X114.001 Y122.436 E.69161
G1 X114.001 Y122.945 E.01491
G1 X130.177 Y139.121 E.67053
G1 X129.668 Y139.121 E.01491
G1 X114.001 Y123.454 E.64944
G1 X114.001 Y123.962 E.01491
G1 X129.16 Y139.121 E.62835
G1 X128.651 Y139.121 E.01491
G1 X114.001 Y124.471 E.60727
G1 X114.001 Y124.98 E.01491
G1 X128.142 Y139.121 E.58618
G1 X127.634 Y139.121 E.01491
G1 X114.001 Y125.489 E.56509
G1 X114.001 Y125.997 E.01491
G1 X127.125 Y139.121 E.544
G1 X126.616 Y139.121 E.01491
G1 X114.001 Y126.506 E.52292
G1 X114.001 Y127.015 E.01491
G1 X126.108 Y139.121 E.50183
G1 X125.599 Y139.121 E.01491
G1 X114.001 Y127.523 E.48074
G1 X114.001 Y128.032 E.01491
G1 X125.09 Y139.121 E.45966
G1 X124.581 Y139.121 E.01491
G1 X114.001 Y128.541 E.43857
G1 X114.001 Y129.049 E.01491
G1 X124.073 Y139.121 E.41748
G1 X123.564 Y139.121 E.01491
G1 X114.001 Y129.558 E.3964
G1 X114.001 Y130.067 E.01491
G1 X123.055 Y139.121 E.37531
G1 X122.547 Y139.121 E.01491
G1 X114.001 Y130.576 E.35422
G1 X114.001 Y131.084 E.01491
G1 X122.038 Y139.121 E.33313
G1 X121.529 Y139.121 E.01491
G1 X114.001 Y131.593 E.31205
G1 X114.001 Y132.102 E.01491
G1 X121.021 Y139.121 E.29096
G1 X120.512 Y139.121 E.01491
G1 X114.001 Y132.61 E.26987
G1 X114.001 Y133.119 E.01491
G1 X120.003 Y139.121 E.24879
G1 X119.494 Y139.121 E.01491
G1 X114.001 Y133.628 E.2277
G1 X114.001 Y134.137 E.01491
G1 X118.986 Y139.121 E.20661
G1 X118.477 Y139.121 E.01491
G1 X114.001 Y134.645 E.18552
G1 X114.001 Y135.154 E.01491
G1 X117.968 Y139.121 E.16444
G1 X117.46 Y139.121 E.01491
G1 X114.001 Y135.663 E.14335
G1 X114.001 Y136.171 E.01491
G1 X116.951 Y139.121 E.12226
G1 X116.442 Y139.121 E.01491
G1 X114.001 Y136.68 E.10118
G1 X114.001 Y137.189 E.01491
G1 X115.934 Y139.121 E.08009
G1 X115.425 Y139.121 E.01491
G1 X114.001 Y137.697 E.059
G1 X114.001 Y138.206 E.01491
G1 X114.916 Y139.121 E.03792
G1 X114.407 Y139.121 E.01491
G1 X113.841 Y138.554 E.02349
; stop printing object calibration_cube.stl id:4630854464341383582 copy 0
M106 S255
;LAYER_CHANGE
;Z:0.4
;HEIGHT:0.2
;BEFORE_LAYER_CHANGE 
G92 E0.0 
;0.4
G1 E-2 F2400
;WIPE_START
G1 X114.407 Y139.121 E-.80138
G1 X114.606 Y139.121 E-.19862
;WIPE_END
;AFTER_LAYER_CHANGE
;0.4
;_SET_FAN_SPEED_CHANGING_LAYER
; printing object calibration_cube.stl id:4630854464341383582 copy 0
G1 Z.8 F9600
G1 X131.662 Y139.589 Z.8
G1 Z.4
G1 E3 F2400
;TYPE:Inner wall
;WIDTH:0.399999
G1 F9600
G1 X113.534 Y139.589 E.5275
G1 X113.534 Y121.46 E.5275
G1 X131.662 Y121.46 E.5275
M73 P4 R23
G1 X131.662 Y139.549 E.52634
G1 X132.019 Y139.946
G1 X113.177 Y139.946 E.54828
G1 X113.177 Y121.103 E.54828
G1 X132.019 Y121.103 E.54828
G1 X132.019 Y139.906 E.54712
M204 S700
G1 X132.398 Y140.324
;TYPE:Outer wall
G1 X112.798 Y140.324 E.57031
G1 X112.798 Y120.724 E.57031
G1 X132.398 Y120.724 E.57031
G1 X132.398 Y140.284 E.56915
G1 E-2.75 F2400
;WIPE_START
G1 F9600
G1 X131.398 Y140.286 E-.25
;WIPE_END
G1 Z.8
G1 X129.882 Y139.232 Z.8
G1 Z.4
G1 E3 F2400
M204 S1000
;TYPE:Internal solid infill
G1 F6000
G1 X131.305 Y139.232 E.04142
G1 X131.305 Y137.808 E.04142
G1 X129.91 Y139.203 E.05742
G1 X130.918 Y138.763 F9600
;WIDTH:0.519796
G1 F6000
G1 X130.859 Y138.763 E.00232
G1 X130.829 Y138.815 E.00232
G1 X130.859 Y138.866 E.00232
G1 X130.918 Y138.866 E.00232
G1 X130.928 Y138.849 E.00076
G1 X131.502 Y137.156 F9600
;WIDTH:0.401098
G1 F6000
G1 X129.391 Y139.267 E.08714
G1 X128.884 Y139.267 E.01478
G1 X131.341 Y136.81 E.10141
G1 X131.341 Y136.304 E.01478
G1 X128.378 Y139.267 E.12232
G1 X127.871 Y139.267 E.01478
G1 X131.341 Y135.797 E.14323
G1 X131.341 Y135.291 E.01478
G1 X127.364 Y139.267 E.16414
G1 X126.858 Y139.267 E.01478
G1 X131.341 Y134.784 E.18505
G1 X131.341 Y134.278 E.01478
G1 X126.351 Y139.267 E.20595
G1 X125.845 Y139.267 E.01478
G1 X131.341 Y133.771 E.22686
G1 X131.341 Y133.265 E.01478
G1 X125.338 Y139.267 E.24777
G1 X124.832 Y139.267 E.01478
G1 X131.341 Y132.758 E.26868
G1 X131.341 Y132.251 E.01478
G1 X124.325 Y139.267 E.28959
G1 X123.819 Y139.267 E.01478
G1 X131.341 Y131.745 E.3105
G1 X131.341 Y131.238 E.01478
G1 X123.312 Y139.267 E.3314
G1 X122.806 Y139.267 E.01478
G1 X131.341 Y130.732 E.35231
G1 X131.341 Y130.225 E.01478
G1 X122.299 Y139.267 E.37322
G1 X121.793 Y139.267 E.01478
G1 X131.341 Y129.719 E.39413
G1 X131.341 Y129.212 E.01478
G1 X121.286 Y139.267 E.41504
G1 X120.779 Y139.267 E.01478
G1 X131.341 Y128.706 E.43595
G1 X131.341 Y128.199 E.01478
G1 X120.273 Y139.267 E.45685
G1 X119.766 Y139.267 E.01478
G1 X131.341 Y127.693 E.47776
G1 X131.341 Y127.186 E.01478
G1 X119.26 Y139.267 E.49867
G1 X118.753 Y139.267 E.01478
G1 X131.341 Y126.68 E.51958
G1 X131.341 Y126.173 E.01478
G1 X118.247 Y139.267 E.54049
G1 X117.74 Y139.267 E.01478
G1 X131.341 Y125.666 E.5614
G1 X131.341 Y125.16 E.01478
G1 X117.234 Y139.267 E.5823
G1 X116.727 Y139.267 E.01478
G1 X131.341 Y124.653 E.60321
G1 X131.341 Y124.147 E.01478
G1 X116.221 Y139.267 E.62412
G1 X115.714 Y139.267 E.01478
G1 X131.341 Y123.64 E.64503
G1 X131.341 Y123.134 E.01478
G1 X115.208 Y139.267 E.66594
G1 X114.701 Y139.267 E.01478
G1 X131.341 Y122.627 E.68684
G1 X131.341 Y122.121 E.01478
G1 X114.194 Y139.267 E.70775
G1 X113.855 Y139.267 E.00991
G1 X113.855 Y139.1 E.00488
G1 X131.174 Y121.781 E.71487
G1 X130.667 Y121.781 E.01478
G1 X113.855 Y138.594 E.69396
G1 X113.855 Y138.087 E.01478
G1 X130.161 Y121.781 E.67305
G1 X129.654 Y121.781 E.01478
G1 X113.855 Y137.581 E.65214
G1 X113.855 Y137.074 E.01478
G1 X129.148 Y121.781 E.63123
G1 X128.641 Y121.781 E.01478
G1 X113.855 Y136.567 E.61032
G1 X113.855 Y136.061 E.01478
G1 X128.135 Y121.781 E.58942
G1 X127.628 Y121.781 E.01478
G1 X113.855 Y135.554 E.56851
G1 X113.855 Y135.048 E.01478
G1 X127.122 Y121.781 E.5476
G1 X126.615 Y121.781 E.01478
G1 X113.855 Y134.541 E.52669
G1 X113.855 Y134.035 E.01478
G1 X126.109 Y121.781 E.50578
G1 X125.602 Y121.781 E.01478
M73 P5 R23
G1 X113.855 Y133.528 E.48488
G1 X113.855 Y133.022 E.01478
G1 X125.095 Y121.781 E.46397
G1 X124.589 Y121.781 E.01478
G1 X113.855 Y132.515 E.44306
G1 X113.855 Y132.009 E.01478
G1 X124.082 Y121.781 E.42215
G1 X123.576 Y121.781 E.01478
G1 X113.855 Y131.502 E.40124
G1 X113.855 Y130.995 E.01478
G1 X123.069 Y121.781 E.38033
G1 X122.563 Y121.781 E.01478
G1 X113.855 Y130.489 E.35943
G1 X113.855 Y129.982 E.01478
G1 X122.056 Y121.781 E.33852
G1 X121.55 Y121.781 E.01478
G1 X113.855 Y129.476 E.31761
G1 X113.855 Y128.969 E.01478
G1 X121.043 Y121.781 E.2967
G1 X120.537 Y121.781 E.01478
G1 X113.855 Y128.463 E.27579
G1 X113.855 Y127.956 E.01478
G1 X120.03 Y121.781 E.25488
G1 X119.524 Y121.781 E.01478
G1 X113.855 Y127.45 E.23398
G1 X113.855 Y126.943 E.01478
G1 X119.017 Y121.781 E.21307
G1 X118.51 Y121.781 E.01478
G1 X113.855 Y126.437 E.19216
G1 X113.855 Y125.93 E.01478
G1 X118.004 Y121.781 E.17125
G1 X117.497 Y121.781 E.01478
G1 X113.855 Y125.424 E.15034
G1 X113.855 Y124.917 E.01478
G1 X116.991 Y121.781 E.12943
G1 X116.484 Y121.781 E.01478
G1 X113.855 Y124.41 E.10853
G1 X113.855 Y123.904 E.01478
G1 X115.978 Y121.781 E.08762
G1 X115.471 Y121.781 E.01478
G1 X113.855 Y123.397 E.06671
G1 X113.855 Y122.891 E.01478
G1 X114.965 Y121.781 E.0458
G1 X114.458 Y121.781 E.01478
M73 P5 R22
G1 X113.694 Y122.545 E.03153
G1 X113.938 Y121.796 F9600
;WIDTH:0.444808
G1 F6000
G1 X113.888 Y121.796 E.00165
G1 X113.863 Y121.839 E.00165
G1 X113.888 Y121.883 E.00165
G1 X113.943 Y121.874 E.00184
; stop printing object calibration_cube.stl id:4630854464341383582 copy 0
;LAYER_CHANGE
;Z:0.6
;HEIGHT:0.2
;BEFORE_LAYER_CHANGE 
G92 E0.0 
;0.6
G1 E-2.91729 F2400
;WIPE_START
G1 F6000
G1 X113.888 Y121.883 E-.02242
G1 X113.863 Y121.839 E-.02009
G1 X113.888 Y121.796 E-.02009
G1 X113.938 Y121.796 E-.02009
;WIPE_END
;AFTER_LAYER_CHANGE
;0.6
;_SET_FAN_SPEED_CHANGING_LAYER
; printing object calibration_cube.stl id:4630854464341383582 copy 0
G1 Z1 F9600
G1 X131.662 Y139.589 Z1
G1 Z.6
G1 E3 F2400
;TYPE:Inner wall
;WIDTH:0.399999
G1 F9600
G1 X113.534 Y139.589 E.5275
G1 X113.534 Y121.46 E.5275
G1 X131.662 Y121.46 E.5275
G1 X131.662 Y139.549 E.52634
G1 X132.019 Y139.946
G1 X113.177 Y139.946 E.54828
G1 X113.177 Y121.103 E.54828
G1 X132.019 Y121.103 E.54828
G1 X132.019 Y139.906 E.54712
M204 S700
G1 X132.398 Y140.324
;TYPE:Outer wall
G1 X112.798 Y140.324 E.57031
G1 X112.798 Y120.724 E.57031
G1 X132.398 Y120.724 E.57031
G1 X132.398 Y140.284 E.56915
G1 E-2.75 F2400
;WIPE_START
G1 F9600
G1 X131.398 Y140.286 E-.25
;WIPE_END
G1 Z1
G1 X131.502 Y123.892 Z1
G1 Z.6
G1 E3 F2400
M204 S1000
;TYPE:Internal solid infill
;WIDTH:0.401098
G1 F6000
G1 X129.391 Y121.781 E.08714
G1 X128.884 Y121.781 E.01478
G1 X131.341 Y124.238 E.10141
G1 X131.341 Y124.745 E.01478
G1 X128.378 Y121.781 E.12232
G1 X127.871 Y121.781 E.01478
G1 X131.341 Y125.251 E.14323
G1 X131.341 Y125.758 E.01478
G1 X127.364 Y121.781 E.16414
G1 X126.858 Y121.781 E.01478
G1 X131.341 Y126.264 E.18505
G1 X131.341 Y126.771 E.01478
G1 X126.351 Y121.781 E.20595
G1 X125.845 Y121.781 E.01478
G1 X131.341 Y127.277 E.22686
G1 X131.341 Y127.784 E.01478
G1 X125.338 Y121.781 E.24777
