; HEADER_BLOCK_START
; generated by OrcaSlicer 2.3.2 on 2026-05-19 at 10:29:24
; total layer number: 450
; filament_density: 1.24
; filament_diameter: 1.75
; max_z_height: 90.00
; filament: 1
; HEADER_BLOCK_END

; THUMBNAIL_BLOCK_START

;
; THUMBNAIL_BLOCK_END

; THUMBNAIL_BLOCK_START

;
; THUMBNAIL_BLOCK_END

; external perimeters extrusion width = 0.40mm
; perimeters extrusion width = 0.40mm
; infill extrusion width = 0.40mm
; solid infill extrusion width = 0.40mm
; top infill extrusion width = 0.40mm
; first layer extrusion width = 0.40mm

; EXECUTABLE_BLOCK_START
M73 P0 R119
M201 X1000 Y1000 Z200 E5000
M203 X200 Y200 Z10 E60
M204 P1250 R1250 T1250
M205 X8.00 Y8.00 Z0.40 E5.00 ; sets the jerk limits, mm/sec
M190 S45 ; set bed temperature and wait for it to be reached
M104 S230 ; set nozzle temperature
;TYPE:Custom
G21 ;metric values
G90 ;absolute positioning
M82 ;set extruder to absolute mode
M107 ;start with the fan off
G28 X0 Y0 ;move X/Y to min endstops
G28 Z0 ;move Z to min endstops
G0 Z0.2 F1800 ; move nozzle to print position
G92 E0 ; specify current extruder position as zero
G1 Y10 X180 E50 F1200 ; extrude a line in front of the printer
G92 E0 ; specify current extruder position as zero
G0 Z20 F6000 ; move head up
G1 E-7 F2400 ; retract
G04 S2 ; wait 2s
G0 X0 F6000 ; wipe from oozed filament
G1 E-1 F2400 ; undo some of the retraction to avoid oozing
G1 F6000 ; set travel speed to move to start printing point
M117
G90
G21
M83 ; use relative distances for extrusion
; filament start gcode
M106 S0
;LAYER_CHANGE
;Z:0.2
;HEIGHT:0.2
;BEFORE_LAYER_CHANGE 
G92 E0.0 
;0.2
G1 E-3 F2400
;AFTER_LAYER_CHANGE
;0.2
;_SET_FAN_SPEED_CHANGING_LAYER
M104 S230 ; set nozzle temperature
M204 S1000
G1 Z.6 F9600
G1 X108.634 Y112.19
G1 Z.6
G1 Z.2
G1 E3 F2400
;TYPE:Skirt
;WIDTH:0.4
G1 F3000
G1 X110.167 Y111.772 E.04624
G1 X111.863 Y111.57 E.0497
G1 X143.002 Y111.557 E.90608
G1 X145.072 Y111.73 E.06043
G1 X146.548 Y112.066 E.04405
G1 X148.072 Y112.638 E.04736
G1 X148.859 Y113.039 E.0257
G1 X150.187 Y113.912 E.04624
G1 X151.378 Y114.963 E.04624
G1 X152.811 Y116.753 E.06672
G1 X153.576 Y118.146 E.04624
G1 X153.913 Y118.962 E.0257
G1 X154.356 Y120.489 E.04624
G1 X154.574 Y121.961 E.04331
G1 X154.613 Y122.846 E.02579
G1 X154.613 Y132.154 E.27082
G1 X154.422 Y134.175 E.05907
G1 X153.782 Y136.377 E.06672
G1 X153.083 Y137.803 E.04624
G1 X152.609 Y138.549 E.0257
G1 X151.615 Y139.789 E.04624
G1 X149.894 Y141.304 E.06672
G1 X148.539 Y142.134 E.04624
G1 X147.08 Y142.764 E.04624
G1 X145.7 Y143.152 E.04172
G1 X144.026 Y143.391 E.04919
G1 X142.75 Y143.449 E.03717
G1 X111.909 Y143.433 E.89742
G1 X109.639 Y143.11 E.06672
G1 X108.127 Y142.619 E.04624
G1 X107.322 Y142.255 E.0257
G1 X105.387 Y141.025 E.06672
G1 X104.212 Y139.956 E.04624
G1 X103.2 Y138.731 E.04624
G1 X102.371 Y137.375 E.04624
G1 X101.741 Y135.916 E.04624
G1 X101.323 Y134.383 E.04624
G1 X101.181 Y133.465 E.02704
G1 X101.102 Y132.2 E.03688
G1 X101.102 Y122.8 E.27352
G1 X101.167 Y121.653 E.03342
G1 X101.292 Y120.779 E.0257
G1 X101.687 Y119.24 E.04624
G1 X102.631 Y117.15 E.06672
G1 X103.105 Y116.405 E.0257
G1 X104.099 Y115.165 E.04624
G1 X105.82 Y113.649 E.06672
G1 X107.175 Y112.82 E.04624
G1 X108.597 Y112.206 E.04507
G1 X108.738 Y112.534 F9600
G1 F3000
G1 X108.763 Y112.523 E.00077
G1 X110.247 Y112.12 E.04477
G1 X111.891 Y111.926 E.04815
G1 X143.002 Y111.914 E.90526
G1 X145.024 Y112.084 E.05903
G1 X146.458 Y112.412 E.04282
G1 X147.932 Y112.967 E.04583
G1 X148.674 Y113.345 E.02424
G1 X149.961 Y114.188 E.04477
G1 X151.116 Y115.205 E.04477
G1 X152.517 Y116.956 E.06525
G1 X153.256 Y118.305 E.04477
G1 X153.575 Y119.075 E.02424
G1 X154.004 Y120.552 E.04477
G1 X154.217 Y121.98 E.04201
G1 X154.255 Y122.846 E.02522
G1 X154.255 Y132.154 E.27082
G1 X154.073 Y134.1 E.05687
G1 X153.692 Y135.59 E.04477
G1 X152.769 Y137.634 E.06525
G1 X152.322 Y138.337 E.02424
G1 X151.361 Y139.538 E.04477
G1 X149.678 Y141.02 E.06525
G1 X148.365 Y141.822 E.04477
G1 X146.952 Y142.43 E.04477
G1 X145.616 Y142.805 E.04036
G1 X144.008 Y143.034 E.04727
G1 X142.75 Y143.092 E.03662
G1 X111.934 Y143.077 E.89668
G1 X109.714 Y142.761 E.06525
G1 X108.914 Y142.528 E.02424
G1 X107.492 Y141.941 E.04477
G1 X106.167 Y141.158 E.04477
G1 X104.966 Y140.197 E.04477
G1 X103.484 Y138.514 E.06525
G1 X102.682 Y137.201 E.04477
G1 X102.074 Y135.788 E.04477
G1 X101.671 Y134.303 E.04477
G1 X101.537 Y133.437 E.02549
G1 X101.459 Y132.2 E.03607
G1 X101.459 Y122.8 E.27352
G1 X101.523 Y121.679 E.03268
G1 X101.641 Y120.854 E.02424
G1 X102.022 Y119.364 E.04477
G1 X102.945 Y117.32 E.06525
G1 X103.392 Y116.617 E.02424
G1 X104.353 Y115.416 E.04477
G1 X106.036 Y113.933 E.06525
G1 X107.349 Y113.132 E.04477
G1 X108.702 Y112.549 E.04284
G1 X108.825 Y112.907 F9600
G1 F3000
G1 X109.639 Y112.627 E.02506
G1 X111.141 Y112.343 E.04448
G1 X111.919 Y112.282 E.02269
G1 X143.002 Y112.272 E.90445
G1 X144.976 Y112.437 E.05764
G1 X146.369 Y112.757 E.04159
G1 X147.793 Y113.295 E.0443
G1 X148.49 Y113.651 E.02277
G1 X149.736 Y114.465 E.0433
G1 X150.854 Y115.447 E.0433
G1 X152.223 Y117.159 E.06378
G1 X152.937 Y118.465 E.0433
G1 X153.236 Y119.188 E.02277
G1 X153.653 Y120.616 E.0433
G1 X153.86 Y122 E.04071
G1 X153.898 Y122.846 E.02465
G1 X153.898 Y132.154 E.27082
G1 X153.835 Y133.25 E.03195
G1 X153.575 Y134.715 E.0433
G1 X153.112 Y136.129 E.0433
G1 X152.454 Y137.464 E.0433
G1 X152.035 Y138.125 E.02277
G1 X150.611 Y139.791 E.06378
G1 X149.461 Y140.736 E.0433
G1 X148.807 Y141.165 E.02277
G1 X147.482 Y141.843 E.0433
G1 X146.129 Y142.314 E.04169
G1 X144.441 Y142.635 E.04999
G1 X143.04 Y142.727 E.04086
G1 X112.35 Y142.735 E.893
G1 X111.254 Y142.671 E.03195
G1 X110.48 Y142.561 E.02277
G1 X109.038 Y142.193 E.0433
G1 X107.04 Y141.291 E.06378
G1 X105.811 Y140.451 E.0433
G1 X104.713 Y139.447 E.0433
G1 X103.768 Y138.298 E.0433
G1 X103.339 Y137.643 E.02277
G1 X102.407 Y135.659 E.06378
G1 X102.018 Y134.223 E.0433
G1 X101.893 Y133.409 E.02395
G1 X101.816 Y132.2 E.03526
G1 X101.816 Y122.8 E.27352
G1 X101.99 Y120.929 E.05467
G1 X102.602 Y118.824 E.06378
G1 X103.26 Y117.49 E.0433
G1 X103.679 Y116.829 E.02277
G1 X105.104 Y115.163 E.06378
G1 X106.253 Y114.217 E.0433
G1 X106.907 Y113.788 E.02277
G1 X108.232 Y113.111 E.0433
G1 X108.787 Y112.92 E.01707
G1 X108.903 Y113.257 F9600
G1 F3000
G1 X109.72 Y112.975 E.02514
G1 X111.169 Y112.699 E.04293
G1 X111.947 Y112.638 E.02269
G1 X143.002 Y112.629 E.90364
G1 X144.928 Y112.791 E.05624
G1 X146.28 Y113.103 E.04036
G1 X147.654 Y113.624 E.04276
G1 X148.306 Y113.957 E.0213
G1 X149.51 Y114.742 E.04183
G1 X150.591 Y115.69 E.04183
M73 P0 R118
G1 X151.93 Y117.362 E.06232
G1 X152.617 Y118.624 E.04183
G1 X152.897 Y119.301 E.0213
G1 X153.302 Y120.68 E.04183
G1 X153.504 Y122.019 E.03941
G1 X153.541 Y122.846 E.02409
G1 X153.541 Y132.154 E.27082
G1 X153.478 Y133.224 E.03121
G1 X153.226 Y134.64 E.04183
G1 X152.777 Y136.006 E.04183
G1 X152.14 Y137.294 E.04183
G1 X151.748 Y137.912 E.0213
G1 X150.356 Y139.54 E.06232
G1 X149.807 Y140.024 E.0213
G1 X148.633 Y140.854 E.04183
G1 X147.354 Y141.51 E.04183
G1 X146.045 Y141.967 E.04033
G1 X144.394 Y142.281 E.04892
G1 X143.022 Y142.371 E.04
G1 X112.35 Y142.378 E.89246
G1 X111.28 Y142.315 E.03121
G1 X110.555 Y142.212 E.0213
G1 X109.161 Y141.858 E.04183
G1 X107.21 Y140.977 E.06232
G1 X106.024 Y140.164 E.04183
G1 X104.964 Y139.192 E.04183
G1 X104.48 Y138.643 E.0213
G1 X103.65 Y137.469 E.04183
G1 X102.74 Y135.531 E.06232
G1 X102.366 Y134.142 E.04183
G1 X102.249 Y133.381 E.0224
G1 X102.173 Y132.2 E.03445
G1 X102.173 Y122.8 E.27352
G1 X102.339 Y121.005 E.05247
G1 X102.937 Y118.948 E.06232
G1 X103.574 Y117.659 E.04183
G1 X103.966 Y117.041 E.0213
G1 X105.358 Y115.414 E.06232
G1 X105.907 Y114.93 E.0213
G1 X107.081 Y114.1 E.04183
G1 X108.361 Y113.444 E.04183
G1 X108.865 Y113.27 E.01553
; printing object temperature_tower.drc id:65928916291813380 copy 0
G1 E-2.2 F2400
;WIPE_START
G1 F3000
G1 X109.72 Y112.975 E-.72306
G1 X109.814 Y112.957 E-.07694
;WIPE_END
G1 Z.6 F9600
G1 X110.787 Y118.25 Z.6
G1 Z.2
G1 E3 F2400
;TYPE:Brim
G1 F3000
G1 X110.937 Y118.192 E.00467
G1 X111.6 Y118.039 E.01981
G1 X112.357 Y117.979 E.0221
G1 X142.995 Y117.986 E.89149
G1 X143.682 Y118.028 E.02001
G1 X144.199 Y118.098 E.01519
G1 X144.926 Y118.286 E.02185
G1 X145.553 Y118.552 E.01981
G1 X146.136 Y118.903 E.01982
G1 X146.665 Y119.334 E.01982
G1 X147.127 Y119.834 E.01982
G1 X147.514 Y120.395 E.01982
G1 X147.818 Y121.005 E.01982
G1 X148.033 Y121.651 E.01982
G1 X148.155 Y122.323 E.01987
G1 X148.184 Y122.851 E.0154
G1 X148.184 Y132.147 E.27049
G1 X148.136 Y132.833 E.02001
G1 X147.992 Y133.499 E.01982
G1 X147.756 Y134.138 E.01982
G1 X147.432 Y134.738 E.01982
G1 X147.027 Y135.286 E.01982
G1 X146.549 Y135.771 E.01982
G1 X146.007 Y136.184 E.01982
G1 X145.413 Y136.517 E.01982
G1 X144.776 Y136.762 E.01985
G1 X144.2 Y136.901 E.01725
G1 X143.682 Y136.971 E.0152
G1 X142.746 Y137.021 E.02729
G1 X112.357 Y137.021 E.88424
G1 X111.671 Y136.972 E.02001
G1 X111.005 Y136.828 E.01982
G1 X110.366 Y136.593 E.01982
G1 X109.766 Y136.269 E.01982
G1 X109.218 Y135.864 E.01982
G1 X108.733 Y135.386 E.01982
G1 X108.32 Y134.844 E.01982
G1 X107.988 Y134.249 E.01982
G1 X107.742 Y133.613 E.01982
G1 X107.589 Y132.95 E.01981
G1 X107.53 Y132.193 E.0221
G1 X107.53 Y122.806 E.27313
G1 X107.578 Y122.12 E.02001
G1 X107.722 Y121.454 E.01982
G1 X107.958 Y120.815 E.01982
G1 X108.282 Y120.216 E.01982
G1 X108.687 Y119.668 E.01982
G1 X109.165 Y119.183 E.01982
G1 X109.707 Y118.77 E.01982
G1 X110.301 Y118.437 E.01982
G1 X110.75 Y118.264 E.01399
G1 X110.879 Y118.597 F9600
G1 F3000
G1 X111.035 Y118.537 E.00488
G1 X111.647 Y118.394 E.01828
G1 X112.376 Y118.336 E.02127
G1 X142.981 Y118.343 E.89054
G1 X143.643 Y118.384 E.0193
G1 X144.124 Y118.449 E.01412
G1 X144.818 Y118.629 E.02087
G1 X145.397 Y118.875 E.01829
G1 X145.924 Y119.192 E.01791
G1 X146.414 Y119.59 E.01835
G1 X146.852 Y120.064 E.01879
G1 X147.209 Y120.584 E.01835
G1 X147.49 Y121.149 E.01835
G1 X147.684 Y121.733 E.01791
G1 X147.799 Y122.358 E.0185
G1 X147.827 Y122.864 E.01474
G1 X147.827 Y132.131 E.26965
G1 X147.78 Y132.79 E.01923
G1 X147.646 Y133.406 E.01835
G1 X147.433 Y133.984 E.01791
G1 X147.134 Y134.539 E.01835
G1 X146.76 Y135.047 E.01835
G1 X146.307 Y135.507 E.01879
G1 X145.804 Y135.888 E.01835
G1 X145.254 Y136.195 E.01835
G1 X144.676 Y136.418 E.018
G1 X144.128 Y136.551 E.0164
G1 X143.645 Y136.616 E.0142
G1 X142.734 Y136.663 E.02655
G1 X112.366 Y136.663 E.88363
G1 X111.729 Y136.618 E.01857
G1 X111.112 Y136.486 E.01835
G1 X110.52 Y136.269 E.01835
G1 X109.965 Y135.97 E.01835
G1 X109.457 Y135.596 E.01835
G1 X109.007 Y135.154 E.01835
G1 X108.616 Y134.641 E.01879
G1 X108.309 Y134.09 E.01835
G1 X108.087 Y133.516 E.01791
G1 X107.945 Y132.904 E.01828
G1 X107.887 Y132.175 E.02127
G1 X107.887 Y122.823 E.27212
G1 X107.932 Y122.178 E.01879
G1 X108.068 Y121.547 E.01879
G1 X108.288 Y120.956 E.01835
G1 X108.588 Y120.402 E.01835
G1 X108.964 Y119.895 E.01835
G1 X109.407 Y119.447 E.01835
G1 X109.91 Y119.065 E.01835
G1 X110.461 Y118.758 E.01835
G1 X110.841 Y118.611 E.01187
G1 X110.969 Y118.945 F9600
G1 F3000
G1 X111.147 Y118.877 E.00555
G1 X111.694 Y118.75 E.01633
G1 X112.394 Y118.694 E.02044
G1 X142.967 Y118.7 E.88959
G1 X143.604 Y118.739 E.01858
G1 X144.049 Y118.799 E.01305
G1 X144.71 Y118.971 E.01989
G1 X145.227 Y119.191 E.01634
G1 X145.712 Y119.481 E.01645
G1 X146.163 Y119.846 E.01687
G1 X146.567 Y120.282 E.0173
G1 X146.904 Y120.772 E.01731
G1 X147.155 Y121.278 E.01645
G1 X147.335 Y121.815 E.01645
G1 X147.442 Y122.394 E.01714
G1 X147.47 Y122.877 E.01408
G1 X147.47 Y132.114 E.26878
G1 X147.424 Y132.747 E.01845
G1 X147.3 Y133.313 E.01688
G1 X147.103 Y133.843 E.01645
G1 X146.835 Y134.341 E.01645
G1 X146.492 Y134.808 E.01686
G1 X146.064 Y135.243 E.01774
G1 X145.602 Y135.592 E.01686
G1 X145.095 Y135.874 E.01688
G1 X144.576 Y136.074 E.01617
G1 X144.057 Y136.2 E.01554
G1 X143.607 Y136.26 E.01321
G1 X142.721 Y136.306 E.0258
G1 X112.374 Y136.306 E.88302
G1 X111.772 Y136.262 E.01758
G1 X111.204 Y136.14 E.01689
G1 X110.66 Y135.939 E.01688
G1 X110.15 Y135.663 E.01688
G1 X109.684 Y135.318 E.01688
G1 X109.271 Y134.911 E.01687
G1 X108.911 Y134.438 E.0173
G1 X108.63 Y133.931 E.01687
G1 X108.428 Y133.403 E.01645
G1 X108.3 Y132.857 E.01633
G1 X108.244 Y132.156 E.02044
G1 X108.244 Y122.839 E.27111
G1 X108.286 Y122.236 E.01758
G1 X108.415 Y121.64 E.01775
G1 X108.617 Y121.097 E.01686
G1 X108.895 Y120.588 E.01688
G1 X109.241 Y120.123 E.01688
G1 X109.65 Y119.711 E.01687
G1 X110.112 Y119.361 E.01688
G1 X110.62 Y119.08 E.01688
G1 X110.932 Y118.96 E.00974
G1 X111.06 Y119.293 F9600
G1 F3000
G1 X111.245 Y119.222 E.00578
G1 X111.741 Y119.106 E.01482
G1 X112.413 Y119.051 E.0196
G1 X142.952 Y119.057 E.88863
G1 X143.565 Y119.095 E.01788
G1 X143.973 Y119.149 E.01197
G1 X144.602 Y119.313 E.01891
G1 X145.071 Y119.513 E.01483
G1 X145.5 Y119.771 E.01457
G1 X145.912 Y120.103 E.01539
G1 X146.282 Y120.5 E.01579
G1 X146.599 Y120.96 E.01626
G1 X146.827 Y121.422 E.01499
G1 X146.986 Y121.897 E.01457
G1 X147.088 Y122.443 E.01617
G1 X147.113 Y122.89 E.01302
G1 X147.113 Y132.097 E.2679
G1 X147.068 Y132.703 E.01766
G1 X146.958 Y133.205 E.01497
G1 X146.779 Y133.689 E.01501
G1 X146.536 Y134.143 E.015
G1 X146.224 Y134.57 E.01537
G1 X145.822 Y134.978 E.01668
G1 X145.4 Y135.296 E.01537
G1 X144.936 Y135.552 E.01542
G1 X144.462 Y135.734 E.01477
G1 X143.985 Y135.849 E.01428
G1 X143.57 Y135.905 E.0122
G1 X142.709 Y135.949 E.02507
G1 X112.384 Y135.948 E.88241
G1 X111.83 Y135.908 E.01615
G1 X111.312 Y135.798 E.01542
G1 X110.815 Y135.615 E.0154
G1 X110.349 Y135.365 E.0154
G1 X109.923 Y135.051 E.0154
G1 X109.535 Y134.669 E.01583
G1 X109.208 Y134.236 E.01581
G1 X108.952 Y133.773 E.01539
G1 X108.772 Y133.305 E.01457
G1 X108.656 Y132.809 E.01482
G1 X108.601 Y132.138 E.0196
G1 X108.601 Y122.855 E.2701
G1 X108.64 Y122.294 E.01636
G1 X108.761 Y121.733 E.01669
G1 X108.947 Y121.239 E.01537
G1 X109.201 Y120.775 E.0154
G1 X109.518 Y120.351 E.0154
G1 X109.891 Y119.976 E.0154
G1 X110.314 Y119.658 E.0154
G1 X110.778 Y119.402 E.01541
G1 X111.023 Y119.308 E.00763
G1 X111.15 Y119.642 F9600
G1 F3000
G1 X111.358 Y119.562 E.00647
G1 X111.789 Y119.461 E.01289
G1 X112.432 Y119.408 E.01876
G1 X142.938 Y119.414 E.88766
G1 X143.527 Y119.45 E.01717
G1 X143.898 Y119.499 E.01089
G1 X144.494 Y119.655 E.01791
G1 X144.901 Y119.829 E.0129
G1 X145.289 Y120.061 E.01315
G1 X145.662 Y120.36 E.01392
G1 X146.007 Y120.731 E.01473
G1 X146.293 Y121.149 E.01474
G1 X146.493 Y121.552 E.01309
G1 X146.637 Y121.98 E.01313
G1 X146.733 Y122.493 E.0152
G1 X146.756 Y122.903 E.01196
G1 X146.756 Y132.08 E.26701
G1 X146.712 Y132.658 E.01688
G1 X146.612 Y133.112 E.01351
G1 X146.449 Y133.549 E.01357
G1 X146.228 Y133.959 E.01355
G1 X145.956 Y134.332 E.01343
G1 X145.58 Y134.714 E.0156
G1 X145.199 Y134.999 E.01385
G1 X144.778 Y135.23 E.01396
G1 X144.349 Y135.394 E.01336
G1 X143.914 Y135.499 E.01302
G1 X143.533 Y135.549 E.0112
G1 X142.697 Y135.592 E.02434
G1 X112.393 Y135.591 E.88179
G1 X111.888 Y135.554 E.01473
G1 X111.419 Y135.455 E.01396
G1 X110.955 Y135.285 E.01437
G1 X110.534 Y135.058 E.01393
G1 X110.149 Y134.773 E.01392
G1 X109.8 Y134.427 E.01433
G1 X109.504 Y134.034 E.0143
G1 X109.274 Y133.615 E.01392
G1 X109.113 Y133.193 E.01314
G1 X109.012 Y132.761 E.01289
G1 X108.958 Y132.119 E.01876
G1 X108.958 Y122.871 E.26908
G1 X108.994 Y122.352 E.01514
G1 X109.107 Y121.827 E.01563
G1 X109.276 Y121.382 E.01385
G1 X109.506 Y120.962 E.01393
G1 X109.794 Y120.58 E.01393
G1 X110.132 Y120.241 E.01393
G1 X110.515 Y119.954 E.01393
G1 X110.936 Y119.723 E.01395
G1 X111.113 Y119.656 E.00551
G1 X111.24 Y119.99 F9600
G1 F3000
G1 X111.456 Y119.907 E.00673
G1 X111.837 Y119.817 E.0114
G1 X112.451 Y119.765 E.01791
G1 X142.924 Y119.771 E.88669
G1 X143.489 Y119.805 E.01647
G1 X143.822 Y119.849 E.00979
G1 X144.37 Y119.991 E.01646
G1 X144.732 Y120.145 E.01145
G1 X145.079 Y120.351 E.01172
G1 X145.412 Y120.617 E.01243
G1 X145.722 Y120.949 E.01319
G1 X145.988 Y121.336 E.01368
G1 X146.164 Y121.696 E.01165
G1 X146.288 Y122.063 E.01127
G1 X146.378 Y122.543 E.01421
G1 X146.399 Y122.916 E.01089
G1 X146.399 Y132.062 E.26612
G1 X146.358 Y132.598 E.01564
G1 X146.27 Y133.003 E.01206
