; HEADER_BLOCK_START
; generated by OrcaSlicer 2.3.2 on 2026-05-19 at 10:36:16
; total layer number: 101
; filament_density: 1.24
; filament_diameter: 1.75
; max_z_height: 31.88
; filament: 1
; HEADER_BLOCK_END

; THUMBNAIL_BLOCK_START

;
; THUMBNAIL_BLOCK_END

; THUMBNAIL_BLOCK_START

;
; THUMBNAIL_BLOCK_END

; external perimeters extrusion width = 0.70mm
; perimeters extrusion width = 0.40mm
; infill extrusion width = 0.40mm
; solid infill extrusion width = 0.40mm
; top infill extrusion width = 0.40mm
; first layer extrusion width = 0.40mm

; EXECUTABLE_BLOCK_START
M73 P0 R40
M201 X1000 Y1000 Z200 E5000
M203 X200 Y200 Z10 E60
M204 P1250 R1250 T1250
M205 X8.00 Y8.00 Z0.40 E5.00 ; sets the jerk limits, mm/sec
M190 S60 ; set bed temperature and wait for it to be reached
M104 S220 ; set nozzle temperature
;TYPE:Custom
G21 ;metric values
G90 ;absolute positioning
M82 ;set extruder to absolute mode
M107 ;start with the fan off
G28 X0 Y0 ;move X/Y to min endstops
G28 Z0 ;move Z to min endstops
G0 Z0.2 F1800 ; move nozzle to print position
G92 E0 ; specify current extruder position as zero
G1 Y10 X180 E50 F1200 ; extrude a line in front of the printer
G92 E0 ; specify current extruder position as zero
G0 Z20 F6000 ; move head up
G1 E-7 F2400 ; retract
G04 S2 ; wait 2s
G0 X0 F6000 ; wipe from oozed filament
G1 E-1 F2400 ; undo some of the retraction to avoid oozing
G1 F6000 ; set travel speed to move to start printing point
M117
G90
G21
M83 ; use relative distances for extrusion
; filament start gcode
M106 S0
;LAYER_CHANGE
;Z:0.2
;HEIGHT:0.2
;BEFORE_LAYER_CHANGE 
G92 E0.0 
;0.2
G1 Z.2 F9600
;AFTER_LAYER_CHANGE
;0.2
;_SET_FAN_SPEED_CHANGING_LAYER
M204 S1000
G1 E-3 F2400
G1 Z.6 F9600
G1 X47.069 Y67.292
G1 Z.2
G1 Z.2
G1 E3 F2400
;TYPE:Skirt
;WIDTH:0.4
G1 F3000
G1 X48.675 Y66.899 E.04811
G1 X50.372 Y66.598 E.05017
G1 X52.571 Y66.347 E.06438
G1 X54.209 Y66.263 E.04772
G1 X205.404 Y66.257 E4.3994
G1 X207.508 Y66.401 E.06138
G1 X209.337 Y66.701 E.05392
G1 X211.241 Y67.19 E.05719
G1 X212.934 Y67.79 E.05228
G1 X214.639 Y68.566 E.05451
G1 X216.232 Y69.464 E.0532
G1 X217.93 Y70.64 E.06011
G1 X219.312 Y71.795 E.0524
G1 X220.707 Y73.191 E.05744
G1 X221.973 Y74.718 E.05771
G1 X222.982 Y76.182 E.05172
G1 X223.972 Y77.934 E.05858
G1 X224.83 Y79.867 E.06152
G1 X225.414 Y81.606 E.05338
G1 X225.88 Y83.568 E.05866
G1 X226.146 Y85.449 E.05528
G1 X226.247 Y87.661 E.06444
G1 X226.248 Y167.456 E2.32182
G1 X226.079 Y170.157 E.07875
G1 X225.683 Y172.355 E.065
G1 X225.298 Y173.783 E.04302
G1 X224.792 Y175.229 E.04459
G1 X223.795 Y177.409 E.06975
G1 X222.607 Y179.39 E.06721
G1 X221.492 Y180.893 E.05445
G1 X219.583 Y182.95 E.08166
G1 X217.978 Y184.32 E.06141
G1 X215.679 Y185.866 E.08061
G1 X213.233 Y187.086 E.07954
G1 X210.672 Y187.975 E.07888
G1 X208.018 Y188.531 E.07891
G1 X206.731 Y188.676 E.03768
G1 X205.064 Y188.748 E.04854
G1 X55 Y188.749 E4.36649
G1 X53.055 Y188.687 E.05663
M73 P1 R40
G1 X50.932 Y188.482 E.06205
G1 X49.145 Y188.193 E.05269
G1 X47.316 Y187.787 E.05451
G1 X45.514 Y187.272 E.05452
G1 X43.747 Y186.65 E.05453
G1 X41.752 Y185.801 E.06309
G1 X40.035 Y184.932 E.05599
G1 X38.634 Y184.118 E.04716
G1 X36.897 Y182.97 E.06059
G1 X35.362 Y181.806 E.05603
G1 X33.822 Y180.476 E.0592
G1 X32.394 Y179.074 E.05825
G1 X31.189 Y177.732 E.05248
G1 X30.017 Y176.267 E.05459
G1 X28.938 Y174.737 E.05448
G1 X27.897 Y173.048 E.05773
G1 X27.007 Y171.383 E.05492
G1 X26.111 Y169.41 E.06308
G1 X25.432 Y167.609 E.05597
G1 X24.949 Y166.063 E.04714
G1 X24.531 Y164.427 E.04913
G1 X24.138 Y162.394 E.06027
G1 X23.896 Y160.491 E.05582
G1 X23.782 Y158.852 E.04778
G1 X23.751 Y97.5 E1.7852
G1 X23.931 Y94.179 E.09678
G1 X24.184 Y92.331 E.05427
G1 X24.548 Y90.498 E.05437
G1 X25.477 Y87.265 E.0979
G1 X26.142 Y85.518 E.05439
G1 X26.911 Y83.812 E.05444
G1 X27.727 Y82.252 E.05124
G1 X28.682 Y80.656 E.05412
G1 X29.738 Y79.111 E.05445
G1 X30.886 Y77.629 E.05455
G1 X32.12 Y76.22 E.05449
G1 X33.36 Y74.959 E.05146
G1 X34.914 Y73.563 E.06077
G1 X36.425 Y72.372 E.05599
G1 X39.284 Y70.493 E.09955
G1 X41.229 Y69.45 E.06423
G1 X42.797 Y68.735 E.05015
G1 X44.87 Y67.939 E.06459
G1 X46.517 Y67.427 E.05019
G1 X47.03 Y67.301 E.01536
G1 X47.115 Y67.648 F9600
G1 F3000
G1 X48.752 Y67.248 E.04903
G1 X50.433 Y66.95 E.0497
G1 X52.604 Y66.702 E.06355
M73 P1 R39
G1 X54.225 Y66.62 E.04725
G1 X205.39 Y66.614 E4.39851
G1 X207.462 Y66.755 E.06041
G1 X209.257 Y67.049 E.05294
G1 X211.13 Y67.529 E.05627
G1 X212.795 Y68.119 E.0514
G1 X214.484 Y68.887 E.05397
G1 X216.048 Y69.77 E.05228
G1 X217.709 Y70.92 E.05879
G1 X219.068 Y72.056 E.05152
G1 X220.439 Y73.427 E.05642
G1 X221.684 Y74.928 E.05674
G1 X222.677 Y76.367 E.05088
G1 X223.651 Y78.089 E.05756
G1 X224.495 Y79.991 E.06055
G1 X225.069 Y81.7 E.05245
G1 X225.528 Y83.627 E.05765
G1 X225.79 Y85.473 E.05424
G1 X225.89 Y87.661 E.06373
G1 X225.891 Y167.456 E2.32182
G1 X225.724 Y170.12 E.07769
G1 X225.338 Y172.264 E.0634
G1 X224.958 Y173.673 E.04244
G1 X224.457 Y175.105 E.04415
G1 X223.477 Y177.248 E.06857
G1 X222.306 Y179.198 E.06618
G1 X221.221 Y180.66 E.05298
G1 X219.331 Y182.697 E.08085
G1 X217.768 Y184.032 E.05981
G1 X215.492 Y185.563 E.07982
G1 X213.087 Y186.76 E.07817
G1 X210.569 Y187.633 E.07755
G1 X207.958 Y188.179 E.07759
G1 X205.064 Y188.391 E.08444
G1 X55 Y188.392 E4.36649
G1 X53.082 Y188.331 E.05583
G1 X50.973 Y188.127 E.06166
G1 X49.203 Y187.841 E.05218
G1 X47.395 Y187.439 E.05388
G1 X45.615 Y186.929 E.05389
G1 X43.867 Y186.314 E.0539
G1 X41.908 Y185.479 E.06197
G1 X40.202 Y184.616 E.05563
G1 X38.814 Y183.81 E.04671
G1 X37.108 Y182.681 E.05952
G1 X35.583 Y181.526 E.05568
G1 X34.069 Y180.218 E.05821
G1 X32.65 Y178.824 E.05788
G1 X31.455 Y177.494 E.05201
G1 X30.297 Y176.046 E.05396
G1 X29.231 Y174.533 E.05386
G1 X28.202 Y172.862 E.05708
G1 X27.323 Y171.217 E.05427
G1 X26.443 Y169.278 E.06196
G1 X25.769 Y167.49 E.05562
G1 X25.291 Y165.958 E.04669
G1 X24.877 Y164.341 E.04857
G1 X24.491 Y162.342 E.05922
G1 X24.25 Y160.451 E.05547
G1 X24.139 Y158.829 E.04731
G1 X24.108 Y97.5 E1.78453
G1 X24.285 Y94.225 E.09542
G1 X24.535 Y92.399 E.05365
G1 X24.894 Y90.587 E.05375
G1 X25.818 Y87.374 E.09728
G1 X26.475 Y85.647 E.05377
G1 X27.236 Y83.961 E.05382
G1 X28.042 Y82.419 E.05064
G1 X28.988 Y80.841 E.05352
G1 X30.032 Y79.314 E.05383
G1 X31.167 Y77.849 E.05392
G1 X32.387 Y76.457 E.05387
G1 X33.613 Y75.211 E.05086
G1 X35.139 Y73.84 E.05969
G1 X36.641 Y72.657 E.05564
G1 X39.47 Y70.798 E.0985
G1 X41.391 Y69.768 E.06341
G1 X43.199 Y68.952 E.05772
G1 X44.99 Y68.276 E.05572
G1 X46.622 Y67.768 E.04972
G1 X47.076 Y67.657 E.0136
G1 X47.16 Y68.004 F9600
G1 F3000
G1 X48.828 Y67.596 E.04996
G1 X50.495 Y67.302 E.04923
G1 X52.636 Y67.058 E.06273
G1 X54.242 Y66.977 E.04678
G1 X205.376 Y66.971 E4.39763
G1 X207.415 Y67.109 E.05945
G1 X209.177 Y67.397 E.05197
G1 X210.795 Y67.801 E.04853
G1 X212.657 Y68.448 E.05733
G1 X214.328 Y69.208 E.05343
G1 X215.864 Y70.076 E.05135
G1 X217.488 Y71.2 E.05747
G1 X218.824 Y72.317 E.05064
G1 X220.17 Y73.663 E.05541
G1 X221.395 Y75.138 E.05578
G1 X222.372 Y76.553 E.05004
G1 X223.329 Y78.244 E.05655
G1 X224.16 Y80.116 E.05958
G1 X224.725 Y81.794 E.05152
G1 X225.176 Y83.687 E.05663
G1 X225.433 Y85.498 E.05321
G1 X225.533 Y87.661 E.06301
G1 X225.534 Y167.456 E2.32182
G1 X225.469 Y169.104 E.04801
G1 X225.176 Y171.318 E.06498
G1 X224.618 Y173.562 E.06729
G1 X223.61 Y176.175 E.08148
G1 X222.612 Y178.053 E.06188
G1 X221.783 Y179.328 E.04426
G1 X220.95 Y180.428 E.04014
G1 X219.078 Y182.444 E.08005
G1 X217.558 Y183.743 E.0582
G1 X215.304 Y185.259 E.07902
G1 X212.941 Y186.434 E.0768
G1 X210.465 Y187.291 E.07623
G1 X207.899 Y187.826 E.07626
G1 X205.064 Y188.034 E.08271
G1 X55 Y188.035 E4.36649
G1 X53.11 Y187.975 E.05504
M73 P2 R39
G1 X51.014 Y187.772 E.06126
G1 X49.261 Y187.488 E.05166
G1 X47.475 Y187.091 E.05326
G1 X45.715 Y186.586 E.05327
G1 X43.988 Y185.977 E.05328
G1 X42.064 Y185.158 E.06085
G1 X40.369 Y184.3 E.05528
G1 X38.994 Y183.501 E.04626
G1 X37.319 Y182.393 E.05845
G1 X35.804 Y181.245 E.05532
G1 X34.315 Y179.96 E.05723
G1 X32.905 Y178.574 E.05751
G1 X31.721 Y177.257 E.05154
G1 X30.578 Y175.824 E.05333
G1 X29.524 Y174.329 E.05324
G1 X28.507 Y172.677 E.05644
G1 X27.639 Y171.051 E.05363
G1 X26.775 Y169.147 E.06084
G1 X26.105 Y167.37 E.05526
G1 X25.632 Y165.852 E.04625
G1 X25.223 Y164.254 E.04801
G1 X24.844 Y162.291 E.05817
G1 X24.605 Y160.412 E.05511
G1 X24.495 Y158.806 E.04684
G1 X24.465 Y97.5 E1.78385
G1 X24.639 Y94.272 E.09407
G1 X24.885 Y92.466 E.05303
G1 X25.24 Y90.675 E.05312
G1 X26.158 Y87.483 E.09666
G1 X26.808 Y85.776 E.05314
G1 X27.56 Y84.11 E.0532
G1 X28.358 Y82.586 E.05003
G1 X29.293 Y81.026 E.05292
G1 X30.325 Y79.517 E.05321
G1 X31.448 Y78.07 E.0533
G1 X32.654 Y76.694 E.05325
G1 X33.866 Y75.463 E.05025
G1 X35.365 Y74.117 E.05861
G1 X36.857 Y72.941 E.05528
G1 X39.656 Y71.102 E.09745
G1 X41.552 Y70.087 E.06258
G1 X43.33 Y69.284 E.05676
G1 X45.11 Y68.612 E.05536
G1 X46.727 Y68.11 E.04925
G1 X47.121 Y68.013 E.01182
G1 X47.206 Y68.36 F9600
G1 F3000
G1 X48.905 Y67.945 E.05089
G1 X50.556 Y67.653 E.04876
G1 X52.669 Y67.413 E.0619
G1 X54.259 Y67.333 E.04631
G1 X205.363 Y67.328 E4.39674
G1 X207.151 Y67.439 E.05212
G1 X208.836 Y67.692 E.04958
G1 X210.699 Y68.145 E.05581
G1 X212.314 Y68.696 E.04965
G1 X214.172 Y69.53 E.05926
G1 X215.681 Y70.383 E.05042
G1 X217.267 Y71.481 E.05615
G1 X218.58 Y72.577 E.04976
G1 X219.902 Y73.899 E.0544
G1 X221.106 Y75.347 E.05481
G1 X222.067 Y76.739 E.0492
G1 X223.007 Y78.399 E.05553
G1 X223.825 Y80.24 E.05861
G1 X224.38 Y81.888 E.05059
G1 X224.824 Y83.747 E.05561
G1 X225.077 Y85.522 E.05218
G1 X225.176 Y87.661 E.0623
G1 X225.177 Y167.456 E2.32182
G1 X225.114 Y169.068 E.04695
G1 X224.826 Y171.247 E.06396
G1 X224.279 Y173.452 E.06612
G1 X223.283 Y176.032 E.08045
G1 X222.311 Y177.861 E.06027
G1 X221.496 Y179.115 E.04353
G1 X220.679 Y180.196 E.03941
G1 X218.826 Y182.192 E.07924
G1 X217.347 Y183.455 E.0566
G1 X215.116 Y184.955 E.07823
G1 X212.794 Y186.109 E.07544
G1 X210.361 Y186.95 E.0749
G1 X207.84 Y187.474 E.07494
G1 X205.064 Y187.677 E.08098
G1 X55 Y187.678 E4.36649
G1 X53.137 Y187.619 E.05424
G1 X51.055 Y187.418 E.06087
G1 X49.32 Y187.136 E.05114
G1 X47.554 Y186.742 E.05264
G1 X45.815 Y186.244 E.05265
G1 X44.109 Y185.641 E.05266
G1 X42.22 Y184.837 E.05973
G1 X39.175 Y183.193 E.10069
G1 X37.53 Y182.105 E.05739
G1 X36.024 Y180.964 E.05497
G1 X34.561 Y179.701 E.05624
G1 X33.161 Y178.325 E.05714
G1 X31.988 Y177.019 E.05108
G1 X30.858 Y175.603 E.0527
G1 X29.817 Y174.125 E.05262
G1 X28.812 Y172.491 E.0558
G1 X27.955 Y170.884 E.05299
G1 X27.107 Y169.016 E.05972
G1 X25.973 Y165.747 E.10066
G1 X25.57 Y164.167 E.04745
G1 X25.198 Y162.24 E.05713
G1 X24.96 Y160.373 E.05476
G1 X24.851 Y158.783 E.04637
G1 X24.822 Y97.5 E1.78317
G1 X24.993 Y94.318 E.09272
G1 X25.236 Y92.534 E.05241
G1 X25.586 Y90.763 E.0525
G1 X26.498 Y87.591 E.09603
G1 X27.141 Y85.905 E.05252
G1 X27.885 Y84.258 E.05258
G1 X28.673 Y82.753 E.04943
G1 X29.598 Y81.212 E.05231
G1 X30.619 Y79.72 E.05259
G1 X31.729 Y78.29 E.05268
G1 X32.922 Y76.93 E.05262
G1 X34.119 Y75.715 E.04965
G1 X35.59 Y74.394 E.05754
G1 X37.073 Y73.225 E.05493
G1 X39.843 Y71.407 E.09641
G1 X41.714 Y70.405 E.06176
G1 X43.462 Y69.616 E.05581
G1 X45.231 Y68.948 E.05501
G1 X46.832 Y68.451 E.04878
G1 X47.167 Y68.369 E.01005
; printing object SpeedTestStructure.drc id:67336291141812226 copy 0
G1 E-2.2 F2400
;WIPE_START
G1 F3000
G1 X48.139 Y68.132 E-.8
;WIPE_END
G1 Z.6 F9600
G1 X48.496 Y73.549 Z.2
G1 E3 F2400
;TYPE:Brim
G1 F3000
G1 X49.267 Y73.351 E.02318
G1 X50.054 Y73.178 E.02343
G1 X51.467 Y72.932 E.04174
G1 X52.267 Y72.831 E.02348
G1 X53.159 Y72.748 E.02605
G1 X54.507 Y72.685 E.03926
G1 X205.161 Y72.681 E4.38366
G1 X205.977 Y72.712 E.02375
G1 X206.669 Y72.774 E.02022
G1 X207.219 Y72.847 E.01616
G1 X207.905 Y72.967 E.02024
G1 X208.719 Y73.154 E.0243
G1 X209.255 Y73.304 E.01619
G1 X209.917 Y73.519 E.02028
G1 X210.439 Y73.714 E.01619
G1 X211.081 Y73.985 E.02027
G1 X211.834 Y74.349 E.02435
G1 X212.323 Y74.616 E.01622
G1 X212.921 Y74.974 E.02029
G1 X213.387 Y75.281 E.01624
G1 X213.954 Y75.69 E.02034
G1 X214.392 Y76.035 E.01622
G1 X214.922 Y76.491 E.02034
G1 X215.329 Y76.872 E.01623
G1 X215.881 Y77.438 E.023
G1 X216.379 Y78.005 E.02197
G1 X216.771 Y78.496 E.01829
G1 X217.215 Y79.108 E.022
G1 X217.493 Y79.527 E.01462
G1 X217.82 Y80.065 E.01833
G1 X218.183 Y80.729 E.02201
G1 X218.511 Y81.41 E.022
G1 X218.804 Y82.108 E.02203
G1 X218.98 Y82.579 E.01464
G1 X219.213 Y83.3 E.02205
G1 X219.379 Y83.909 E.01835
G1 X219.543 Y84.648 E.02203
G1 X219.67 Y85.395 E.02206
G1 X219.733 Y85.894 E.01463
G1 X219.814 Y87.066 E.03419
G1 X219.819 Y87.658 E.01722
G1 X219.785 Y88.528 E.02533
G1 X219.736 Y89.08 E.01613
G1 X219.623 Y89.907 E.02428
G1 X219.494 Y90.592 E.02027
G1 X219.368 Y91.133 E.01617
G1 X219.181 Y91.804 E.02028
G1 X219.01 Y92.333 E.01618
G1 X218.715 Y93.115 E.02431
G1 X218.436 Y93.754 E.02028
G1 X218.061 Y94.503 E.02437
G1 X217.789 Y94.988 E.01619
G1 X217.422 Y95.583 E.02032
G1 X217.11 Y96.044 E.01622
G1 X216.693 Y96.605 E.02033
G1 X216.343 Y97.038 E.01619
G1 X215.881 Y97.562 E.02035
G1 X215.319 Y98.138 E.02341
G1 X214.953 Y98.481 E.0146
G1 X214.38 Y98.974 E.02199
G1 X213.783 Y99.437 E.02198
G1 X213.269 Y99.799 E.01831
G1 X212.847 Y100.073 E.01463
G1 X212.195 Y100.456 E.02201
G1 X211.525 Y100.807 E.022
G1 X210.954 Y101.072 E.01832
G1 X210.253 Y101.358 E.02204
G1 X209.779 Y101.529 E.01464
G1 X209.178 Y101.719 E.01835
G1 X208.447 Y101.914 E.02202
G1 X207.705 Y102.071 E.02205
G1 X206.832 Y102.207 E.02571
G1 X205.825 Y102.297 E.02943
G1 X204.997 Y102.321 E.02408
G1 X64.828 Y102.324 E4.07857
G1 X64.258 Y102.375 E.01665
G1 X63.826 Y102.456 E.0128
G1 X63.268 Y102.619 E.01691
G1 X62.844 Y102.792 E.01333
G1 X62.344 Y103.054 E.01642
G1 X61.961 Y103.307 E.01335
G1 X61.508 Y103.676 E.01701
G1 X61.118 Y104.072 E.01617
G1 X60.79 Y104.485 E.01535
G1 X60.505 Y104.929 E.01536
G1 X60.266 Y105.4 E.01537
G1 X60.077 Y105.894 E.01538
G1 X59.938 Y106.404 E.01539
G1 X59.853 Y106.927 E.0154
G1 X59.822 Y107.453 E.01534
G1 X59.847 Y108.018 E.01646
G1 X59.938 Y108.594 E.01696
G1 X60.049 Y109.02 E.01281
G1 X60.195 Y109.433 E.01274
G1 X60.376 Y109.832 E.01275
G1 X60.598 Y110.228 E.0132
G1 X60.844 Y110.59 E.01276
G1 X61.123 Y110.933 E.01284
G1 X61.499 Y111.316 E.01563
G1 X61.815 Y111.584 E.01206
G1 X62.232 Y111.877 E.01483
G1 X62.692 Y112.136 E.01537
G1 X63.055 Y112.3 E.0116
G1 X63.553 Y112.472 E.01532
G1 X63.94 Y112.569 E.01161
G1 X64.461 Y112.651 E.01534
G1 X64.861 Y112.677 E.01168
G1 X204.998 Y112.679 E4.07762
G1 X205.838 Y112.704 E.02445
M73 P3 R39
G1 X206.668 Y112.774 E.02426
G1 X207.495 Y112.891 E.0243
G1 X208.041 Y112.995 E.01616
G1 X208.719 Y113.154 E.02027
G1 X209.253 Y113.303 E.01614
G1 X210.311 Y113.664 E.03251
G1 X210.825 Y113.873 E.01615
G1 X211.459 Y114.161 E.02025
G1 X212.324 Y114.616 E.02846
G1 X212.922 Y114.975 E.02027
G1 X213.386 Y115.281 E.01618
G1 X214.283 Y115.948 E.03254
G1 X215.024 Y116.584 E.02841
G1 X215.881 Y117.438 E.0352
G1 X216.616 Y118.297 E.0329
G1 X217.286 Y119.212 E.03299
G1 X217.883 Y120.175 E.03297
G1 X218.406 Y121.181 E.03298
G1 X218.85 Y122.225 E.03301
G1 X219.213 Y123.3 E.03302
G1 X219.492 Y124.4 E.03304
G1 X219.687 Y125.52 E.03306
G1 X219.796 Y126.652 E.03309
G1 X219.819 Y127.696 E.03039
G1 X219.801 Y128.249 E.01612
G1 X219.75 Y128.942 E.02021
G1 X219.623 Y129.909 E.02837
G1 X219.494 Y130.592 E.02022
G1 X219.369 Y131.131 E.01611
G1 X219.055 Y132.201 E.03247
G1 X218.715 Y133.117 E.02841
G1 X218.436 Y133.755 E.02026
G1 X218.191 Y134.255 E.0162
G1 X217.859 Y134.868 E.02031
G1 X217.573 Y135.346 E.01618
G1 X216.946 Y136.271 E.03254
G1 X216.343 Y137.039 E.0284
G1 X215.88 Y137.563 E.02034
G1 X215.5 Y137.959 E.01599
G1 X214.67 Y138.731 E.03297
G1 X213.784 Y139.437 E.03295
G1 X212.846 Y140.073 E.03298
G1 X211.862 Y140.636 E.03299
G1 X210.953 Y141.072 E.02933
G1 X210.135 Y141.402 E.02567
G1 X209.42 Y141.646 E.02199
G1 X208.446 Y141.914 E.0294
G1 X207.581 Y142.094 E.02571
G1 X206.833 Y142.206 E.02201
G1 X205.824 Y142.297 E.02945
G1 X205.061 Y142.32 E.02222
G1 X64.812 Y142.325 E4.08089
G1 X64.258 Y142.375 E.01619
G1 X63.826 Y142.456 E.0128
G1 X63.268 Y142.619 E.0169
G1 X62.844 Y142.792 E.01333
