; HEADER_BLOCK_START
; generated by OrcaSlicer 2.3.2 on 2026-05-19 at 10:41:18
; total layer number: 4
; filament_density: 1.24
; filament_diameter: 1.75
; max_z_height: 0.80
; filament: 1
; HEADER_BLOCK_END

; THUMBNAIL_BLOCK_START

;
; THUMBNAIL_BLOCK_END

; THUMBNAIL_BLOCK_START

;
; THUMBNAIL_BLOCK_END

; external perimeters extrusion width = 0.40mm
; perimeters extrusion width = 0.40mm
; infill extrusion width = 0.40mm
; solid infill extrusion width = 0.45mm
; top infill extrusion width = 0.40mm
; first layer extrusion width = 0.56mm

; EXECUTABLE_BLOCK_START
M73 P0 R9
M201 X1000 Y1000 Z200 E5000
M203 X200 Y200 Z10 E60
M204 P1250 R1250 T1250
M205 X8.00 Y8.00 Z0.40 E5.00 ; sets the jerk limits, mm/sec
M190 S60 ; set bed temperature and wait for it to be reached
M104 S220 ; set nozzle temperature
;TYPE:Custom
G21 ;metric values
G90 ;absolute positioning
M82 ;set extruder to absolute mode
M107 ;start with the fan off
G28 X0 Y0 ;move X/Y to min endstops
G28 Z0 ;move Z to min endstops
G0 Z0.2 F1800 ; move nozzle to print position
G92 E0 ; specify current extruder position as zero
G1 Y10 X180 E50 F1200 ; extrude a line in front of the printer
G92 E0 ; specify current extruder position as zero
G0 Z20 F6000 ; move head up
M73 P1 R9
G1 E-7 F2400 ; retract
G04 S2 ; wait 2s
G0 X0 F6000 ; wipe from oozed filament
G1 E-1 F2400 ; undo some of the retraction to avoid oozing
M73 P2 R9
G1 F6000 ; set travel speed to move to start printing point
M117
G90
G21
M83 ; use relative distances for extrusion
; filament start gcode
M106 S0
;LAYER_CHANGE
;Z:0.2
;HEIGHT:0.2
;BEFORE_LAYER_CHANGE 
G92 E0.0 
;0.2
;AFTER_LAYER_CHANGE
;0.2
;_SET_FAN_SPEED_CHANGING_LAYER
M204 S1000
;CUSTOM_GCODE
; start pressure advance pattern for layer
G1 E-3 F2400
G1 X82.934 Y99.787 F9600
G1 E3 F2400
G1 Z.2 F9600
M900 K0; Override pressure advance value
G1 E-3 F2400
G1 X82.934 Y99.787 F9600
G1 E3 F2400
G1 F1800
G1 X82.934 Y142.213 E1.78766

G1 X167.066 Y142.213 E3.54495
M73 P3 R9

G1 X167.066 Y99.787 E1.78766

G1 X82.934 Y99.787 E3.54495
G1 E-3 F2400
M73 P4 R9
G1 X83.451 Y100.304 F9600
G1 E3 F2400
G1 F1800
G1 X83.451 Y141.696 E1.74408

G1 X166.549 Y141.696 E3.50138

G1 X166.549 Y100.304 E1.74408
M73 P5 R9

G1 X83.451 Y100.304 E3.50138
G1 E-3 F2400
G1 X83.968 Y100.821 F9600
G1 E3 F2400
G1 F1800
G1 X83.968 Y141.179 E1.70051

G1 X166.032 Y141.179 E3.4578
M73 P6 R8

G1 X166.032 Y100.821 E1.70051

G1 X83.968 Y100.821 E3.4578
G1 E-3 F2400
M73 P7 R8
G1 X82.934 Y142.73 F9600
G1 E3 F2400
G1 F1800
G1 X82.934 Y156.247 E.56955

G1 X167.066 Y156.247 E3.54495

G1 X167.066 Y142.73 E.56955
M73 P8 R8

G1 X82.934 Y142.73 E3.54495
G1 E-3 F2400
G1 X83.451 Y143.247 F9600
G1 E3 F2400
G1 F1800
G1 X83.451 Y155.73 E.52597

G1 X166.549 Y155.73 E3.50138

G1 X166.549 Y143.247 E.52597
M73 P9 R8

G1 X83.451 Y143.247 E3.50138
G1 E-3 F2400
G1 X83.968 Y143.764 F9600
G1 E3 F2400
G1 F1800
G1 X83.968 Y155.213 E.4824

G1 X166.032 Y155.213 E3.4578

G1 X166.032 Y143.764 E.4824
M73 P10 R8

G1 X83.968 Y143.764 E3.4578
G1 E-3 F2400
G1 X84.341 Y144.138 F9600
G1 E3 F2400
G1 E-3
G1 X85.073 Y144.138 F9600
G1 E3 F2400
G1 F1800
G1 X84.341 Y144.869 E.04357
G1 E-3 F2400
M73 P11 R8
G1 X84.341 Y145.6 F9600
G1 E3 F2400
G1 F1800
G1 X85.804 Y144.138 E.08715
G1 E-3 F2400
G1 X86.535 Y144.138 F9600
G1 E3 F2400
G1 F1800
G1 X84.341 Y146.332 E.13072
G1 E-3 F2400
G1 X84.341 Y147.063 F9600
G1 E3 F2400
G1 F1800
G1 X87.266 Y144.138 E.1743
G1 E-3 F2400
G1 X87.998 Y144.138 F9600
G1 E3 F2400
G1 F1800
G1 X84.341 Y147.794 E.21787
G1 E-3 F2400
G1 X84.341 Y148.525 F9600
G1 E3 F2400
G1 F1800
G1 X88.729 Y144.138 E.26145
G1 E-3 F2400
G1 X89.46 Y144.138 F9600
G1 E3 F2400
G1 F1800
G1 X84.341 Y149.257 E.30502
G1 E-3 F2400
G1 X84.341 Y149.988 F9600
G1 E3 F2400
G1 F1800
G1 X90.191 Y144.138 E.3486
G1 E-3 F2400
G1 X90.923 Y144.138 F9600
G1 E3 F2400
G1 F1800
G1 X84.341 Y150.719 E.39217
G1 E-3 F2400
G1 X84.341 Y151.45 F9600
G1 E3 F2400
G1 F1800
G1 X91.654 Y144.138 E.43575
G1 E-3 F2400
G1 X92.385 Y144.138 F9600
G1 E3 F2400
G1 F1800
G1 X84.341 Y152.182 E.47932
G1 E-3 F2400
G1 X84.341 Y152.913 F9600
G1 E3 F2400
G1 F1800
G1 X93.116 Y144.138 E.5229
G1 E-3 F2400
G1 X93.848 Y144.138 F9600
G1 E3 F2400
G1 F1800
G1 X84.341 Y153.644 E.56647
G1 E-3 F2400
M73 P12 R8
G1 X84.341 Y154.375 F9600
G1 E3 F2400
G1 F1800
G1 X94.579 Y144.138 E.61005
G1 E-3 F2400
G1 X95.31 Y144.138 F9600
G1 E3 F2400
G1 F1800
G1 X84.608 Y154.84 E.63772
G1 E-3 F2400
G1 X85.339 Y154.84 F9600
G1 E3 F2400
G1 F1800
G1 X96.042 Y144.138 E.63772
G1 E-3 F2400
G1 X96.773 Y144.138 F9600
G1 E3 F2400
G1 F1800
G1 X86.071 Y154.84 E.63772
G1 E-3 F2400
G1 X86.802 Y154.84 F9600
G1 E3 F2400
G1 F1800
G1 X97.504 Y144.138 E.63772
G1 E-3 F2400
G1 X98.235 Y144.138 F9600
G1 E3 F2400
G1 F1800
G1 X87.533 Y154.84 E.63772
G1 E-3 F2400
G1 X88.264 Y154.84 F9600
G1 E3 F2400
G1 F1800
G1 X98.967 Y144.138 E.63772
G1 E-3 F2400
M73 P13 R8
G1 X99.698 Y144.138 F9600
G1 E3 F2400
G1 F1800
G1 X88.996 Y154.84 E.63772
G1 E-3 F2400
G1 X89.727 Y154.84 F9600
G1 E3 F2400
G1 F1800
G1 X100.429 Y144.138 E.63772
G1 E-3 F2400
G1 X101.16 Y144.138 F9600
G1 E3 F2400
G1 F1800
G1 X90.458 Y154.84 E.63772
G1 E-3 F2400
G1 X91.19 Y154.84 F9600
G1 E3 F2400
G1 F1800
G1 X101.892 Y144.138 E.63772
G1 E-3 F2400
G1 X102.623 Y144.138 F9600
G1 E3 F2400
G1 F1800
G1 X91.921 Y154.84 E.63772
G1 E-3 F2400
G1 X92.652 Y154.84 F9600
G1 E3 F2400
G1 F1800
G1 X103.354 Y144.138 E.63772
G1 E-3 F2400
G1 X104.085 Y144.138 F9600
G1 E3 F2400
G1 F1800
G1 X93.383 Y154.84 E.63772
G1 E-3 F2400
G1 X94.115 Y154.84 F9600
G1 E3 F2400
G1 F1800
G1 X104.817 Y144.138 E.63772
G1 E-3 F2400
M73 P14 R8
G1 X105.548 Y144.138 F9600
G1 E3 F2400
G1 F1800
G1 X94.846 Y154.84 E.63772
G1 E-3 F2400
G1 X95.577 Y154.84 F9600
G1 E3 F2400
G1 F1800
G1 X106.279 Y144.138 E.63772
G1 E-3 F2400
G1 X107.01 Y144.138 F9600
G1 E3 F2400
G1 F1800
G1 X96.308 Y154.84 E.63772
G1 E-3 F2400
G1 X97.04 Y154.84 F9600
G1 E3 F2400
G1 F1800
G1 X107.742 Y144.138 E.63772
G1 E-3 F2400
G1 X108.473 Y144.138 F9600
G1 E3 F2400
G1 F1800
G1 X97.771 Y154.84 E.63772
G1 E-3 F2400
G1 X98.502 Y154.84 F9600
G1 E3 F2400
G1 F1800
G1 X109.204 Y144.138 E.63772
G1 E-3 F2400
G1 X109.935 Y144.138 F9600
G1 E3 F2400
G1 F1800
G1 X99.233 Y154.84 E.63772
G1 E-3 F2400
M73 P15 R8
G1 X99.965 Y154.84 F9600
G1 E3 F2400
G1 F1800
G1 X110.667 Y144.138 E.63772
G1 E-3 F2400
G1 X111.398 Y144.138 F9600
G1 E3 F2400
G1 F1800
G1 X100.696 Y154.84 E.63772
G1 E-3 F2400
G1 X101.427 Y154.84 F9600
G1 E3 F2400
G1 F1800
G1 X112.129 Y144.138 E.63772
G1 E-3 F2400
G1 X112.861 Y144.138 F9600
G1 E3 F2400
G1 F1800
G1 X102.158 Y154.84 E.63772
G1 E-3 F2400
G1 X102.89 Y154.84 F9600
G1 E3 F2400
G1 F1800
G1 X113.592 Y144.138 E.63772
G1 E-3 F2400
G1 X114.323 Y144.138 F9600
G1 E3 F2400
G1 F1800
G1 X103.621 Y154.84 E.63772
G1 E-3 F2400
G1 X104.352 Y154.84 F9600
G1 E3 F2400
G1 F1800
G1 X115.054 Y144.138 E.63772
G1 E-3 F2400
G1 X115.786 Y144.138 F9600
G1 E3 F2400
G1 F1800
G1 X105.083 Y154.84 E.63772
G1 E-3 F2400
M73 P16 R8
G1 X105.815 Y154.84 F9600
G1 E3 F2400
G1 F1800
G1 X116.517 Y144.138 E.63772
G1 E-3 F2400
G1 X117.248 Y144.138 F9600
G1 E3 F2400
G1 F1800
G1 X106.546 Y154.84 E.63772
G1 E-3 F2400
G1 X107.277 Y154.84 F9600
G1 E3 F2400
G1 F1800
G1 X117.979 Y144.138 E.63772
G1 E-3 F2400
M73 P16 R7
G1 X118.711 Y144.138 F9600
G1 E3 F2400
G1 F1800
G1 X108.009 Y154.84 E.63772
G1 E-3 F2400
G1 X108.74 Y154.84 F9600
G1 E3 F2400
G1 F1800
G1 X119.442 Y144.138 E.63772
G1 E-3 F2400
G1 X120.173 Y144.138 F9600
G1 E3 F2400
G1 F1800
G1 X109.471 Y154.84 E.63772
G1 E-3 F2400
G1 X110.202 Y154.84 F9600
G1 E3 F2400
G1 F1800
G1 X120.904 Y144.138 E.63772
G1 E-3 F2400
M73 P17 R7
G1 X121.636 Y144.138 F9600
G1 E3 F2400
G1 F1800
G1 X110.934 Y154.84 E.63772
G1 E-3 F2400
G1 X111.665 Y154.84 F9600
G1 E3 F2400
G1 F1800
G1 X122.367 Y144.138 E.63772
G1 E-3 F2400
G1 X123.098 Y144.138 F9600
G1 E3 F2400
G1 F1800
G1 X112.396 Y154.84 E.63772
G1 E-3 F2400
G1 X113.127 Y154.84 F9600
G1 E3 F2400
G1 F1800
G1 X123.829 Y144.138 E.63772
G1 E-3 F2400
G1 X124.561 Y144.138 F9600
G1 E3 F2400
G1 F1800
G1 X113.859 Y154.84 E.63772
G1 E-3 F2400
G1 X114.59 Y154.84 F9600
G1 E3 F2400
G1 F1800
G1 X125.292 Y144.138 E.63772
G1 E-3 F2400
G1 X126.023 Y144.138 F9600
G1 E3 F2400
G1 F1800
G1 X115.321 Y154.84 E.63772
G1 E-3 F2400
G1 X116.052 Y154.84 F9600
G1 E3 F2400
G1 F1800
G1 X126.754 Y144.138 E.63772
G1 E-3 F2400
M73 P18 R7
G1 X127.486 Y144.138 F9600
G1 E3 F2400
G1 F1800
G1 X116.784 Y154.84 E.63772
G1 E-3 F2400
G1 X117.515 Y154.84 F9600
G1 E3 F2400
G1 F1800
G1 X128.217 Y144.138 E.63772
G1 E-3 F2400
G1 X128.948 Y144.138 F9600
G1 E3 F2400
G1 F1800
G1 X118.246 Y154.84 E.63772
G1 E-3 F2400
G1 X118.977 Y154.84 F9600
G1 E3 F2400
G1 F1800
G1 X129.68 Y144.138 E.63772
G1 E-3 F2400
G1 X130.411 Y144.138 F9600
G1 E3 F2400
G1 F1800
G1 X119.709 Y154.84 E.63772
G1 E-3 F2400
G1 X120.44 Y154.84 F9600
G1 E3 F2400
G1 F1800
G1 X131.142 Y144.138 E.63772
G1 E-3 F2400
G1 X131.873 Y144.138 F9600
G1 E3 F2400
G1 F1800
G1 X121.171 Y154.84 E.63772
G1 E-3 F2400
M73 P19 R7
G1 X121.902 Y154.84 F9600
G1 E3 F2400
G1 F1800
G1 X132.605 Y144.138 E.63772
G1 E-3 F2400
G1 X133.336 Y144.138 F9600
G1 E3 F2400
G1 F1800
G1 X122.634 Y154.84 E.63772
G1 E-3 F2400
G1 X123.365 Y154.84 F9600
G1 E3 F2400
G1 F1800
G1 X134.067 Y144.138 E.63772
G1 E-3 F2400
G1 X134.798 Y144.138 F9600
G1 E3 F2400
G1 F1800
G1 X124.096 Y154.84 E.63772
G1 E-3 F2400
G1 X124.828 Y154.84 F9600
G1 E3 F2400
G1 F1800
G1 X135.53 Y144.138 E.63772
G1 E-3 F2400
G1 X136.261 Y144.138 F9600
G1 E3 F2400
G1 F1800
G1 X125.559 Y154.84 E.63772
G1 E-3 F2400
G1 X126.29 Y154.84 F9600
G1 E3 F2400
G1 F1800
G1 X136.992 Y144.138 E.63772
G1 E-3 F2400
G1 X137.723 Y144.138 F9600
G1 E3 F2400
G1 F1800
G1 X127.021 Y154.84 E.63772
G1 E-3 F2400
M73 P20 R7
G1 X127.753 Y154.84 F9600
G1 E3 F2400
G1 F1800
G1 X138.455 Y144.138 E.63772
G1 E-3 F2400
G1 X139.186 Y144.138 F9600
G1 E3 F2400
G1 F1800
G1 X128.484 Y154.84 E.63772
G1 E-3 F2400
G1 X129.215 Y154.84 F9600
G1 E3 F2400
G1 F1800
G1 X139.917 Y144.138 E.63772
G1 E-3 F2400
G1 X140.648 Y144.138 F9600
G1 E3 F2400
G1 F1800
G1 X129.946 Y154.84 E.63772
G1 E-3 F2400
G1 X130.678 Y154.84 F9600
G1 E3 F2400
G1 F1800
G1 X141.38 Y144.138 E.63772
G1 E-3 F2400
G1 X142.111 Y144.138 F9600
G1 E3 F2400
G1 F1800
G1 X131.409 Y154.84 E.63772
G1 E-3 F2400
G1 X132.14 Y154.84 F9600
G1 E3 F2400
G1 F1800
G1 X142.842 Y144.138 E.63772
G1 E-3 F2400
M73 P21 R7
G1 X143.573 Y144.138 F9600
G1 E3 F2400
G1 F1800
G1 X132.871 Y154.84 E.63772
G1 E-3 F2400
G1 X133.603 Y154.84 F9600
G1 E3 F2400
G1 F1800
G1 X144.305 Y144.138 E.63772
G1 E-3 F2400
G1 X145.036 Y144.138 F9600
G1 E3 F2400
G1 F1800
G1 X134.334 Y154.84 E.63772
G1 E-3 F2400
G1 X135.065 Y154.84 F9600
G1 E3 F2400
G1 F1800
G1 X145.767 Y144.138 E.63772
G1 E-3 F2400
G1 X146.499 Y144.138 F9600
G1 E3 F2400
G1 F1800
G1 X135.796 Y154.84 E.63772
G1 E-3 F2400
G1 X136.528 Y154.84 F9600
G1 E3 F2400
G1 F1800
G1 X147.23 Y144.138 E.63772
G1 E-3 F2400
G1 X147.961 Y144.138 F9600
G1 E3 F2400
G1 F1800
G1 X137.259 Y154.84 E.63772
G1 E-3 F2400
G1 X137.99 Y154.84 F9600
G1 E3 F2400
G1 F1800
G1 X148.692 Y144.138 E.63772
G1 E-3 F2400
M73 P22 R7
G1 X149.424 Y144.138 F9600
G1 E3 F2400
G1 F1800
G1 X138.721 Y154.84 E.63772
G1 E-3 F2400
G1 X139.453 Y154.84 F9600
G1 E3 F2400
G1 F1800
G1 X150.155 Y144.138 E.63772
G1 E-3 F2400
G1 X150.886 Y144.138 F9600
G1 E3 F2400
G1 F1800
G1 X140.184 Y154.84 E.63772
G1 E-3 F2400
G1 X140.915 Y154.84 F9600
G1 E3 F2400
G1 F1800
G1 X151.617 Y144.138 E.63772
G1 E-3 F2400
G1 X152.349 Y144.138 F9600
G1 E3 F2400
G1 F1800
G1 X141.647 Y154.84 E.63772
G1 E-3 F2400
G1 X142.378 Y154.84 F9600
G1 E3 F2400
G1 F1800
G1 X153.08 Y144.138 E.63772
G1 E-3 F2400
G1 X153.811 Y144.138 F9600
G1 E3 F2400
G1 F1800
G1 X143.109 Y154.84 E.63772
G1 E-3 F2400
M73 P23 R7
G1 X143.84 Y154.84 F9600
G1 E3 F2400
G1 F1800
G1 X154.542 Y144.138 E.63772
G1 E-3 F2400
G1 X155.274 Y144.138 F9600
G1 E3 F2400
G1 F1800
G1 X144.572 Y154.84 E.63772
G1 E-3 F2400
G1 X145.303 Y154.84 F9600
G1 E3 F2400
G1 F1800
G1 X156.005 Y144.138 E.63772
G1 E-3 F2400
G1 X156.736 Y144.138 F9600
G1 E3 F2400
G1 F1800
G1 X146.034 Y154.84 E.63772
G1 E-3 F2400
G1 X146.765 Y154.84 F9600
G1 E3 F2400
G1 F1800
G1 X157.467 Y144.138 E.63772
G1 E-3 F2400
G1 X158.199 Y144.138 F9600
G1 E3 F2400
G1 F1800
G1 X147.497 Y154.84 E.63772
G1 E-3 F2400
G1 X148.228 Y154.84 F9600
G1 E3 F2400
G1 F1800
G1 X158.93 Y144.138 E.63772
G1 E-3 F2400
G1 X159.661 Y144.138 F9600
G1 E3 F2400
G1 F1800
G1 X148.959 Y154.84 E.63772
G1 E-3 F2400
M73 P24 R7
G1 X149.69 Y154.84 F9600
G1 E3 F2400
G1 F1800
G1 X160.392 Y144.138 E.63772
G1 E-3 F2400
G1 X161.124 Y144.138 F9600
G1 E3 F2400
G1 F1800
G1 X150.422 Y154.84 E.63772
G1 E-3 F2400
G1 X151.153 Y154.84 F9600
G1 E3 F2400
G1 F1800
G1 X161.855 Y144.138 E.63772
G1 E-3 F2400
G1 X162.586 Y144.138 F9600
G1 E3 F2400
G1 F1800
G1 X151.884 Y154.84 E.63772
G1 E-3 F2400
G1 X152.615 Y154.84 F9600
G1 E3 F2400
G1 F1800
G1 X163.318 Y144.138 E.63772
G1 E-3 F2400
G1 X164.049 Y144.138 F9600
G1 E3 F2400
G1 F1800
G1 X153.347 Y154.84 E.63772
G1 E-3 F2400
G1 X154.078 Y154.84 F9600
G1 E3 F2400
G1 F1800
G1 X164.78 Y144.138 E.63772
G1 E-3 F2400
M73 P25 R7
G1 X165.511 Y144.138 F9600
G1 E3 F2400
G1 F1800
G1 X154.809 Y154.84 E.63772
G1 E-3 F2400
G1 X155.54 Y154.84 F9600
G1 E3 F2400
G1 F1800
G1 X165.659 Y144.722 E.60293
G1 E-3 F2400
G1 X165.659 Y145.453 F9600
G1 E3 F2400
G1 F1800
G1 X156.272 Y154.84 E.55935
G1 E-3 F2400
G1 X157.003 Y154.84 F9600
G1 E3 F2400
G1 F1800
G1 X165.659 Y146.184 E.51578
G1 E-3 F2400
G1 X165.659 Y146.915 F9600
G1 E3 F2400
G1 F1800
G1 X157.734 Y154.84 E.4722
G1 E-3 F2400
G1 X158.466 Y154.84 F9600
G1 E3 F2400
G1 F1800
G1 X165.659 Y147.647 E.42863
G1 E-3 F2400
G1 X165.659 Y148.378 F9600
G1 E3 F2400
G1 F1800
G1 X159.197 Y154.84 E.38505
G1 E-3 F2400
G1 X159.928 Y154.84 F9600
G1 E3 F2400
G1 F1800
G1 X165.659 Y149.109 E.34148
G1 E-3 F2400
G1 X165.659 Y149.841 F9600
G1 E3 F2400
G1 F1800
G1 X160.659 Y154.84 E.2979
G1 E-3 F2400
G1 X161.391 Y154.84 F9600
G1 E3 F2400
M73 P26 R7
G1 F1800
G1 X165.659 Y150.572 E.25433
G1 E-3 F2400
G1 X165.659 Y151.303 F9600
G1 E3 F2400
G1 F1800
G1 X162.122 Y154.84 E.21076
G1 E-3 F2400
G1 X162.853 Y154.84 F9600
G1 E3 F2400
G1 F1800
G1 X165.659 Y152.034 E.16718
G1 E-3 F2400
G1 X165.659 Y152.766 F9600
G1 E3 F2400
G1 F1800
G1 X163.584 Y154.84 E.12361
G1 E-3 F2400
G1 X164.316 Y154.84 F9600
G1 E3 F2400
G1 F1800
G1 X165.659 Y153.497 E.08003
G1 E-3 F2400
G1 X165.659 Y154.228 F9600
G1 E3 F2400
G1 F1800
G1 X165.047 Y154.84 E.03646
G1 E-3 F2400
G1 Z.6 F9600
G1 X86.935 Y101.194
G1 Z.2
G1 E3 F2400
M900 K0; Override pressure advance value
G1 F1800
G1 X106.741 Y121 E.92913

G1 X86.935 Y140.806 E.92913
G1 E-3 F2400
G1 Z.6 F9600
G1 X87.511 Y101.194
M73 P26 R6
G1 Z.2
M73 P27 R6
G1 E3 F2400
G1 F1800
G1 X107.317 Y121 E.92913

G1 X87.511 Y140.806 E.92913
G1 E-3 F2400
G1 Z.6 F9600
G1 X88.087 Y101.194
G1 Z.2
G1 E3 F2400
G1 F1800
G1 X107.893 Y121 E.92913

G1 X88.087 Y140.806 E.92913
G1 E-3 F2400
G1 Z.6 F9600
G1 X90.537 Y101.194
G1 Z.2
G1 E3 F2400
M900 K0.005; Override pressure advance value
G1 F1800
G1 X110.343 Y121 E.92913

G1 X90.537 Y140.806 E.92913
M73 P28 R6
G1 E-3 F2400
G1 Z.6 F9600
G1 X91.113 Y101.194
G1 Z.2
G1 E3 F2400
G1 F1800
G1 X110.918 Y121 E.92913

G1 X91.113 Y140.806 E.92913
G1 E-3 F2400
G1 Z.6 F9600
G1 X91.688 Y101.194
G1 Z.2
G1 E3 F2400
G1 F1800
G1 X111.494 Y121 E.92913

G1 X91.688 Y140.806 E.92913
M73 P29 R6
G1 E-3 F2400
G1 Z.6 F9600
G1 X94.138 Y101.194
G1 Z.2
G1 E3 F2400
M900 K0.01; Override pressure advance value
G1 F1800
G1 X113.944 Y121 E.92913

G1 X94.138 Y140.806 E.92913
G1 E-3 F2400
G1 Z.6 F9600
G1 X94.714 Y101.194
G1 Z.2
G1 E3 F2400
G1 F1800
G1 X114.52 Y121 E.92913

G1 X94.714 Y140.806 E.92913
G1 E-3 F2400
M73 P30 R6
G1 Z.6 F9600
G1 X95.29 Y101.194
G1 Z.2
G1 E3 F2400
G1 F1800
G1 X115.095 Y121 E.92913

G1 X95.29 Y140.806 E.92913
G1 E-3 F2400
G1 Z.6 F9600
G1 X97.74 Y101.194
G1 Z.2
G1 E3 F2400
M900 K0.015; Override pressure advance value
G1 F1800
G1 X117.545 Y121 E.92913

G1 X97.74 Y140.806 E.92913
G1 E-3 F2400
M73 P31 R6
G1 Z.6 F9600
G1 X98.315 Y101.194
G1 Z.2
G1 E3 F2400
G1 F1800
G1 X118.121 Y121 E.92913

G1 X98.315 Y140.806 E.92913
G1 E-3 F2400
G1 Z.6 F9600
G1 X98.891 Y101.194
G1 Z.2
G1 E3 F2400
G1 F1800
