; HEADER_BLOCK_START
; generated by OrcaSlicer 2.3.2 on 2026-05-18 at 19:46:00
; total layer number: 240
; filament_density: 1.24
; filament_diameter: 1.75
; max_z_height: 48.00
; filament: 1
; HEADER_BLOCK_END

; THUMBNAIL_BLOCK_START

;
; THUMBNAIL_BLOCK_END

; THUMBNAIL_BLOCK_START

;
; THUMBNAIL_BLOCK_END

; external perimeters extrusion width = 0.40mm
; perimeters extrusion width = 0.40mm
; infill extrusion width = 0.40mm
; solid infill extrusion width = 0.40mm
; top infill extrusion width = 0.40mm
; first layer extrusion width = 0.40mm

; EXECUTABLE_BLOCK_START
M73 P0 R86
M201 X1000 Y1000 Z200 E5000
M203 X200 Y200 Z10 E60
M204 P1250 R1250 T1250
M205 X8.00 Y8.00 Z0.40 E5.00 ; sets the jerk limits, mm/sec
M190 S45 ; set bed temperature and wait for it to be reached
M104 S220 ; set nozzle temperature
;TYPE:Custom
G21 ;metric values
G90 ;absolute positioning
M82 ;set extruder to absolute mode
M107 ;start with the fan off
G28 X0 Y0 ;move X/Y to min endstops
G28 Z0 ;move Z to min endstops
G0 Z0.2 F1800 ; move nozzle to print position
G92 E0 ; specify current extruder position as zero
G1 Y10 X180 E50 F1200 ; extrude a line in front of the printer
G92 E0 ; specify current extruder position as zero
G0 Z20 F6000 ; move head up
G1 E-7 F2400 ; retract
G04 S2 ; wait 2s
G0 X0 F6000 ; wipe from oozed filament
G1 E-1 F2400 ; undo some of the retraction to avoid oozing
G1 F6000 ; set travel speed to move to start printing point
M117
G90
G21
M83 ; use relative distances for extrusion
; filament start gcode
M106 S0
;LAYER_CHANGE
;Z:0.2
;HEIGHT:0.2
;BEFORE_LAYER_CHANGE 
G92 E0.0 
;0.2
G1 E-3 F2400
;AFTER_LAYER_CHANGE
;0.2
;_SET_FAN_SPEED_CHANGING_LAYER
M204 S1000
G1 Z.6 F9600
G1 X106.789 Y113.203
G1 Z.6
G1 Z.2
G1 E3 F2400
;TYPE:Skirt
;WIDTH:0.4
G1 F3000
G1 X107.69 Y113.053 E.02659
G1 X131.419 Y111.603 E.69171
G1 X132.953 Y111.567 E.04466
G1 X135.506 Y111.754 E.07448
G1 X138.228 Y112.306 E.08081
G1 X140.861 Y113.21 E.081
G1 X143.426 Y114.498 E.08352
G1 X145.727 Y116.068 E.08106
G1 X147.752 Y117.878 E.07903
G1 X149.608 Y120.039 E.08289
G1 X151.114 Y122.363 E.08056
G1 X151.68 Y123.743 E.0434
G1 X151.976 Y125.322 E.04676
G1 X151.986 Y126.384 E.0309
G1 X151.902 Y127.122 E.02161
G1 X151.741 Y127.869 E.02226
G1 X151.404 Y128.853 E.03025
G1 X150.4 Y130.655 E.06004
G1 X149.09 Y132.453 E.0647
G1 X147.496 Y134.205 E.06891
G1 X145.696 Y135.784 E.06968
G1 X144.114 Y136.906 E.05643
G1 X142.725 Y137.726 E.04694
G1 X141.074 Y138.527 E.05339
G1 X139.597 Y139.101 E.04611
G1 X137.957 Y139.594 E.04984
G1 X136.193 Y139.969 E.05248
G1 X134.328 Y140.198 E.05467
G1 X132.454 Y140.261 E.05455
G1 X107.35 Y138.733 E.73182
G1 X106.062 Y138.438 E.03846
G1 X104.54 Y137.774 E.04829
G1 X103.243 Y136.854 E.04628
G1 X102.197 Y135.746 E.04434
G1 X101.485 Y134.653 E.03796
G1 X101.026 Y133.641 E.03231
G1 X100.715 Y132.596 E.03173
G1 X100.554 Y131.604 E.02924
G1 X100.541 Y120.369 E.32693
G1 X100.861 Y118.677 E.05011
G1 X101.512 Y117.126 E.04893
G1 X102.45 Y115.773 E.0479
G1 X103.645 Y114.645 E.04781
G1 X104.573 Y114.035 E.03231
G1 X105.52 Y113.583 E.03054
G1 X106.675 Y113.222 E.03521
G1 X106.75 Y113.21 E.00219
G1 X106.808 Y113.562 F9600
G1 F3000
G1 X107.724 Y113.409 E.02702
G1 X131.44 Y111.96 E.69136
G1 X132.952 Y111.924 E.04399
G1 X135.454 Y112.107 E.07301
G1 X138.13 Y112.649 E.07946
G1 X140.72 Y113.538 E.07967
G1 X143.24 Y114.803 E.08205
G1 X145.505 Y116.347 E.07975
G1 X147.499 Y118.13 E.07782
G1 X149.32 Y120.25 E.08134
G1 X150.797 Y122.528 E.07898
G1 X151.339 Y123.848 E.04152
G1 X151.62 Y125.354 E.04457
G1 X151.629 Y126.359 E.02925
G1 X151.549 Y127.067 E.02074
G1 X151.076 Y128.712 E.0498
G1 X150.098 Y130.464 E.05836
G1 X148.593 Y132.495 E.07357
G1 X147.032 Y134.158 E.06636
G1 X145.36 Y135.592 E.0641
G1 X143.919 Y136.607 E.05129
G1 X142.553 Y137.413 E.04614
G1 X140.929 Y138.2 E.05253
G1 X139.484 Y138.762 E.04509
G1 X137.869 Y139.248 E.04907
G1 X136.138 Y139.617 E.05152
G1 X134.304 Y139.842 E.05375
G1 X132.454 Y139.904 E.05385
G1 X107.403 Y138.38 E.73027
G1 X106.167 Y138.097 E.03689
G1 X104.715 Y137.462 E.04613
G1 X103.48 Y136.587 E.04404
G1 X102.481 Y135.529 E.04236
G1 X101.8 Y134.486 E.03623
G1 X101.362 Y133.519 E.03087
G1 X101.064 Y132.52 E.03033
G1 X100.909 Y131.571 E.02798
G1 X100.897 Y120.402 E.325
G1 X101.204 Y118.777 E.04812
G1 X101.826 Y117.295 E.04677
G1 X102.722 Y116.004 E.04573
G1 X103.859 Y114.931 E.04547
G1 X104.745 Y114.348 E.03088
G1 X105.651 Y113.916 E.02919
G1 X106.753 Y113.571 E.03361
G1 X106.769 Y113.568 E.00047
G1 X106.831 Y113.919 F9600
G1 F3000
G1 X107.758 Y113.764 E.02736
G1 X131.462 Y112.316 E.69101
G1 X132.95 Y112.281 E.04331
G1 X135.402 Y112.461 E.07154
G1 X138.033 Y112.993 E.07811
G1 X140.58 Y113.867 E.07834
G1 X143.055 Y115.109 E.08059
G1 X145.283 Y116.627 E.07844
G1 X147.246 Y118.382 E.07662
G1 X149.032 Y120.462 E.07978
G1 X150.48 Y122.693 E.0774
G1 X150.997 Y123.953 E.03963
G1 X151.265 Y125.385 E.04239
G1 X151.196 Y127.013 E.0474
G1 X150.747 Y128.571 E.04718
G1 X149.711 Y130.403 E.06123
G1 X148.318 Y132.267 E.06773
G1 X146.783 Y133.901 E.06522
G1 X145.145 Y135.308 E.06283
G1 X143.723 Y136.308 E.05059
G1 X142.381 Y137.1 E.04534
G1 X140.783 Y137.874 E.05167
G1 X139.371 Y138.423 E.04408
G1 X137.782 Y138.902 E.0483
G1 X136.082 Y139.264 E.05055
G1 X134.28 Y139.486 E.05283
G1 X132.454 Y139.547 E.05316
G1 X107.456 Y138.027 E.72872
G1 X106.273 Y137.756 E.03532
G1 X104.889 Y137.151 E.04396
G1 X103.717 Y136.32 E.04179
G1 X102.706 Y135.236 E.04315
G1 X102.116 Y134.318 E.03173
G1 X101.697 Y133.398 E.02943
G1 X101.413 Y132.445 E.02893
G1 X101.265 Y131.538 E.02672
G1 X101.252 Y120.435 E.32308
G1 X101.547 Y118.878 E.04612
G1 X102.141 Y117.464 E.04462
G1 X102.995 Y116.234 E.04356
G1 X104.073 Y115.217 E.04313
G1 X104.918 Y114.661 E.02944
G1 X105.781 Y114.248 E.02784
G1 X106.793 Y113.931 E.03084
G1 X106.897 Y114.271 F9600
G1 F3000
G1 X106.909 Y114.268 E.00034
G1 X107.792 Y114.12 E.02606
G1 X131.484 Y112.673 E.69065
G1 X132.948 Y112.638 E.04263
G1 X135.35 Y112.814 E.07007
G1 X137.936 Y113.336 E.07676
G1 X140.44 Y114.195 E.07702
G1 X142.87 Y115.414 E.07912
G1 X145.061 Y116.907 E.07712
G1 X146.993 Y118.634 E.07541
G1 X148.744 Y120.673 E.07822
G1 X150.207 Y122.941 E.07852
G1 X150.621 Y123.944 E.03159
G1 X150.78 Y124.54 E.01792
G1 X150.929 Y125.877 E.03915
G1 X150.738 Y127.47 E.04669
G1 X150.379 Y128.524 E.03238
G1 X149.416 Y130.202 E.05632
G1 X147.965 Y132.13 E.0702
G1 X146.455 Y133.72 E.06381
G1 X144.647 Y135.236 E.06867
G1 X143.405 Y136.088 E.0438
G1 X142.084 Y136.853 E.04443
G1 X140.485 Y137.614 E.05153
G1 X138.844 Y138.223 E.05094
G1 X137.337 Y138.644 E.04553
G1 X135.53 Y138.989 E.0535
G1 X133.773 Y139.162 E.0514
G1 X132.454 Y139.19 E.03836
G1 X107.51 Y137.674 E.72717
G1 X106.379 Y137.415 E.03375
G1 X105.063 Y136.839 E.0418
G1 X103.954 Y136.053 E.03954
G1 X102.989 Y135.018 E.04116
G1 X102.431 Y134.151 E.03
G1 X102.033 Y133.276 E.02799
G1 X101.762 Y132.369 E.02753
G1 X101.621 Y131.505 E.02547
G1 X101.608 Y120.468 E.32115
G1 X101.889 Y118.978 E.04413
G1 X102.455 Y117.633 E.04247
G1 X103.267 Y116.465 E.04139
G1 X104.396 Y115.421 E.04473
G1 X105.188 Y114.92 E.02728
G1 X105.974 Y114.556 E.0252
G1 X106.859 Y114.283 E.02696
; printing object benchy.stl id:2717881547776 copy 0
G1 E-2.2 F2400
;WIPE_START
G1 F3000
G1 X106.909 Y114.268 E-.0413
G1 X107.792 Y114.12 E-.71654
G1 X107.844 Y114.116 E-.04216
;WIPE_END
G1 Z.6 F9600
G1 X129.019 Y128.017 Z.6
G1 Z.2
G1 E3 F2400
;TYPE:Brim
G1 F3000
G1 X129.142 Y127.897 E.005
G1 X129.29 Y127.831 E.00473
G1 X129.456 Y127.821 E.00483
G1 X129.614 Y127.867 E.00479
G1 X129.762 Y127.99 E.0056
G1 X129.842 Y128.142 E.00499
G1 X129.861 Y128.338 E.00573
G1 X129.791 Y128.526 E.00582
G1 X129.674 Y128.651 E.00497
G1 X129.5 Y128.73 E.00557
G1 X129.329 Y128.734 E.00498
G1 X129.172 Y128.68 E.00483
G1 X129.023 Y128.547 E.00581
G1 X128.946 Y128.362 E.00582
G1 X128.946 Y128.195 E.00488
G1 X128.985 Y128.075 E.00366
G1 X128.999 Y128.051 E.0008
G1 E-2.2 F2400
;WIPE_START
G1 F3000
G1 X129.142 Y127.897 E-.16855
G1 X129.29 Y127.831 E-.12996
G1 X129.456 Y127.821 E-.13292
G1 X129.614 Y127.867 E-.13173
G1 X129.762 Y127.99 E-.15403
G1 X129.81 Y128.082 E-.08282
;WIPE_END
G1 Z.6 F9600
G1 X127.431 Y127.278 Z.6
G1 Z.2
G1 E3 F2400
G1 F3000
G1 X127.367 Y127.408 E.00422
G1 X127.272 Y127.553 E.00506
G1 X127.108 Y127.747 E.00737
G1 X126.857 Y127.958 E.00956
G1 X126.659 Y128.07 E.00662
G1 X126.527 Y128.123 E.00411
G1 X126.163 Y128.209 E.01091
G1 X125.936 Y128.238 E.00665
G1 X125.47 Y128.262 E.01358
G1 X124.637 Y128.255 E.02422
G1 X124.292 Y128.287 E.01009
G1 X124.303 Y123.95 E.12618
G1 X124.271 Y123.492 E.01336
G1 X124.762 Y123.497 E.0143
G1 X125.574 Y123.499 E.02364
G1 X126.041 Y123.531 E.0136
G1 X126.481 Y123.61 E.01303
G1 X126.758 Y123.71 E.00855
G1 X126.979 Y123.851 E.00762
G1 X127.226 Y124.1 E.01021
G1 X127.366 Y124.305 E.00722
G1 X127.533 Y124.66 E.01142
G1 X127.622 Y124.958 E.00906
G1 X127.667 Y125.182 E.00663
G1 X127.71 Y125.591 E.01197
G1 X127.717 Y125.89 E.00871
G1 X127.675 Y126.467 E.01684
G1 X127.568 Y126.947 E.01433
G1 X127.497 Y127.143 E.00606
G1 X127.449 Y127.242 E.00319
G1 X127.201 Y127.108 F9600
G1 F3000
G1 X126.993 Y127.45 E.01165
G1 X126.73 Y127.698 E.0105
G1 X126.38 Y127.87 E.01137
G1 X126.118 Y127.928 E.0078
G1 X125.846 Y127.961 E.00797
G1 X125.032 Y127.985 E.02368
G1 X124.86 Y127.937 E.00521
G1 X124.745 Y127.859 E.00405
G1 X124.662 Y127.761 E.00374
G1 X124.594 Y127.613 E.00472
G1 X124.567 Y127.388 E.00661
G1 X124.585 Y127.107 E.0082
G1 X124.579 Y124.219 E.08402
G1 X124.613 Y124.061 E.0047
G1 X124.674 Y123.953 E.00361
G1 X124.755 Y123.879 E.00321
G1 X124.884 Y123.82 E.00413
G1 X125.041 Y123.788 E.00466
G1 X125.957 Y123.809 E.02666
G1 X126.265 Y123.854 E.00907
G1 X126.595 Y123.951 E.00999
G1 X126.749 Y124.039 E.00518
G1 X126.989 Y124.258 E.00946
G1 X127.161 Y124.522 E.00917
G1 X127.287 Y124.824 E.0095
G1 X127.397 Y125.316 E.01467
G1 X127.431 Y125.856 E.01574
G1 X127.409 Y126.303 E.01302
G1 X127.334 Y126.724 E.01246
G1 X127.214 Y127.071 E.01066
G1 E-2.2 F2400
;WIPE_START
G1 F3000
G1 X126.993 Y127.45 E-.35175
G1 X126.73 Y127.698 E-.28858
G1 X126.551 Y127.786 E-.15967
;WIPE_END
G1 Z.6 F9600
G1 X121.511 Y124.586 Z.6
G1 Z.2
G1 E3 F2400
G1 F3000
G1 X121.441 Y124.676 E.00331
G1 X121.486 Y124.509 E.00501
G1 X121.503 Y124.325 E.00538
G1 X121.48 Y124.083 E.00708
G1 X121.392 Y123.813 E.00827
G1 X121.427 Y123.657 E.00465
G1 X121.451 Y123.68 E.00098
G1 X121.536 Y123.845 E.0054
G1 X121.565 Y124.104 E.00757
G1 X121.536 Y124.478 E.01094
G1 X121.52 Y124.547 E.00206
G1 E-2.2 F2400
;WIPE_START
G1 F3000
G1 X121.441 Y124.676 E-.12063
G1 X121.486 Y124.509 E-.13778
G1 X121.503 Y124.325 E-.14787
G1 X121.48 Y124.083 E-.19471
G1 X121.403 Y123.846 E-.19901
;WIPE_END
G1 Z.6 F9600
G1 X121.368 Y126.122 Z.6
G1 Z.2
G1 E3 F2400
G1 F3000
G1 X121.523 Y126.196 E.00498
G1 X121.594 Y126.293 E.00351
G1 X121.775 Y126.877 E.01778
G1 X121.806 Y127.084 E.00608
G1 X121.797 Y127.247 E.00475
G1 X121.768 Y126.934 E.00913
G1 X121.669 Y126.629 E.00935
G1 X121.502 Y126.332 E.00991
G1 X121.367 Y126.166 E.00623
G1 X121.367 Y126.162 E.00011
G1 E-2.2 F2400
;WIPE_START
G1 F3000
G1 X121.523 Y126.196 E-.12759
G1 X121.594 Y126.293 E-.09663
G1 X121.775 Y126.877 E-.48874
G1 X121.791 Y126.985 E-.08703
;WIPE_END
G1 Z.6 F9600
G1 X137.045 Y132.158 Z.6
G1 Z.2
G1 E3 F2400
;TYPE:Inner wall
;WIDTH:0.399999
G1 F3000
G1 X137.267 Y131.971 E.00845
G1 X137.719 Y131.413 E.0209
G1 X138.137 Y130.549 E.02793
G1 X138.759 Y128.895 E.05142
G1 X138.973 Y129.417 E.01643
G1 X139.255 Y129.747 E.01261
G1 X139.535 Y129.947 E.01003
G1 X139.903 Y130.1 E.01158
G1 X140.328 Y130.151 E.01244
G1 X140.931 Y130.124 E.01757
G1 X140.032 Y130.744 E.03177
G1 X139.476 Y131.08 E.01889
G1 X139.002 Y131.336 E.01567
G1 X138.489 Y131.592 E.01669
G1 X137.662 Y131.945 E.02617
G1 X137.083 Y132.145 E.01782
G1 E-2.2 F2400
;WIPE_START
G1 F3000
G1 X137.267 Y131.971 E-.20264
G1 X137.719 Y131.413 E-.57457
G1 X137.732 Y131.387 E-.0228
;WIPE_END
G1 Z.6 F9600
G1 X143.409 Y128.935 Z.6
G1 Z.2
G1 E3 F2400
;TYPE:Outer wall
;WIDTH:0.653692
G1 F3000
G1 X143.199 Y129.171 E.01569
G1 E-2.74774 F2400
;WIPE_START
G1 F3000
G1 X143.409 Y128.935 E-.25226
;WIPE_END
G1 Z.6 F9600
G1 X143.304 Y126.995 Z.6
G1 Z.2
G1 E3 F2400
;TYPE:Inner wall
;WIDTH:0.514852
G1 F3000
G1 X143.732 Y126.39 E.0285
;WIDTH:0.515652
G1 X144.071 Y125.833 E.02512
G1 X144.23 Y125.353 E.01948
G1 X144.491 Y125.781 E.0193
G1 X144.543 Y125.946 E.00668
G1 X144.122 Y126.656 E.03176
;WIDTH:0.514852
G1 X143.709 Y127.259 E.02812
;WIDTH:0.514328
G1 X143.338 Y127.017 E.01704
G1 X142.567 Y127.262 F9600
;WIDTH:0.399999
G1 F3000
G1 X142.974 Y126.746 E.01912
G1 X143.389 Y126.157 E.02096
G1 X143.681 Y125.69 E.01604
G1 X143.86 Y125.101 E.01792
G1 X143.843 Y124.672 E.0125
;WIDTH:0.44077
G1 X143.831 Y124.57 E.0033
;WIDTH:0.48154
G1 X143.819 Y124.469 E.00364
;WIDTH:0.52231
G1 X143.807 Y124.368 E.00398
;WIDTH:0.56308
G1 X143.796 Y124.267 E.00432
;WIDTH:0.60385
G1 X143.784 Y124.166 E.00466
G1 X143.86 Y124.236 E.00473
;WIDTH:0.56308
G1 X143.937 Y124.305 E.00439
;WIDTH:0.52231
G1 X144.013 Y124.375 E.00405
;WIDTH:0.48154
G1 X144.089 Y124.445 E.0037
;WIDTH:0.44077
G1 X144.166 Y124.515 E.00336
;WIDTH:0.399999
G1 X144.46 Y124.932 E.01486
G1 X144.896 Y125.649 E.02441
G1 X144.962 Y125.977 E.00974
G1 X144.911 Y126.151 E.00526
G1 X144.475 Y126.874 E.02459
G1 X143.738 Y127.98 E.03866
G1 X143.644 Y127.79 E.00616
G1 X143.309 Y127.47 E.01349
G1 X142.793 Y127.292 E.01588
G1 X142.607 Y127.267 E.00546
G1 E-2.2 F2400
;WIPE_START
G1 F3000
G1 X142.974 Y126.746 E-.51003
G1 X143.183 Y126.45 E-.28997
;WIPE_END
G1 Z.6 F9600
G1 X141.793 Y123.262 Z.6
G1 Z.2
G1 E3 F2400
G1 F3000
G1 X141.588 Y123.261 E.00596
G1 X140.24 Y123.295 E.03925
G1 X139.743 Y123.434 E.015
G1 X139.416 Y123.615 E.01089
G1 X139.185 Y123.469 E.00794
G1 X138.728 Y123.299 E.01418
G1 X138.27 Y123.295 E.01333
G1 X137.927 Y123.413 E.01057
G1 X137.489 Y123.694 E.01515
G1 X137.204 Y124.046 E.01317
G1 X136.914 Y123.699 E.01316
G1 X136.435 Y123.404 E.01638
G1 X135.854 Y123.28 E.01728
G1 X135.43 Y123.302 E.01236
G1 X135.087 Y123.408 E.01043
G1 X134.783 Y123.593 E.01036
G1 X134.263 Y123.33 E.01694
G1 X133.84 Y123.272 E.01243
G1 X133.44 Y123.351 E.01186
G1 X133.107 Y123.501 E.01062
G1 X132.825 Y123.74 E.01076
G1 X132.346 Y123.392 E.01722
G1 X131.874 Y123.271 E.01419
G1 X131.35 Y123.331 E.01533
G1 X131.081 Y123.413 E.00819
G1 X130.7 Y123.648 E.01303
G1 X130.361 Y124.051 E.01532
G1 X130.196 Y124.487 E.01357
G1 X130.186 Y125.027 E.01571
G1 X130.279 Y125.389 E.01088
G1 X130.482 Y125.872 E.01526
G1 X130.933 Y126.664 E.02651
G1 X130.883 Y126.74 E.00262
G1 X130.54 Y126.492 E.01231
G1 X130.002 Y126.238 E.01731
G1 X129.365 Y126.181 E.01859
G1 X129.379 Y125.707 E.01379
G1 X129.327 Y125.107 E.01753
G1 X129.234 Y124.516 E.0174
G1 X129.068 Y124 E.01577
G1 X128.768 Y123.398 E.01959
G1 X128.375 Y122.876 E.01899
G1 X127.941 Y122.485 E.017
G1 X127.398 Y122.167 E.01833
G1 X126.841 Y121.978 E.0171
G1 X126.197 Y121.867 E.01902
G1 X125.614 Y121.828 E.01701
G1 X124.373 Y121.812 E.03612
G1 X123.854 Y121.869 E.01519
G1 X123.353 Y122.061 E.01561
G1 X122.941 Y122.415 E.01581
G1 X122.773 Y122.671 E.0089
G1 X122.334 Y122.225 E.01821
G1 X122.088 Y122.058 E.00866
G1 X121.385 Y121.769 E.02211
G1 X120.768 Y121.667 E.01821
G1 X120.141 Y121.658 E.01823
G1 X119.49 Y121.755 E.01917
G1 X118.881 Y121.966 E.01874
G1 X118.444 Y122.256 E.01526
G1 X118.215 Y122.071 E.00857
G1 X117.738 Y121.88 E.01496
G1 X117.431 Y121.826 E.00908
G1 X114.188 Y121.834 E.09435
G1 X113.7 Y121.797 E.01423
G1 X113.158 Y121.838 E.01583
G1 X112.817 Y121.945 E.01041
G1 X112.504 Y122.138 E.01067
G1 X112.313 Y122.34 E.00809
G1 X112.102 Y122.179 E.00772
G1 X111.439 Y121.841 E.02165
G1 X110.917 Y121.711 E.01565
G1 X109.973 Y121.662 E.02751
G1 X109.344 Y121.752 E.0185
G1 X108.956 Y121.879 E.01186
G1 X108.378 Y122.136 E.01842
G1 X107.892 Y122.483 E.01739
G1 X107.898 Y121.156 E.03862
G1 X107.937 Y120.884 E.008
G1 X108.04 Y120.614 E.00841
G1 X108.207 Y120.489 E.00607
G1 X108.527 Y120.393 E.0097
G1 X131.847 Y118.976 E.6798
G1 X132.912 Y118.953 E.031
G1 X133.691 Y118.987 E.0227
G1 X134.45 Y119.064 E.02219
G1 X135.213 Y119.185 E.02248
