; HEADER_BLOCK_START
; generated by OrcaSlicer 2.3.2 on 2026-05-18 at 13:05:03
; total layer number: 60
; filament_density: 1.24
; filament_diameter: 1.75
; max_z_height: 12.00
; filament: 1
; HEADER_BLOCK_END

; THUMBNAIL_BLOCK_START

;
; THUMBNAIL_BLOCK_END

; THUMBNAIL_BLOCK_START

;
; THUMBNAIL_BLOCK_END

; external perimeters extrusion width = 0.40mm
; perimeters extrusion width = 0.40mm
; infill extrusion width = 0.40mm
; solid infill extrusion width = 0.40mm
; top infill extrusion width = 0.40mm
; support material extrusion width = 0.40mm
; first layer extrusion width = 0.40mm

; external perimeters extrusion width = 0.40mm
; perimeters extrusion width = 0.40mm
; infill extrusion width = 0.40mm
; solid infill extrusion width = 0.40mm
; top infill extrusion width = 0.40mm
; support material extrusion width = 0.40mm
; first layer extrusion width = 0.40mm

; EXECUTABLE_BLOCK_START
M73 P0 R96
M201 X1000 Y1000 Z200 E5000
M203 X200 Y200 Z10 E60
M204 P1250 R1250 T1250
M205 X8.00 Y8.00 Z0.40 E5.00 ; sets the jerk limits, mm/sec
M190 S45 ; set bed temperature and wait for it to be reached
M104 S220 ; set nozzle temperature
;TYPE:Custom
G21 ;metric values
G90 ;absolute positioning
M82 ;set extruder to absolute mode
M107 ;start with the fan off
G28 X0 Y0 ;move X/Y to min endstops
G28 Z0 ;move Z to min endstops
G0 Z0.2 F1800 ; move nozzle to print position
G92 E0 ; specify current extruder position as zero
G1 Y10 X180 E50 F1200 ; extrude a line in front of the printer
G92 E0 ; specify current extruder position as zero
G0 Z20 F6000 ; move head up
G1 E-7 F2400 ; retract
G04 S2 ; wait 2s
G0 X0 F6000 ; wipe from oozed filament
G1 E-1 F2400 ; undo some of the retraction to avoid oozing
G1 F6000 ; set travel speed to move to start printing point
M117
G90
G21
M83 ; use relative distances for extrusion
; filament start gcode
M106 S0
;LAYER_CHANGE
;Z:0.2
;HEIGHT:0.2
;BEFORE_LAYER_CHANGE 
G92 E0.0 
;0.2
G1 E-3 F2400
;AFTER_LAYER_CHANGE
;0.2
;_SET_FAN_SPEED_CHANGING_LAYER
M204 S1000
G1 Z.6 F9600
G1 X80.844 Y76.396
G1 Z.6
G1 Z.2
G1 E3 F2400
;TYPE:Skirt
;WIDTH:0.4
G1 F3000
G1 X81.409 Y75.789 E.02415
G1 X83.357 Y74.029 E.07639
G1 X85.675 Y72.292 E.08428
G1 X87.911 Y70.915 E.07639
G1 X90.257 Y69.738 E.0764
G1 X92.441 Y68.858 E.06851
G1 X93.687 Y68.443 E.03821
G1 X96.226 Y67.775 E.0764
G1 X98.814 Y67.331 E.07639
G1 X100.39 Y67.172 E.0461
G1 X102.806 Y67.088 E.07035
G1 X157.817 Y66.889 E1.60069
G1 X160.157 Y66.972 E.06813
G1 X161.477 Y67.099 E.03858
G1 X164.069 Y67.52 E.0764
G1 X166.614 Y68.165 E.0764
G1 X169.345 Y69.129 E.08428
G1 X171.731 Y70.225 E.0764
G1 X174.013 Y71.524 E.07639
G1 X175.109 Y72.246 E.03821
G1 X176.993 Y73.658 E.06851
G1 X178.957 Y75.4 E.0764
G1 X180.066 Y76.532 E.0461
G1 X181.687 Y78.422 E.07245
G1 X202.832 Y105.271 E.99444
G1 X203.413 Y106.152 E.03071
G1 X207.413 Y113.509 E.24365
G1 X208.172 Y116.494 E.08964
G1 X208.172 Y173.684 E1.66409
G1 X207.429 Y176.64 E.08867
G1 X203.429 Y184.093 E.24614
G1 X202.043 Y185.837 E.0648
G1 X200.134 Y186.983 E.0648
G1 X197.932 Y187.388 E.06516
G1 X62.647 Y187.586 E3.93645
G1 X60.455 Y187.193 E.0648
G1 X58.54 Y186.056 E.0648
G1 X57.134 Y184.298 E.06549
G1 X53.186 Y176.962 E.24241
G1 X52.451 Y174.372 E.07834
G1 X52.388 Y173.122 E.03642
G1 X52.388 Y116.693 E1.64194
G1 X53.147 Y113.707 E.08964
G1 X57.147 Y106.351 E.24365
G1 X57.728 Y105.47 E.03071
G1 X79.62 Y77.711 E1.02869
G1 X80.816 Y76.425 E.05108
G1 X81.077 Y76.669 F9600
G1 F3000
G1 X81.664 Y76.039 E.02504
G1 X83.59 Y74.3 E.07549
G1 X85.87 Y72.591 E.08293
G1 X88.079 Y71.23 E.07549
G1 X90.398 Y70.066 E.07549
G1 X92.568 Y69.192 E.06805
G1 X93.798 Y68.782 E.03776
G1 X96.308 Y68.123 E.07549
G1 X98.865 Y67.684 E.07549
G1 X100.41 Y67.528 E.04519
G1 X102.808 Y67.445 E.06979
G1 X157.812 Y67.247 E1.60051
G1 X160.138 Y67.329 E.0677
G1 X161.441 Y67.454 E.03811
G1 X164.002 Y67.871 E.07549
G1 X166.517 Y68.509 E.07549
G1 X169.204 Y69.457 E.08293
G1 X171.562 Y70.54 E.07549
G1 X173.817 Y71.823 E.07549
G1 X174.901 Y72.536 E.03776
G1 X176.773 Y73.939 E.06806
G1 X178.713 Y75.661 E.07549
G1 X179.801 Y76.77 E.0452
G1 X181.407 Y78.643 E.07178
G1 X202.552 Y105.492 E.99444
G1 X203.099 Y106.323 E.02895
G1 X207.099 Y113.679 E.24365
G1 X207.815 Y116.494 E.08452
G1 X207.815 Y173.684 E1.66409
G1 X207.115 Y176.471 E.0836
G1 X203.115 Y183.924 E.24614
G1 X201.76 Y185.61 E.06291
G1 X199.889 Y186.693 E.06291
G1 X197.931 Y187.031 E.05782
G1 X62.646 Y187.229 E3.93645
G1 X60.52 Y186.836 E.06291
G1 X58.68 Y185.702 E.06291
G1 X57.449 Y184.129 E.05812
G1 X53.501 Y176.793 E.24241
G1 X52.808 Y174.351 E.07387
G1 X52.745 Y173.122 E.0358
G1 X52.745 Y116.693 E1.64194
G1 X53.461 Y113.878 E.08452
G1 X57.461 Y106.522 E.24365
G1 X58.008 Y105.691 E.02895
G1 X79.896 Y77.938 E1.02846
G1 X81.05 Y76.698 E.04929
G1 X81.311 Y76.941 F9600
G1 F3000
G1 X81.919 Y76.289 E.02594
G1 X84.008 Y74.419 E.08158
G1 X86.065 Y72.89 E.07459
G1 X88.248 Y71.545 E.07459
G1 X90.538 Y70.394 E.07459
G1 X92.694 Y69.526 E.0676
G1 X93.91 Y69.121 E.0373
G1 X96.39 Y68.471 E.07459
G1 X98.916 Y68.037 E.07459
G1 X100.431 Y67.885 E.04429
G1 X102.809 Y67.802 E.06924
G1 X157.807 Y67.604 E1.60033
G1 X160.118 Y67.685 E.06727
G1 X161.405 Y67.809 E.03764
G1 X163.936 Y68.222 E.07459
G1 X166.42 Y68.852 E.07459
G1 X169.064 Y69.785 E.08157
G1 X171.394 Y70.855 E.07459
G1 X173.622 Y72.122 E.07459
G1 X174.693 Y72.827 E.03731
G1 X176.552 Y74.22 E.0676
G1 X178.469 Y75.922 E.07459
G1 X179.535 Y77.009 E.04429
G1 X181.126 Y78.864 E.0711
G1 X202.271 Y105.713 E.99444
G1 X202.786 Y106.493 E.0272
G1 X206.786 Y113.85 E.24365
G1 X207.458 Y116.494 E.07939
G1 X207.458 Y173.684 E1.66409
G1 X206.8 Y176.302 E.07854
G1 X202.8 Y183.756 E.24614
G1 X201.478 Y185.381 E.06096
G1 X199.647 Y186.398 E.06096
G1 X197.931 Y186.674 E.05058
G1 X62.646 Y186.872 E3.93645
G1 X60.588 Y186.479 E.06096
G1 X58.824 Y185.349 E.06096
G1 X57.763 Y183.96 E.05087
G1 X53.815 Y176.624 E.24241
G1 X53.164 Y174.329 E.06939
G1 X53.102 Y173.122 E.03519
G1 X53.102 Y116.693 E1.64194
G1 X53.774 Y114.049 E.07939
G1 X57.775 Y106.692 E.24365
G1 X58.289 Y105.912 E.0272
G1 X80.172 Y78.165 E1.02824
G1 X81.284 Y76.97 E.04749
G1 X81.545 Y77.213 F9600
G1 F3000
G1 X82.174 Y76.539 E.02684
G1 X84.054 Y74.842 E.07369
G1 X86.075 Y73.316 E.07369
G1 X88.416 Y71.86 E.08022
G1 X90.679 Y70.722 E.07369
G1 X92.82 Y69.86 E.06715
G1 X94.021 Y69.46 E.03685
G1 X96.471 Y68.818 E.07369
G1 X98.967 Y68.391 E.07369
G1 X100.451 Y68.241 E.04339
G1 X102.81 Y68.159 E.06868
G1 X157.802 Y67.961 E1.60015
G1 X160.098 Y68.042 E.06684
G1 X161.37 Y68.165 E.03716
G1 X163.869 Y68.573 E.07369
G1 X166.324 Y69.196 E.07369
G1 X168.715 Y70.03 E.07369
G1 X171.025 Y71.068 E.07369
G1 X173.427 Y72.421 E.08022
G1 X174.485 Y73.117 E.03685
G1 X176.332 Y74.501 E.06715
G1 X178.226 Y76.183 E.07369
G1 X179.27 Y77.248 E.04339
G1 X180.846 Y79.085 E.07042
G1 X201.991 Y105.934 E.99444
G1 X202.472 Y106.664 E.02544
G1 X206.472 Y114.02 E.24365
G1 X207.101 Y116.494 E.07427
G1 X207.101 Y173.684 E1.66409
G1 X206.486 Y176.133 E.07347
G1 X202.485 Y183.587 E.24614
G1 X201.197 Y185.15 E.05894
G1 X199.408 Y186.099 E.05894
G1 X197.93 Y186.316 E.04346
G1 X62.645 Y186.515 E3.93645
G1 X60.658 Y186.122 E.05894
G1 X58.974 Y184.997 E.05894
G1 X58.078 Y183.791 E.04373
G1 X54.13 Y176.454 E.24241
G1 X53.521 Y174.308 E.06491
G1 X53.459 Y173.122 E.03457
G1 X53.459 Y116.693 E1.64194
G1 X54.088 Y114.219 E.07427
G1 X58.088 Y106.863 E.24365
G1 X58.569 Y106.133 E.02544
G1 X80.447 Y78.392 E1.02801
G1 X81.518 Y77.243 E.04569
; printing object seg1_shell-side_l.stl id:5118959143519203630 copy 0
G1 E-2.2 F2400
;WIPE_START
G1 F3000
G1 X82.174 Y76.539 E-.76988
G1 X82.202 Y76.513 E-.03012
;WIPE_END
G1 Z.6 F9600
G1 X196.787 Y179.613 Z.6
G1 Z.2
G1 E3 F2400
;TYPE:Inner wall
;WIDTH:0.399999
G1 F3000
G1 X194.648 Y178.974 E.06495
G1 X191.122 Y177.752 E.10859
G1 X187.652 Y176.377 E.10859
G1 X184.245 Y174.854 E.10859
G1 X180.908 Y173.184 E.1086
G1 X177.646 Y171.37 E.10859
G1 X174.466 Y169.417 E.10859
G1 X171.373 Y167.328 E.10859
G1 X168.374 Y165.106 E.10859
G1 X165.475 Y162.757 E.10859
G1 X162.68 Y160.283 E.10859
G1 X159.995 Y157.691 E.10859
G1 X157.425 Y154.985 E.10859
M73 P1 R96
G1 X154.975 Y152.17 E.10859
G1 X152.649 Y149.251 E.10859
G1 X150.452 Y146.234 E.10859
G1 X148.388 Y143.125 E.1086
G1 X146.461 Y139.928 E.10859
G1 X144.675 Y136.652 E.10859
G1 X143.032 Y133.301 E.10859
G1 X141.536 Y129.881 E.10859
G1 X140.191 Y126.4 E.1086
G1 X138.997 Y122.864 E.10859
G1 X137.958 Y119.28 E.10859
G1 X137.075 Y115.654 E.10859
G1 X136.351 Y111.993 E.10859
G1 X135.786 Y108.303 E.1086
G1 X135.382 Y104.593 E.10859
M73 P1 R95
G1 X135.139 Y100.869 E.10859
G1 X135.058 Y97.138 E.10859
G1 X135.08 Y96.146 E.02888
G1 X135.144 Y95.155 E.02888
G1 X135.252 Y94.169 E.02888
G1 X135.402 Y93.188 E.02888
G1 X135.595 Y92.214 E.02888
G1 X135.83 Y91.25 E.02888
G1 X136.106 Y90.296 E.02888
G1 X136.423 Y89.356 E.02888
G1 X136.781 Y88.43 E.02888
G1 X137.179 Y87.521 E.02888
G1 X137.616 Y86.63 E.02888
G1 X138.091 Y85.759 E.02888
G1 X138.604 Y84.909 E.02888
G1 X139.153 Y84.082 E.02888
G1 X139.737 Y83.279 E.02888
G1 X140.356 Y82.503 E.02888
G1 X141.007 Y81.755 E.02888
G1 X141.691 Y81.035 E.02888
G1 X142.405 Y80.346 E.02888
G1 X143.148 Y79.688 E.02888
G1 X143.92 Y79.063 E.02888
G1 X144.717 Y78.473 E.02888
G1 X145.54 Y77.917 E.02888
G1 X146.385 Y77.398 E.02888
G1 X147.253 Y76.916 E.02888
G1 X148.141 Y76.472 E.02888
G1 X149.047 Y76.067 E.02888
G1 X149.97 Y75.702 E.02888
G1 X150.907 Y75.377 E.02888
G1 X151.858 Y75.093 E.02888
G1 X152.821 Y74.85 E.02888
G1 X153.793 Y74.65 E.02888
G1 X154.773 Y74.492 E.02888
G1 X155.758 Y74.376 E.02888
G1 X156.748 Y74.304 E.02888
G1 X157.74 Y74.275 E.02888
G1 X158.682 Y74.287 E.0274
G1 X159.725 Y74.345 E.03039
G1 X160.711 Y74.445 E.02884
G1 X161.693 Y74.587 E.02888
G1 X162.668 Y74.772 E.02888
G1 X163.635 Y74.999 E.02888
G1 X164.59 Y75.268 E.02888
G1 X165.533 Y75.578 E.02888
G1 X166.461 Y75.928 E.02888
G1 X167.374 Y76.319 E.02888
G1 X168.269 Y76.749 E.02888
G1 X169.144 Y77.217 E.02888
G1 X169.998 Y77.722 E.02888
G1 X170.829 Y78.265 E.02888
G1 X171.636 Y78.843 E.02888
G1 X172.417 Y79.455 E.02888
G1 X173.17 Y80.101 E.02888
G1 X173.896 Y80.779 E.02888
G1 X174.59 Y81.487 E.02888
G1 X175.254 Y82.225 E.02888
G1 X175.893 Y83.001 E.02924
G1 X196.787 Y109.531 E.98262
G1 X196.787 Y179.573 E2.03804
G1 X197.144 Y180.093 F9600
G1 F3000
G1 X194.538 Y179.314 E.07913
G1 X190.998 Y178.087 E.10904
G1 X187.513 Y176.706 E.10905
G1 X184.092 Y175.176 E.10904
G1 X180.741 Y173.499 E.10905
G1 X177.466 Y171.679 E.10904
G1 X174.272 Y169.717 E.10905
G1 X171.167 Y167.619 E.10905
G1 X168.156 Y165.388 E.10904
G1 X165.244 Y163.029 E.10905
G1 X162.437 Y160.546 E.10904
G1 X159.741 Y157.943 E.10904
G1 X157.161 Y155.225 E.10905
G1 X154.7 Y152.398 E.10904
G1 X152.365 Y149.467 E.10905
G1 X150.159 Y146.438 E.10904
G1 X148.086 Y143.316 E.10905
G1 X146.151 Y140.106 E.10905
G1 X144.358 Y136.816 E.10904
G1 X142.708 Y133.451 E.10905
G1 X141.206 Y130.017 E.10904
G1 X139.855 Y126.522 E.10905
G1 X138.656 Y122.971 E.10904
G1 X137.613 Y119.372 E.10904
G1 X136.727 Y115.73 E.10905
G1 X135.999 Y112.054 E.10904
G1 X135.432 Y108.35 E.10905
G1 X135.026 Y104.624 E.10904
G1 X134.782 Y100.885 E.10905
G1 X134.701 Y97.138 E.10904
G1 X134.723 Y96.13 E.02933
G1 X134.789 Y95.124 E.02933
G1 X134.898 Y94.122 E.02933
G1 X135.05 Y93.126 E.02933
G1 X135.246 Y92.137 E.02933
G1 X135.484 Y91.158 E.02933
G1 X135.765 Y90.189 E.02933
G1 X136.088 Y89.234 E.02933
G1 X136.451 Y88.294 E.02933
G1 X136.855 Y87.371 E.02933
G1 X137.299 Y86.466 E.02933
G1 X137.781 Y85.581 E.02933
G1 X138.302 Y84.717 E.02933
G1 X138.86 Y83.878 E.02933
G1 X139.453 Y83.063 E.02933
G1 X140.081 Y82.275 E.02933
G1 X140.743 Y81.514 E.02933
G1 X141.437 Y80.784 E.02933
G1 X142.163 Y80.084 E.02933
G1 X142.918 Y79.416 E.02933
G1 X143.701 Y78.781 E.02933
G1 X144.511 Y78.181 E.02933
G1 X145.346 Y77.617 E.02933
G1 X146.205 Y77.09 E.02933
G1 X147.086 Y76.6 E.02933
G1 X147.988 Y76.149 E.02933
G1 X148.908 Y75.738 E.02933
G1 X149.845 Y75.367 E.02933
G1 X150.798 Y75.037 E.02933
G1 X151.764 Y74.748 E.02933
G1 X152.741 Y74.502 E.02933
G1 X153.728 Y74.299 E.02933
G1 X154.724 Y74.138 E.02933
G1 X155.725 Y74.021 E.02933
G1 X156.73 Y73.947 E.02933
G1 X157.737 Y73.917 E.02933
G1 X158.694 Y73.931 E.02784
G1 X159.753 Y73.989 E.03084
G1 X160.755 Y74.09 E.02931
G1 X161.752 Y74.235 E.02933
G1 X162.743 Y74.422 E.02933
G1 X163.724 Y74.653 E.02933
G1 X164.694 Y74.926 E.02933
G1 X165.652 Y75.241 E.02933
G1 X166.595 Y75.597 E.02933
G1 X167.522 Y75.994 E.02933
G1 X168.43 Y76.43 E.02933
G1 X169.319 Y76.906 E.02933
G1 X170.186 Y77.419 E.02933
G1 X171.03 Y77.97 E.02933
G1 X171.85 Y78.557 E.02933
G1 X172.643 Y79.179 E.02933
G1 X173.409 Y79.835 E.02933
G1 X174.145 Y80.523 E.02933
G1 X174.851 Y81.243 E.02933
G1 X175.525 Y81.992 E.02933
G1 X176.171 Y82.777 E.02958
G1 X197.144 Y109.408 E.98634
G1 X197.144 Y180.053 E2.05559
G1 X197.522 Y180.601 F9600
;TYPE:Outer wall
G1 F3000
G1 X194.422 Y179.675 E.09415
G1 X190.866 Y178.442 E.10952
G1 X187.366 Y177.055 E.10952
G1 X183.93 Y175.519 E.10952
G1 X180.564 Y173.834 E.10952
G1 X177.274 Y172.005 E.10952
G1 X174.067 Y170.035 E.10952
G1 X170.948 Y167.928 E.10952
G1 X167.924 Y165.688 E.10952
G1 X164.999 Y163.318 E.10952
G1 X162.18 Y160.824 E.10952
G1 X159.472 Y158.209 E.10952
G1 X156.88 Y155.48 E.10952
G1 X154.409 Y152.641 E.10952
G1 X152.064 Y149.697 E.10952
G1 X149.848 Y146.654 E.10952
G1 X147.767 Y143.518 E.10952
G1 X145.823 Y140.295 E.10952
G1 X144.021 Y136.99 E.10952
G1 X142.365 Y133.61 E.10952
G1 X140.856 Y130.162 E.10952
G1 X139.499 Y126.651 E.10953
G1 X138.295 Y123.084 E.10952
G1 X137.247 Y119.469 E.10952
G1 X136.357 Y115.812 E.10952
G1 X135.626 Y112.12 E.10952
G1 X135.057 Y108.399 E.10952
G1 X134.649 Y104.657 E.10952
G1 X134.404 Y100.901 E.10952
G1 X134.323 Y97.138 E.10952
G1 X134.345 Y96.114 E.02981
G1 X134.411 Y95.091 E.02981
G1 X134.522 Y94.073 E.02981
G1 X134.677 Y93.06 E.02981
G1 X134.876 Y92.055 E.02981
G1 X135.119 Y91.06 E.02981
G1 X135.404 Y90.076 E.02981
G1 X135.732 Y89.106 E.02981
G1 X136.101 Y88.15 E.02981
G1 X136.512 Y87.212 E.02981
G1 X136.963 Y86.292 E.02981
G1 X137.453 Y85.392 E.02981
G1 X137.982 Y84.515 E.02981
G1 X138.549 Y83.661 E.02981
G1 X139.152 Y82.833 E.02981
G1 X139.79 Y82.032 E.02981
G1 X140.463 Y81.26 E.02981
G1 X141.168 Y80.517 E.02981
G1 X141.906 Y79.805 E.02981
G1 X142.673 Y79.127 E.02981
G1 X143.469 Y78.482 E.02981
G1 X144.292 Y77.872 E.02981
G1 X145.141 Y77.299 E.02981
G1 X146.014 Y76.763 E.02981
G1 X146.91 Y76.265 E.02981
G1 X147.826 Y75.807 E.02981
G1 X148.761 Y75.389 E.02981
G1 X149.714 Y75.012 E.02981
G1 X150.682 Y74.676 E.02981
G1 X151.663 Y74.383 E.02981
G1 X152.657 Y74.133 E.02981
G1 X153.66 Y73.926 E.02981
G1 X154.671 Y73.763 E.02981
G1 X155.689 Y73.644 E.02981
G1 X156.711 Y73.569 E.02981
G1 X157.734 Y73.539 E.02981
G1 X158.707 Y73.552 E.02831
G1 X159.782 Y73.611 E.03132
G1 X160.801 Y73.714 E.0298
G1 X161.815 Y73.861 E.02981
G1 X162.821 Y74.052 E.02981
G1 X163.819 Y74.286 E.02981
G1 X164.805 Y74.564 E.02981
G1 X165.778 Y74.884 E.02981
G1 X166.736 Y75.246 E.02981
G1 X167.678 Y75.649 E.02981
G1 X168.601 Y76.092 E.02981
G1 X169.505 Y76.576 E.02981
G1 X170.386 Y77.098 E.02981
G1 X171.244 Y77.657 E.02981
G1 X172.077 Y78.254 E.02981
G1 X172.883 Y78.886 E.02981
G1 X173.661 Y79.552 E.02981
G1 X174.41 Y80.252 E.02981
G1 X175.127 Y80.984 E.02981
G1 X175.812 Y81.745 E.02981
G1 X176.466 Y82.54 E.02994
G1 X197.522 Y109.277 E.99027
G1 X197.522 Y180.561 E2.07419
G1 E-2.2 F2400
;WIPE_START
G1 F3000
G1 X196.561 Y180.286 E-.8
;WIPE_END
G1 Z.6 F9600
G1 X152.842 Y97.746 Z.6
G1 Z.2
G1 E3 F2400
;TYPE:Inner wall
G1 F3000
G1 X152.798 Y97.439 E.00902
G1 X152.842 Y96.506 E.02718
G1 X152.882 Y96.17 E.00984
G1 X153.073 Y95.456 E.02152
G1 X153.439 Y94.639 E.02605
G1 X153.954 Y93.908 E.02601
G1 X154.191 Y93.613 E.01101
G1 X154.737 Y93.113 E.02153
G1 X155.468 Y92.65 E.02519
G1 X155.806 Y92.46 E.01128
G1 X156.323 Y92.259 E.01612
G1 X157.175 Y92.06 E.02549
G1 X158.068 Y92.007 E.02603
G1 X158.582 Y92.045 E.01499
G1 X159.307 Y92.215 E.02166
G1 X159.751 Y92.342 E.01344
G1 X160.422 Y92.655 E.02153
G1 X161.062 Y93.103 E.02276
G1 X161.46 Y93.42 E.01479
