; HEADER_BLOCK_START
; generated by OrcaSlicer 2.3.2 on 2026-05-18 at 13:05:06
; total layer number: 212
; filament_density: 1.24
; filament_diameter: 1.75
; max_z_height: 42.40
; filament: 1
; HEADER_BLOCK_END

; THUMBNAIL_BLOCK_START

;
; THUMBNAIL_BLOCK_END

; THUMBNAIL_BLOCK_START

;
; THUMBNAIL_BLOCK_END

; external perimeters extrusion width = 0.40mm
; perimeters extrusion width = 0.40mm
; infill extrusion width = 0.40mm
; solid infill extrusion width = 0.40mm
; top infill extrusion width = 0.40mm
; support material extrusion width = 0.40mm
; first layer extrusion width = 0.40mm

; EXECUTABLE_BLOCK_START
M73 P0 R79
M201 X1000 Y1000 Z200 E5000
M203 X200 Y200 Z10 E60
M204 P1250 R1250 T1250
M205 X8.00 Y8.00 Z0.40 E5.00 ; sets the jerk limits, mm/sec
M190 S45 ; set bed temperature and wait for it to be reached
M104 S220 ; set nozzle temperature
;TYPE:Custom
G21 ;metric values
G90 ;absolute positioning
M82 ;set extruder to absolute mode
M107 ;start with the fan off
G28 X0 Y0 ;move X/Y to min endstops
G28 Z0 ;move Z to min endstops
G0 Z0.2 F1800 ; move nozzle to print position
G92 E0 ; specify current extruder position as zero
G1 Y10 X180 E50 F1200 ; extrude a line in front of the printer
G92 E0 ; specify current extruder position as zero
G0 Z20 F6000 ; move head up
G1 E-7 F2400 ; retract
G04 S2 ; wait 2s
G0 X0 F6000 ; wipe from oozed filament
G1 E-1 F2400 ; undo some of the retraction to avoid oozing
G1 F6000 ; set travel speed to move to start printing point
M117
G90
G21
M83 ; use relative distances for extrusion
; filament start gcode
M106 S0
;LAYER_CHANGE
;Z:0.2
;HEIGHT:0.2
;BEFORE_LAYER_CHANGE 
G92 E0.0 
;0.2
G1 E-3 F2400
;AFTER_LAYER_CHANGE
;0.2
;_SET_FAN_SPEED_CHANGING_LAYER
M204 S1000
G1 Z.6 F9600
G1 X98.95 Y105.466
M73 P0 R78
G1 Z.6
G1 Z.2
G1 E3 F2400
;TYPE:Skirt
;WIDTH:0.4
G1 F3000
G1 X99.058 Y105.419 E.00344
G1 X100.5 Y105.25 E.04224
G1 X153.5 Y105.25 E1.54217
G1 X155.691 Y105.647 E.0648
G1 X157.605 Y106.787 E.0648
G1 X158.997 Y108.526 E.0648
G1 X159.75 Y111.5 E.08928
G1 X159.75 Y133.361 E.63611
G1 X159.353 Y135.553 E.0648
G1 X158.213 Y137.466 E.0648
G1 X156.474 Y138.858 E.0648
G1 X155.281 Y139.352 E.03757
G1 X123.28 Y148.858 E.97137
G1 X121.91 Y149.185 E.041
G1 X119.666 Y149.557 E.06618
G1 X117.398 Y149.733 E.06618
G1 X115.124 Y149.713 E.06618
G1 X113.128 Y149.531 E.05831
G1 X111.737 Y149.313 E.04098
G1 X109.781 Y148.874 E.05831
G1 X108.43 Y148.477 E.04098
G1 X106.549 Y147.789 E.05829
G1 X105.26 Y147.22 E.041
G1 X103.483 Y146.294 E.05831
G1 X101.559 Y145.082 E.06616
G1 X100.423 Y144.249 E.04099
G1 X98.887 Y142.962 E.05831
G1 X97.868 Y141.989 E.04098
G1 X96.512 Y140.514 E.05831
G1 X95.628 Y139.417 E.04098
G1 X94.475 Y137.779 E.0583
G1 X93.74 Y136.577 E.041
G1 X92.694 Y134.558 E.06616
G1 X91.92 Y132.709 E.05831
G1 X91.217 Y130.554 E.06598
G1 X90.873 Y129.181 E.04118
G1 X90.478 Y126.941 E.06618
G1 X90.292 Y124.953 E.05811
G1 X90.251 Y123.386 E.04559
G1 X90.347 Y121.265 E.06178
G1 X90.593 Y119.277 E.05831
G1 X90.857 Y117.893 E.04098
G1 X91.439 Y115.694 E.06618
G1 X92.107 Y113.805 E.05831
G1 X93.038 Y111.73 E.06618
G1 X94.145 Y109.743 E.06618
G1 X95.419 Y107.861 E.06612
G1 X97.017 Y106.311 E.0648
G1 X98.913 Y105.482 E.0602
G1 X99.057 Y105.825 F9600
G1 F3000
G1 X99.264 Y105.738 E.00654
G1 X100.5 Y105.607 E.03617
G1 X153.5 Y105.607 E1.54217
G1 X155.625 Y106.004 E.06291
G1 X157.464 Y107.14 E.06291
G1 X158.77 Y108.864 E.06291
G1 X159.393 Y111.5 E.07882
G1 X159.393 Y133.361 E.63611
G1 X158.996 Y135.487 E.06291
G1 X157.86 Y137.326 E.06291
G1 X155.18 Y139.01 E.09209
G1 X122.934 Y148.579 E.9787
G1 X120.742 Y149.042 E.06519
G1 X118.766 Y149.292 E.05795
G1 X116.525 Y149.392 E.06528
G1 X114.284 Y149.297 E.06528
G1 X112.915 Y149.142 E.04007
G1 X110.958 Y148.792 E.05786
G1 X109.62 Y148.461 E.04008
G1 X107.488 Y147.773 E.06519
G1 X105.649 Y147.008 E.05795
G1 X104.415 Y146.398 E.04008
G1 X102.695 Y145.404 E.05779
G1 X101.548 Y144.638 E.04015
G1 X99.97 Y143.428 E.05785
G1 X98.933 Y142.521 E.04008
G1 X97.526 Y141.117 E.05785
G1 X96.616 Y140.083 E.04008
G1 X95.402 Y138.508 E.05786
G1 X94.633 Y137.365 E.04008
G1 X93.634 Y135.646 E.05785
G1 X93.02 Y134.413 E.04007
G1 X92.252 Y132.579 E.05786
G1 X91.559 Y130.452 E.06508
G1 X91.223 Y129.109 E.04028
G1 X90.833 Y126.9 E.06528
G1 X90.648 Y124.927 E.05766
G1 X90.608 Y123.393 E.04465
G1 X90.702 Y121.302 E.06091
G1 X90.947 Y119.328 E.05786
G1 X91.205 Y117.975 E.04008
G1 X91.778 Y115.806 E.06528
G1 X92.441 Y113.932 E.05786
G1 X93.36 Y111.885 E.06528
G1 X94.452 Y109.925 E.06528
G1 X95.709 Y108.069 E.06523
G1 X97.269 Y106.572 E.06291
G1 X99.02 Y105.841 E.05521
G1 X99.17 Y106.353 F9600
G1 F3000
G1 X100.5 Y105.964 E.04033
G1 X153.5 Y105.964 E1.54217
G1 X155.557 Y106.361 E.06096
G1 X157.319 Y107.493 E.06096
G1 X158.535 Y109.199 E.06096
G1 X159.036 Y111.5 E.06851
G1 X159.036 Y133.361 E.63611
G1 X158.639 Y135.418 E.06096
G1 X157.507 Y137.181 E.06096
G1 X155.078 Y138.667 E.08286
G1 X122.852 Y148.232 E.97814
G1 X120.69 Y148.689 E.06429
G1 X118.49 Y148.957 E.06447
G1 X116.279 Y149.034 E.06438
G1 X114.308 Y148.94 E.05741
G1 X112.97 Y148.79 E.03917
G1 X111.028 Y148.442 E.05741
G1 X109.721 Y148.118 E.03918
G1 X107.618 Y147.44 E.06429
G1 X105.794 Y146.682 E.0575
G1 X104.587 Y146.085 E.03918
G1 X102.88 Y145.099 E.05734
G1 X101.759 Y144.35 E.03925
G1 X100.193 Y143.15 E.0574
G1 X99.18 Y142.263 E.03918
G1 X97.621 Y140.693 E.06438
G1 X96.35 Y139.184 E.05741
G1 X95.551 Y138.1 E.03918
G1 X94.486 Y136.438 E.05743
G1 X93.835 Y135.261 E.03916
G1 X92.995 Y133.476 E.0574
G1 X92.501 Y132.223 E.03918
G1 X91.839 Y130.121 E.06412
G1 X91.399 Y128.188 E.05767
G1 X91.088 Y125.998 E.06438
G1 X90.992 Y124.664 E.03892
G1 X90.979 Y122.664 E.0582
G1 X91.145 Y120.476 E.06385
G1 X91.34 Y119.143 E.03918
G1 X91.751 Y117.214 E.05741
G1 X92.388 Y115.095 E.06438
G1 X92.865 Y113.836 E.03918
G1 X93.682 Y112.04 E.05741
G1 X94.76 Y110.107 E.06438
G1 X95.999 Y108.277 E.06433
G1 X97.519 Y106.835 E.06096
G1 X99.131 Y106.364 E.04886
G1 X99.223 Y106.686 F9600
G1 F3000
G1 X100.5 Y106.322 E.03865
G1 X153.5 Y106.322 E1.54217
G1 X155.486 Y106.718 E.05894
G1 X157.169 Y107.845 E.05894
G1 X158.29 Y109.532 E.05894
G1 X158.679 Y111.5 E.05836
G1 X158.679 Y133.361 E.63611
G1 X158.282 Y135.348 E.05894
G1 X157.155 Y137.03 E.05894
G1 X154.976 Y138.325 E.07374
G1 X122.769 Y147.885 E.97757
G1 X120.637 Y148.335 E.06339
G1 X118.692 Y148.582 E.05705
G1 X116.512 Y148.678 E.06348
G1 X114.333 Y148.584 E.06348
G1 X113.026 Y148.437 E.03827
G1 X111.099 Y148.091 E.05696
G1 X109.822 Y147.776 E.03828
G1 X107.748 Y147.108 E.06339
G1 X105.938 Y146.355 E.05704
G1 X104.758 Y145.772 E.03828
G1 X103.066 Y144.794 E.05689
G1 X101.97 Y144.062 E.03835
G1 X100.417 Y142.871 E.05695
G1 X99.427 Y142.004 E.03828
G1 X97.889 Y140.457 E.06348
G1 X96.628 Y138.96 E.05696
G1 X95.847 Y137.901 E.03827
G1 X94.791 Y136.252 E.05698
G1 X94.155 Y135.101 E.03826
G1 X93.321 Y133.331 E.05695
G1 X92.839 Y132.106 E.03828
G1 X92.185 Y130.034 E.06322
G1 X91.749 Y128.117 E.05721
G1 X91.443 Y125.957 E.06348
G1 X91.349 Y124.654 E.03802
G1 X91.336 Y122.67 E.05771
G1 X91.5 Y120.512 E.06299
G1 X91.691 Y119.21 E.03828
G1 X92.099 Y117.296 E.05696
G1 X92.728 Y115.207 E.06348
G1 X93.193 Y113.976 E.03828
G1 X94.003 Y112.194 E.05696
G1 X95.067 Y110.289 E.06348
G1 X96.29 Y108.485 E.06343
G1 X97.768 Y107.101 E.05894
G1 X99.184 Y106.697 E.04284
; printing object seg2b.stl id:4926304674795923826 copy 0
G1 E-2.2 F2400
;WIPE_START
G1 F3000
G1 X100.146 Y106.423 E-.8
;WIPE_END
G1 Z.6 F9600
G1 X150.873 Y116.389 Z.6
G1 Z.2
G1 E3 F2400
;TYPE:Inner wall
;WIDTH:0.399999
G1 F3000
G1 X150.716 Y116.369 E.00461
G1 X150.132 Y116.436 E.01711
G1 X149.721 Y116.586 E.01273
G1 X149.436 Y116.754 E.00962
G1 X149.074 Y117.073 E.01405
G1 X148.862 Y117.35 E.01012
G1 X148.636 Y117.83 E.01547
G1 X148.636 Y112.636 E.15115
G1 X152.364 Y112.636 E.1085
G1 X152.364 Y117.24 E.13398
G1 X152.204 Y117.04 E.00747
G1 X151.744 Y116.675 E.0171
G1 X151.126 Y116.42 E.01943
G1 X150.913 Y116.394 E.00625
G1 E-2.2 F2400
;WIPE_START
G1 F3000
G1 X150.716 Y116.369 E-.15864
G1 X150.132 Y116.436 E-.47053
G1 X149.931 Y116.509 E-.17083
;WIPE_END
G1 Z.6 F9600
G1 X148.636 Y119.189 Z.6
G1 Z.2
G1 E3 F2400
G1 F3000
G1 X148.97 Y119.803 E.02036
G1 X149.205 Y120.059 E.0101
G1 X149.594 Y120.345 E.01405
G1 X149.91 Y120.493 E.01015
G1 X150.565 Y120.634 E.0195
G1 X151.207 Y120.552 E.01885
G1 X151.534 Y120.434 E.01012
G1 X151.95 Y120.183 E.01413
G1 X152.208 Y119.947 E.01017
G1 X152.364 Y119.734 E.00769
G1 X152.364 Y127.24 E.21843
G1 X152.204 Y127.04 E.00747
G1 X151.744 Y126.675 E.0171
G1 X151.35 Y126.49 E.01266
G1 X151.03 Y126.408 E.00961
G1 X150.543 Y126.377 E.01418
G1 X150.197 Y126.423 E.01017
G1 X149.737 Y126.58 E.01413
G1 X149.436 Y126.754 E.01012
G1 X149.074 Y127.073 E.01405
G1 X148.862 Y127.35 E.01012
G1 X148.636 Y127.83 E.01547
G1 X148.636 Y119.229 E.25028
G1 E-2.2 F2400
;WIPE_START
G1 F3000
G1 X148.97 Y119.803 E-.53184
G1 X149.197 Y120.051 E-.26816
;WIPE_END
G1 Z.6 F9600
G1 X150.76 Y116.735 Z.6
G1 Z.2
G1 E3 F2400
G1 F3000
G1 X150.848 Y116.734 E.00255
G1 X151.199 Y116.814 E.01046
G1 X151.728 Y117.088 E.01734
G1 X152.064 Y117.43 E.01396
;WIDTH:0.40933
G1 X152.353 Y117.993 E.01889
G1 X152.412 Y118.555 E.01686
;WIDTH:0.399999
G1 X152.297 Y119.153 E.01772
G1 X152.209 Y119.342 E.00609
G1 X151.92 Y119.735 E.01418
G1 X151.765 Y119.877 E.0061
G1 X151.35 Y120.128 E.01413
G1 X151.153 Y120.199 E.00607
G1 X150.577 Y120.277 E.01692
G1 X149.995 Y120.146 E.01737
G1 X149.805 Y120.058 E.00609
G1 X149.416 Y119.772 E.01405
G1 X149.276 Y119.618 E.00606
;WIDTH:0.423454
G1 X148.95 Y119.056 E.02013
;WIDTH:0.458807
G1 X148.909 Y118.96 E.00353
;WIDTH:0.49416
G1 X148.868 Y118.865 E.00384
;WIDTH:0.529512
G1 X148.826 Y118.769 E.00414
;WIDTH:0.539363
G1 X148.844 Y118.143 E.02534
;WIDTH:0.399999
G1 X149.183 Y117.507 E.02095
G1 X149.31 Y117.341 E.00607
G1 X149.672 Y117.022 E.01405
G1 X149.843 Y116.921 E.00577
G1 X150.414 Y116.74 E.01743
G1 X150.72 Y116.735 E.00892
G1 X150.763 Y117.107 F9600
;TYPE:Outer wall
G1 F3000
G1 X150.782 Y117.106 E.00056
G1 X151.038 Y117.157 E.00759
G1 X151.472 Y117.367 E.01403
G1 X151.736 Y117.62 E.01064
G1 X151.974 Y118.051 E.01433
G1 X152.049 Y118.555 E.01481
G1 X151.929 Y119.063 E.01519
G1 X151.615 Y119.511 E.01593
G1 X151.154 Y119.804 E.01589
G1 X150.619 Y119.897 E.01579
G1 X150.085 Y119.779 E.01593
G1 X149.64 Y119.467 E.01581
G1 X149.347 Y119.007 E.01586
G1 X149.261 Y118.655 E.01054
G1 X149.307 Y118.112 E.01587
G1 X149.56 Y117.626 E.01593
G1 X149.972 Y117.277 E.01572
G1 X150.43 Y117.118 E.01411
G1 X150.723 Y117.108 E.00852
G1 E-2.2 F2400
;WIPE_START
G1 F3000
G1 X150.782 Y117.106 E-.04747
G1 X151.038 Y117.157 E-.20862
G1 X151.472 Y117.367 E-.38566
G1 X151.615 Y117.504 E-.15824
;WIPE_END
G1 Z.6 F9600
G1 X149.818 Y130.439 Z.6
G1 Z.2
G1 E3 F2400
;TYPE:Inner wall
G1 F3000
G1 X150.072 Y130.552 E.00812
G1 X150.338 Y130.605 E.00788
G1 X151.027 Y130.599 E.02006
G1 X151.559 Y130.422 E.01631
G1 X152.015 Y130.139 E.01562
G1 X152.364 Y129.734 E.01556
G1 X152.364 Y132.481 E.07994
G1 X148.636 Y133.44 E.11203
G1 X148.636 Y129.189 E.1237
G1 X148.97 Y129.803 E.02036
G1 X149.191 Y130.049 E.0096
G1 X149.536 Y130.313 E.01265
G1 X149.781 Y130.422 E.00781
G1 X150.017 Y130.145 F9600
G1 F3000
G1 X149.895 Y130.108 E.00371
G1 X149.408 Y129.765 E.01734
G1 X149.276 Y129.618 E.00576
;WIDTH:0.423457
G1 X148.95 Y129.056 E.02013
;WIDTH:0.458809
G1 X148.909 Y128.96 E.00353
;WIDTH:0.494161
G1 X148.868 Y128.865 E.00384
;WIDTH:0.529513
G1 X148.826 Y128.769 E.00414
;WIDTH:0.539363
G1 X148.844 Y128.143 E.02534
G1 X148.957 Y127.931 E.00971
;WIDTH:0.492909
G1 X149.07 Y127.719 E.0088
;WIDTH:0.446454
G1 X149.183 Y127.507 E.00789
;WIDTH:0.399999
G1 X149.31 Y127.341 E.00607
G1 X149.672 Y127.022 E.01405
G1 X149.853 Y126.918 E.00607
G1 X150.488 Y126.732 E.01927
G1 X151.007 Y126.765 E.01511
G1 X151.199 Y126.814 E.00577
G1 X151.728 Y127.088 E.01734
G1 X152.064 Y127.43 E.01396
;WIDTH:0.40933
G1 X152.353 Y127.993 E.01889
G1 X152.412 Y128.555 E.01686
;WIDTH:0.399999
G1 X152.297 Y129.153 E.01772
G1 X152.209 Y129.342 E.00608
G1 X151.805 Y129.851 E.01889
G1 X151.444 Y130.084 E.01248
G1 X150.942 Y130.253 E.01543
G1 X150.354 Y130.248 E.0171
G1 X150.056 Y130.157 E.00908
G1 X150.118 Y129.781 F9600
;TYPE:Outer wall
G1 F3000
G1 X149.983 Y129.729 E.00422
G1 X149.599 Y129.422 E.01432
G1 X149.329 Y128.963 E.01549
G1 X149.261 Y128.655 E.00917
G1 X149.307 Y128.112 E.01587
G1 X149.56 Y127.626 E.01593
G1 X149.975 Y127.276 E.0158
G1 X150.486 Y127.11 E.01563
G1 X151.038 Y127.157 E.01612
G1 X151.472 Y127.367 E.01403
G1 X151.737 Y127.62 E.01064
G1 X151.974 Y128.051 E.01433
G1 X152.049 Y128.555 E.01481
G1 X151.903 Y129.118 E.01694
G1 X151.581 Y129.545 E.01556
G1 X151.323 Y129.725 E.00917
G1 X150.806 Y129.89 E.01578
G1 X150.324 Y129.861 E.01404
G1 X150.156 Y129.796 E.00526
G1 E-2.2 F2400
;WIPE_START
G1 F3000
G1 X149.983 Y129.729 E-.14789
G1 X149.599 Y129.422 E-.39364
G1 X149.435 Y129.143 E-.25847
;WIPE_END
G1 Z.6 F9600
G1 X129.187 Y139.132 Z.6
G1 Z.2
G1 E3 F2400
;TYPE:Inner wall
G1 F3000
G1 X129.702 Y138.703 E.0195
G1 X130.349 Y138.117 E.02542
G1 X130.967 Y137.505 E.02529
G1 X131.559 Y136.866 E.02535
G1 X132.196 Y136.118 E.0286
G1 X132.384 Y135.749 E.01204
G1 X132.327 Y135.165 E.01708
G1 X132.197 Y134.883 E.00904
G1 X131.81 Y134.636 E.01334
G1 X143.988 Y134.636 E.35434
G1 X143.005 Y134.889 E.02954
G1 X140.091 Y135.712 E.0881
G1 X132.845 Y137.901 E.22026
G1 X129.225 Y139.119 E.11114
G1 E-2.2 F2400
;WIPE_START
G1 F3000
G1 X129.702 Y138.703 E-.50631
G1 X129.974 Y138.457 E-.29369
;WIPE_END
G1 Z.6 F9600
G1 X152.721 Y117.244 Z.6
G1 Z.2
G1 E3 F2400
G1 F3000
G1 X152.721 Y117.254 E.00029
;WIDTH:0.40933
G1 X152.717 Y117.965 E.02125
G1 X152.737 Y118.555 E.01761
;WIDTH:0.399999
G1 X152.721 Y119.204 E.0189
G1 X152.721 Y127.254 E.23422
;WIDTH:0.40933
G1 X152.717 Y127.965 E.02125
G1 X152.737 Y128.555 E.01761
;WIDTH:0.399999
G1 X152.721 Y129.204 E.0189
G1 X152.721 Y132.758 E.1034
G1 X148.157 Y133.932 E.13715
G1 X148.279 Y133.743 E.00654
G1 X148.279 Y129.412 E.12603
;WIDTH:0.441056
G1 X148.299 Y129.163 E.0081
;WIDTH:0.482113
G1 X148.32 Y128.914 E.00894
;WIDTH:0.523169
G1 X148.34 Y128.665 E.00977
;WIDTH:0.539363
G1 X148.348 Y128.127 E.02177
G1 X148.325 Y128.013 E.00472
;WIDTH:0.492909
G1 X148.302 Y127.898 E.00427
;WIDTH:0.446454
G1 X148.279 Y127.784 E.00383
;WIDTH:0.399999
G1 X148.279 Y119.412 E.24362
;WIDTH:0.441056
G1 X148.299 Y119.163 E.0081
;WIDTH:0.482112
G1 X148.32 Y118.914 E.00894
;WIDTH:0.523168
G1 X148.34 Y118.665 E.00977
;WIDTH:0.539363
G1 X148.348 Y118.127 E.02177
G1 X148.325 Y118.013 E.00472
;WIDTH:0.492909
G1 X148.302 Y117.898 E.00427
;WIDTH:0.446454
G1 X148.279 Y117.784 E.00383
;WIDTH:0.399999
G1 X148.279 Y112.279 E.1602
G1 X152.721 Y112.279 E.12928
G1 X152.721 Y117.204 E.14331
G1 E-2.2 F2400
;WIPE_START
G1 F3000
G1 X152.721 Y117.254 E-.0401
G1 X152.717 Y117.965 E-.56929
G1 X152.725 Y118.204 E-.19061
;WIPE_END
G1 Z.6 F9600
G1 X104.723 Y134.369 Z.6
G1 Z.2
G1 E3 F2400
G1 F3000
G1 X102.727 Y134.37 E.05808
G1 X102.182 Y134.395 E.01586
G1 X101.581 Y134.452 E.01757
G1 X101.249 Y134.601 E.01058
G1 X100.616 Y133.677 E.0326
G1 X100.192 Y132.982 E.02368
G1 X99.797 Y132.267 E.02377
G1 X99.433 Y131.535 E.02379
G1 X99.101 Y130.788 E.02379
G1 X98.801 Y130.027 E.02379
G1 X98.535 Y129.254 E.02379
G1 X98.304 Y128.477 E.02359
G1 X98.104 Y127.677 E.02399
G1 X97.941 Y126.876 E.02378
G1 X97.812 Y126.069 E.02379
G1 X97.718 Y125.257 E.02379
G1 X97.66 Y124.45 E.02354
G1 X97.636 Y123.499 E.02767
G1 X97.649 Y122.809 E.02009
G1 X97.696 Y121.991 E.02384
G1 X97.779 Y121.178 E.02379
G1 X97.898 Y120.369 E.02379
G1 X98.051 Y119.566 E.02379
G1 X98.238 Y118.77 E.02379
G1 X98.461 Y117.983 E.02379
G1 X98.717 Y117.207 E.02379
G1 X99.006 Y116.442 E.02379
G1 X99.328 Y115.691 E.02379
G1 X99.683 Y114.954 E.02379
G1 X100.251 Y113.927 E.03417
G1 X100.517 Y113.483 E.01506
G1 X101.084 Y112.636 E.02966
G1 X104.364 Y112.636 E.09546
G1 X104.364 Y117.847 E.15164
G1 X104.195 Y117.444 E.01273
G1 X103.909 Y117.054 E.01406
G1 X103.652 Y116.819 E.01013
G1 X103.235 Y116.567 E.01418
G1 X102.907 Y116.448 E.01016
G1 X102.427 Y116.375 E.01412
G1 X102.08 Y116.391 E.01011
