; HEADER_BLOCK_START
; generated by OrcaSlicer 2.3.2 on 2026-05-18 at 13:05:02
; total layer number: 40
; filament_density: 1.24
; filament_diameter: 1.75
; max_z_height: 8.00
; filament: 1
; HEADER_BLOCK_END

; THUMBNAIL_BLOCK_START

;
; THUMBNAIL_BLOCK_END

; THUMBNAIL_BLOCK_START

;
; THUMBNAIL_BLOCK_END

; external perimeters extrusion width = 0.40mm
; perimeters extrusion width = 0.40mm
; infill extrusion width = 0.40mm
; solid infill extrusion width = 0.40mm
; top infill extrusion width = 0.40mm
; support material extrusion width = 0.40mm
; first layer extrusion width = 0.40mm

; external perimeters extrusion width = 0.40mm
; perimeters extrusion width = 0.40mm
; infill extrusion width = 0.40mm
; solid infill extrusion width = 0.40mm
; top infill extrusion width = 0.40mm
; support material extrusion width = 0.40mm
; first layer extrusion width = 0.40mm

; external perimeters extrusion width = 0.40mm
; perimeters extrusion width = 0.40mm
; infill extrusion width = 0.40mm
; solid infill extrusion width = 0.40mm
; top infill extrusion width = 0.40mm
; support material extrusion width = 0.40mm
; first layer extrusion width = 0.40mm

; EXECUTABLE_BLOCK_START
M73 P0 R160
M201 X1000 Y1000 Z200 E5000
M203 X200 Y200 Z10 E60
M204 P1250 R1250 T1250
M205 X8.00 Y8.00 Z0.40 E5.00 ; sets the jerk limits, mm/sec
M190 S45 ; set bed temperature and wait for it to be reached
M104 S220 ; set nozzle temperature
;TYPE:Custom
G21 ;metric values
G90 ;absolute positioning
M82 ;set extruder to absolute mode
M107 ;start with the fan off
G28 X0 Y0 ;move X/Y to min endstops
G28 Z0 ;move Z to min endstops
G0 Z0.2 F1800 ; move nozzle to print position
G92 E0 ; specify current extruder position as zero
G1 Y10 X180 E50 F1200 ; extrude a line in front of the printer
G92 E0 ; specify current extruder position as zero
G0 Z20 F6000 ; move head up
G1 E-7 F2400 ; retract
G04 S2 ; wait 2s
G0 X0 F6000 ; wipe from oozed filament
G1 E-1 F2400 ; undo some of the retraction to avoid oozing
G1 F6000 ; set travel speed to move to start printing point
M117
G90
G21
M83 ; use relative distances for extrusion
; filament start gcode
M106 S0
;LAYER_CHANGE
;Z:0.2
;HEIGHT:0.2
;BEFORE_LAYER_CHANGE 
G92 E0.0 
;0.2
G1 E-3 F2400
;AFTER_LAYER_CHANGE
;0.2
;_SET_FAN_SPEED_CHANGING_LAYER
M204 S1000
G1 Z.6 F9600
G1 X61.985 Y74.352
G1 Z.6
G1 Z.2
G1 E3 F2400
;TYPE:Skirt
;WIDTH:0.4
G1 F3000
G1 X91.426 Y52.119 E1.07349
G1 X93.414 Y51.115 E.0648
G1 X95.193 Y50.856 E.05229
G1 X139.993 Y50.856 E1.30357
G1 X142.184 Y51.253 E.0648
G1 X143.595 Y51.999 E.04645
G1 X207.786 Y97.3 E2.28606
G1 X209.566 Y98.793 E.06761
G1 X211.49 Y100.802 E.08095
G1 X212.896 Y102.634 E.06719
G1 X214.339 Y105.013 E.08095
G1 X215.315 Y107.106 E.06719
G1 X216.209 Y109.74 E.08095
G1 X216.709 Y111.995 E.06719
G1 X217.012 Y114.76 E.08095
G1 X218.267 Y173.145 E1.69924
G1 X218.167 Y175.179 E.05927
G1 X217.889 Y177.197 E.05927
G1 X217.507 Y178.92 E.05134
G1 X216.906 Y180.866 E.05927
G1 X216.154 Y182.714 E.05806
G1 X215.208 Y184.565 E.06048
G1 X214.538 Y185.669 E.03758
G1 X213.36 Y187.33 E.05927
G1 X211.525 Y189.422 E.08095
G1 X209.823 Y190.982 E.0672
G1 X207.579 Y192.627 E.08095
G1 X205.579 Y193.782 E.06719
G1 X203.033 Y194.902 E.08095
G1 X200.83 Y195.597 E.06719
G1 X198.102 Y196.139 E.08095
G1 X195.07 Y196.356 E.08845
G1 X46.037 Y196.341 E4.33648
G1 X44.007 Y196.175 E.05927
G1 X42.73 Y195.978 E.03757
G1 X40.744 Y195.526 E.05927
G1 X39.062 Y194.995 E.05134
G1 X37.175 Y194.227 E.05927
G1 X35.363 Y193.297 E.05927
G1 X34.259 Y192.627 E.03757
G1 X32.597 Y191.449 E.05927
G1 X30.506 Y189.615 E.08095
G1 X28.946 Y187.912 E.0672
G1 X27.301 Y185.669 E.08095
G1 X26.146 Y183.669 E.0672
G1 X25.026 Y181.122 E.08095
G1 X24.402 Y179.183 E.05927
G1 X23.902 Y176.929 E.06719
G1 X23.599 Y174.163 E.08095
G1 X22.344 Y116.049 E1.69137
G1 X22.372 Y114.76 E.03752
G1 X22.553 Y112.786 E.05767
G1 X22.868 Y110.994 E.05294
G1 X23.383 Y109.024 E.05927
G1 X23.798 Y107.801 E.03758
G1 X24.474 Y106.171 E.05134
G1 X25.397 Y104.371 E.05885
G1 X26.074 Y103.255 E.03799
G1 X27.252 Y101.593 E.05927
G1 X29.279 Y99.309 E.08887
G1 X31.516 Y97.361 E.08631
G1 X61.953 Y74.376 E1.10981
G1 X62.168 Y74.661 F9600
G1 F3000
G1 X91.642 Y52.404 E1.07466
G1 X93.577 Y51.439 E.06291
G1 X95.193 Y51.214 E.04748
G1 X139.993 Y51.214 E1.30357
G1 X142.118 Y51.61 E.06291
G1 X143.39 Y52.291 E.04197
G1 X207.575 Y97.588 E2.28589
G1 X209.319 Y99.051 E.06623
G1 X211.222 Y101.038 E.08004
G1 X212.599 Y102.833 E.06584
G1 X214.026 Y105.184 E.08004
G1 X214.982 Y107.235 E.06584
G1 X215.867 Y109.84 E.08004
G1 X216.356 Y112.049 E.06583
G1 X216.656 Y114.783 E.08004
G1 X217.91 Y173.137 E1.69833
G1 X217.812 Y175.14 E.05836
G1 X217.539 Y177.127 E.05836
G1 X217.16 Y178.835 E.05089
G1 X216.568 Y180.751 E.05836
G1 X215.827 Y182.571 E.05715
G1 X214.894 Y184.393 E.05957
G1 X214.241 Y185.47 E.03667
G1 X213.081 Y187.107 E.05836
G1 X211.267 Y189.175 E.08004
G1 X209.599 Y190.704 E.06584
G1 X207.381 Y192.33 E.08004
G1 X205.421 Y193.461 E.06583
G1 X202.903 Y194.569 E.08004
G1 X200.746 Y195.25 E.06584
G1 X198.048 Y195.786 E.08004
G1 X195.061 Y196 E.08712
G1 X46.045 Y195.984 E4.336
G1 X44.046 Y195.82 E.05836
G1 X42.068 Y195.483 E.05836
G1 X40.844 Y195.183 E.03667
G1 X38.935 Y194.569 E.05836
G1 X37.319 Y193.9 E.05089
G1 X35.535 Y192.984 E.05836
G1 X34.457 Y192.33 E.03667
G1 X32.821 Y191.17 E.05836
G1 X30.753 Y189.357 E.08004
G1 X29.224 Y187.689 E.06584
G1 X27.598 Y185.47 E.08004
G1 X26.466 Y183.511 E.06584
G1 X25.358 Y180.993 E.08004
G1 X24.678 Y178.835 E.06584
G1 X24.141 Y176.137 E.08004
G1 X23.955 Y174.14 E.05836
G1 X22.701 Y116.041 E1.69091
G1 X22.728 Y114.783 E.03661
G1 X22.907 Y112.838 E.05685
G1 X23.218 Y111.064 E.0524
G1 X23.726 Y109.124 E.05836
G1 X24.131 Y107.93 E.03667
G1 X24.8 Y106.315 E.05088
G1 X25.71 Y104.542 E.05797
G1 X26.37 Y103.453 E.03706
G1 X27.53 Y101.816 E.05836
G1 X29.526 Y99.567 E.08751
G1 X31.731 Y97.646 E.0851
G1 X62.136 Y74.685 E1.10865
G1 X62.352 Y74.97 F9600
G1 F3000
G1 X91.857 Y52.689 E1.07582
G1 X93.737 Y51.765 E.06096
G1 X95.193 Y51.571 E.04273
G1 X139.993 Y51.571 E1.30357
G1 X142.05 Y51.967 E.06096
G1 X143.184 Y52.583 E.03755
G1 X207.365 Y97.877 E2.28572
G1 X209.073 Y99.309 E.06484
G1 X210.953 Y101.273 E.07914
G1 X212.302 Y103.031 E.06448
G1 X213.713 Y105.356 E.07914
G1 X214.65 Y107.365 E.06448
G1 X215.524 Y109.94 E.07914
G1 X216.003 Y112.103 E.06448
G1 X216.3 Y114.807 E.07914
G1 X217.553 Y173.129 E1.69743
G1 X217.457 Y175.102 E.05746
G1 X217.189 Y177.058 E.05745
G1 X216.813 Y178.75 E.05043
G1 X216.23 Y180.636 E.05746
G1 X215.501 Y182.427 E.05625
G1 X214.581 Y184.221 E.05866
G1 X213.944 Y185.272 E.03576
G1 X212.803 Y186.883 E.05746
G1 X211.009 Y188.928 E.07913
G1 X209.376 Y190.425 E.06448
G1 X207.182 Y192.033 E.07914
G1 X205.263 Y193.141 E.06448
G1 X202.774 Y194.237 E.07914
G1 X200.661 Y194.903 E.06448
G1 X197.993 Y195.433 E.07914
G1 X195.053 Y195.643 E.08578
G1 X46.052 Y195.627 E4.33553
G1 X44.084 Y195.465 E.05746
G1 X42.87 Y195.278 E.03576
G1 X41.178 Y194.903 E.05043
G1 X39.291 Y194.319 E.05746
G1 X37.463 Y193.573 E.05746
G1 X35.707 Y192.671 E.05746
G1 X34.656 Y192.033 E.03576
G1 X33.044 Y190.892 E.05746
G1 X31 Y189.099 E.07914
G1 X29.503 Y187.465 E.06448
G1 X27.894 Y185.272 E.07914
G1 X26.786 Y183.353 E.06448
G1 X25.691 Y180.863 E.07914
G1 X25.025 Y178.75 E.06448
G1 X24.494 Y176.083 E.07914
G1 X24.312 Y174.116 E.05746
G1 X23.058 Y116.034 E1.69046
G1 X23.085 Y114.807 E.03571
G1 X23.26 Y112.889 E.05604
G1 X23.568 Y111.134 E.05185
G1 X24.069 Y109.224 E.05746
G1 X24.464 Y108.06 E.03576
G1 X25.127 Y106.459 E.05043
G1 X26.024 Y104.713 E.05709
G1 X26.667 Y103.651 E.03613
G1 X27.809 Y102.04 E.05746
G1 X29.773 Y99.824 E.08615
G1 X31.946 Y97.931 E.08388
G1 X62.32 Y74.994 E1.10748
G1 X62.535 Y75.279 F9600
M73 P0 R159
G1 F3000
G1 X92.072 Y52.974 E1.07698
G1 X93.896 Y52.093 E.05894
G1 X95.193 Y51.928 E.03804
G1 X139.993 Y51.928 E1.30357
G1 X141.979 Y52.324 E.05894
G1 X142.978 Y52.875 E.03319
G1 X207.154 Y98.165 E2.28556
G1 X208.826 Y99.566 E.06346
G1 X210.685 Y101.509 E.07823
G1 X212.005 Y103.23 E.06312
G1 X213.4 Y105.528 E.07823
G1 X214.317 Y107.494 E.06312
G1 X215.181 Y110.04 E.07823
G1 X215.651 Y112.158 E.06312
G1 X215.943 Y114.83 E.07823
G1 X217.196 Y173.121 E1.69652
G1 X217.102 Y175.063 E.05655
G1 X216.838 Y176.988 E.05655
G1 X216.408 Y178.883 E.05655
G1 X215.892 Y180.522 E.04998
G1 X215.174 Y182.283 E.05534
G1 X214.268 Y184.049 E.05776
G1 X213.647 Y185.073 E.03486
G1 X212.524 Y186.66 E.05655
G1 X210.751 Y188.681 E.07823
G1 X209.152 Y190.147 E.06312
G1 X206.984 Y191.736 E.07823
G1 X205.105 Y192.821 E.06312
G1 X202.645 Y193.904 E.07823
G1 X200.576 Y194.556 E.06312
G1 X197.939 Y195.08 E.07823
G1 X195.044 Y195.286 E.08445
G1 X46.06 Y195.27 E4.33505
G1 X44.123 Y195.11 E.05655
G1 X42.208 Y194.782 E.05655
G1 X41.044 Y194.498 E.03486
G1 X39.194 Y193.904 E.05655
G1 X37.607 Y193.246 E.04998
G1 X35.878 Y192.358 E.05655
G1 X34.854 Y191.736 E.03486
G1 X33.268 Y190.614 E.05655
G1 X31.247 Y188.841 E.07823
G1 X29.781 Y187.242 E.06312
G1 X28.191 Y185.073 E.07823
G1 X27.211 Y183.395 E.05655
G1 X26.294 Y181.429 E.06312
G1 X25.43 Y178.883 E.07823
G1 X24.961 Y176.766 E.06312
G1 X24.668 Y174.093 E.07823
G1 X23.415 Y116.026 E1.69
G1 X23.441 Y114.83 E.03481
G1 X23.613 Y112.94 E.05522
G1 X23.918 Y111.203 E.05131
G1 X24.412 Y109.324 E.05655
G1 X24.797 Y108.189 E.03486
G1 X25.454 Y106.602 E.04998
G1 X26.337 Y104.884 E.05621
G1 X26.964 Y103.85 E.0352
G1 X28.087 Y102.263 E.05655
G1 X30.019 Y100.082 E.08479
G1 X32.161 Y98.216 E.08267
G1 X62.503 Y75.303 E1.10632
; printing object seg3_strut.stl id:4254275715856412229 copy 0
G1 E-2.2 F2400
;WIPE_START
G1 F3000
G1 X63.301 Y74.7 E-.8
;WIPE_END
G1 Z.6 F9600
G1 X98.1 Y73.461 Z.6
G1 Z.2
G1 E3 F2400
;TYPE:Inner wall
;WIDTH:0.399999
G1 F3000
G1 X98.057 Y73.631 E.00508
G1 X98.057 Y81.505 E.22913
G1 X96.328 Y81.505 E.0503
G1 X96.328 Y58.242 E.67691
G1 X98.057 Y58.242 E.0503
G1 X98.057 Y66.117 E.22913
G1 X98.162 Y66.537 E.0126
G1 X98.414 Y66.831 E.01127
G1 X98.7 Y66.974 E.00929
G1 X98.95 Y67.009 E.00735
G1 X135.993 Y67.009 E1.07785
G1 X136.486 Y66.974 E.01438
G1 X136.771 Y66.831 E.00929
G1 X137.023 Y66.537 E.01127
G1 X137.128 Y66.117 E.0126
G1 X137.128 Y58.242 E.22913
G1 X138.857 Y58.242 E.0503
G1 X138.857 Y81.505 E.67691
G1 X137.128 Y81.505 E.0503
G1 X137.128 Y73.631 E.22913
G1 X137.023 Y73.211 E.0126
G1 X136.771 Y72.917 E.01127
G1 X136.486 Y72.774 E.00929
G1 X136.236 Y72.738 E.00735
G1 X99.193 Y72.738 E1.07785
G1 X98.7 Y72.774 E.01438
G1 X98.414 Y72.917 E.00929
G1 X98.162 Y73.211 E.01127
G1 X98.109 Y73.422 E.00635
G1 X98.436 Y73.543 F9600
G1 F3000
G1 X98.414 Y73.631 E.00262
G1 X98.414 Y81.862 E.23952
G1 X95.971 Y81.862 E.07108
G1 X95.971 Y57.885 E.69769
G1 X98.414 Y57.885 E.07108
G1 X98.414 Y66.117 E.23952
G1 X98.477 Y66.369 E.00756
G1 X98.628 Y66.545 E.00676
G1 X98.8 Y66.631 E.00558
G1 X99.193 Y66.652 E.01145
G1 X136.343 Y66.652 E1.08097
G1 X136.557 Y66.545 E.00697
G1 X136.708 Y66.369 E.00676
G1 X136.771 Y66.117 E.00756
G1 X136.771 Y57.885 E.23952
G1 X139.214 Y57.885 E.07108
G1 X139.214 Y81.862 E.69769
G1 X136.771 Y81.862 E.07108
G1 X136.771 Y73.631 E.23952
G1 X136.708 Y73.379 E.00756
G1 X136.557 Y73.202 E.00676
G1 X136.386 Y73.116 E.00558
G1 X135.993 Y73.095 E.01145
G1 X98.843 Y73.095 E1.08097
G1 X98.628 Y73.202 E.00697
G1 X98.477 Y73.379 E.00676
G1 X98.446 Y73.505 E.00378
G1 X98.793 Y73.631 F9600
;TYPE:Outer wall
G1 F3000
G1 X98.793 Y82.241 E.25054
G1 X95.593 Y82.241 E.09311
G1 X95.593 Y57.506 E.71972
G1 X98.793 Y57.506 E.09311
G1 X98.793 Y66.117 E.25054
G1 X98.856 Y66.242 E.00409
G1 X98.95 Y66.274 E.00289
G1 X135.993 Y66.274 E1.07785
G1 X136.33 Y66.242 E.00985
G1 X136.393 Y66.117 E.00409
G1 X136.393 Y57.506 E.25054
G1 X139.593 Y57.506 E.09311
G1 X139.593 Y82.241 E.71972
G1 X136.393 Y82.241 E.09311
G1 X136.393 Y73.631 E.25054
G1 X136.33 Y73.505 E.00409
G1 X136.236 Y73.474 E.00289
G1 X99.193 Y73.474 E1.07785
G1 X98.856 Y73.505 E.00985
G1 X98.811 Y73.595 E.00292
G1 E-2.2 F2400
;WIPE_START
G1 F3000
G1 X98.809 Y74.595 E-.8
;WIPE_END
G1 Z.6 F9600
G1 X138.75 Y59.074 Z.6
G1 Z.2
G1 E3 F2400
;TYPE:Bottom surface
;WIDTH:0.401599
G1 X138.185 Y58.51 E.02334
G1 X137.678 Y58.51 E.01483
G1 X138.589 Y59.421 E.03766
G1 X138.589 Y59.928 E.01483
G1 X137.396 Y58.735 E.04932
G1 X137.396 Y59.242 E.01483
G1 X138.589 Y60.435 E.04932
G1 X138.589 Y60.943 E.01483
G1 X137.396 Y59.749 E.04932
G1 X137.396 Y60.257 E.01483
G1 X138.589 Y61.45 E.04932
G1 X138.589 Y61.957 E.01483
G1 X137.396 Y60.764 E.04932
G1 X137.396 Y61.271 E.01483
G1 X138.589 Y62.464 E.04932
G1 X138.589 Y62.972 E.01483
G1 X137.396 Y61.778 E.04932
G1 X137.396 Y62.286 E.01483
G1 X138.589 Y63.479 E.04932
G1 X138.589 Y63.986 E.01483
G1 X137.396 Y62.793 E.04932
G1 X137.396 Y63.3 E.01483
G1 X138.589 Y64.493 E.04932
G1 X138.589 Y65.001 E.01483
G1 X137.396 Y63.807 E.04932
G1 X137.396 Y64.315 E.01483
G1 X138.589 Y65.508 E.04932
G1 X138.589 Y66.015 E.01483
G1 X137.396 Y64.822 E.04932
G1 X137.396 Y65.329 E.01483
G1 X138.589 Y66.522 E.04932
G1 X138.589 Y67.029 E.01483
G1 X137.396 Y65.836 E.04932
G1 X137.377 Y66.325 E.01428
G1 X138.589 Y67.537 E.0501
G1 X138.589 Y68.044 E.01483
G1 X137.237 Y66.692 E.05588
G1 X137.003 Y66.965 E.01051
G1 X138.589 Y68.551 E.06556
G1 X138.589 Y69.058 E.01483
G1 X136.696 Y67.165 E.07828
G1 X136.563 Y67.231 E.00435
G1 X136.293 Y67.27 E.00795
G1 X138.589 Y69.566 E.09491
G1 X138.589 Y70.073 E.01483
G1 X135.793 Y67.277 E.11557
G1 X135.286 Y67.277 E.01483
G1 X138.589 Y70.58 E.13654
G1 X138.589 Y71.087 E.01483
G1 X134.779 Y67.277 E.1575
G1 X134.272 Y67.277 E.01483
G1 X138.589 Y71.595 E.17847
G1 X138.589 Y72.102 E.01483
G1 X133.764 Y67.277 E.19944
G1 X133.257 Y67.277 E.01483
G1 X138.589 Y72.609 E.2204
G1 X138.589 Y73.116 E.01483
G1 X132.75 Y67.277 E.24137
G1 X132.243 Y67.277 E.01483
G1 X138.589 Y73.624 E.26234
G1 X138.589 Y74.131 E.01483
G1 X131.735 Y67.277 E.2833
G1 X131.228 Y67.277 E.01483
G1 X136.451 Y72.5 E.21589
G1 X136.563 Y72.516 E.00329
G1 X136.934 Y72.702 E.01215
G1 X137.262 Y73.084 E.01473
G1 X137.338 Y73.387 E.00911
G1 X138.589 Y74.638 E.05172
G1 X138.589 Y75.145 E.01483
G1 X137.396 Y73.952 E.04932
G1 X137.396 Y74.46 E.01483
G1 X138.589 Y75.653 E.04932
G1 X138.589 Y76.16 E.01483
G1 X137.396 Y74.967 E.04932
G1 X137.396 Y75.474 E.01483
G1 X138.589 Y76.667 E.04932
G1 X138.589 Y77.174 E.01483
G1 X137.396 Y75.981 E.04932
G1 X137.396 Y76.489 E.01483
G1 X138.589 Y77.682 E.04932
G1 X138.589 Y78.189 E.01483
G1 X137.396 Y76.996 E.04932
G1 X137.396 Y77.503 E.01483
G1 X138.589 Y78.696 E.04932
G1 X138.589 Y79.203 E.01483
G1 X137.396 Y78.01 E.04932
G1 X137.396 Y78.518 E.01483
G1 X138.589 Y79.711 E.04932
G1 X138.589 Y80.218 E.01483
G1 X137.396 Y79.025 E.04932
G1 X137.396 Y79.532 E.01483
G1 X138.589 Y80.725 E.04932
G1 X138.589 Y81.232 E.01483
G1 X137.396 Y80.039 E.04932
G1 X137.396 Y80.547 E.01483
G1 X138.087 Y81.238 E.02856
G1 X137.58 Y81.238 E.01483
G1 X137.236 Y80.893 E.01424
G1 E-2
;WIPE_START
G1 X137.58 Y81.238 E-.48709
G1 X138.087 Y81.238 E-.50725
G1 X138.083 Y81.234 E-.00567
;WIPE_END
G1 Z.6 F9600
G1 X136.075 Y72.631 Z.6
G1 Z.2
G1 E3 F2400
G1 X130.721 Y67.277 E.2213
G1 X130.214 Y67.277 E.01483
G1 X135.407 Y72.47 E.21466
G1 X134.9 Y72.47 E.01483
G1 X129.706 Y67.277 E.21466
G1 X129.199 Y67.277 E.01483
G1 X134.392 Y72.47 E.21466
G1 X133.885 Y72.47 E.01483
G1 X128.692 Y67.277 E.21466
G1 X128.185 Y67.277 E.01483
G1 X133.378 Y72.47 E.21466
G1 X132.871 Y72.47 E.01483
G1 X127.677 Y67.277 E.21466
G1 X127.17 Y67.277 E.01483
G1 X132.363 Y72.47 E.21466
G1 X131.856 Y72.47 E.01483
G1 X126.663 Y67.277 E.21466
G1 X126.156 Y67.277 E.01483
G1 X131.349 Y72.47 E.21466
G1 X130.842 Y72.47 E.01483
G1 X125.648 Y67.277 E.21466
G1 X125.141 Y67.277 E.01483
G1 X130.334 Y72.47 E.21466
G1 X129.827 Y72.47 E.01483
G1 X124.634 Y67.277 E.21466
G1 X124.127 Y67.277 E.01483
G1 X129.32 Y72.47 E.21466
G1 X128.813 Y72.47 E.01483
G1 X123.619 Y67.277 E.21466
G1 X123.112 Y67.277 E.01483
G1 X128.305 Y72.47 E.21466
G1 X127.798 Y72.47 E.01483
G1 X122.605 Y67.277 E.21466
G1 X122.098 Y67.277 E.01483
G1 X127.291 Y72.47 E.21466
G1 X126.784 Y72.47 E.01483
G1 X121.59 Y67.277 E.21466
G1 X121.083 Y67.277 E.01483
G1 X126.276 Y72.47 E.21466
