; HEADER_BLOCK_START
; generated by OrcaSlicer 2.3.2 on 2026-05-18 at 13:05:05
; total layer number: 212
; filament_density: 1.24
; filament_diameter: 1.75
; max_z_height: 42.40
; filament: 1
; HEADER_BLOCK_END

; THUMBNAIL_BLOCK_START

;
; THUMBNAIL_BLOCK_END

; THUMBNAIL_BLOCK_START

;
; THUMBNAIL_BLOCK_END

; external perimeters extrusion width = 0.40mm
; perimeters extrusion width = 0.40mm
; infill extrusion width = 0.40mm
; solid infill extrusion width = 0.40mm
; top infill extrusion width = 0.40mm
; support material extrusion width = 0.40mm
; first layer extrusion width = 0.40mm

; EXECUTABLE_BLOCK_START
M73 P0 R65
M201 X1000 Y1000 Z200 E5000
M203 X200 Y200 Z10 E60
M204 P1250 R1250 T1250
M205 X8.00 Y8.00 Z0.40 E5.00 ; sets the jerk limits, mm/sec
M190 S45 ; set bed temperature and wait for it to be reached
M104 S220 ; set nozzle temperature
;TYPE:Custom
G21 ;metric values
G90 ;absolute positioning
M82 ;set extruder to absolute mode
M107 ;start with the fan off
G28 X0 Y0 ;move X/Y to min endstops
G28 Z0 ;move Z to min endstops
G0 Z0.2 F1800 ; move nozzle to print position
G92 E0 ; specify current extruder position as zero
G1 Y10 X180 E50 F1200 ; extrude a line in front of the printer
G92 E0 ; specify current extruder position as zero
G0 Z20 F6000 ; move head up
M73 P0 R64
G1 E-7 F2400 ; retract
G04 S2 ; wait 2s
G0 X0 F6000 ; wipe from oozed filament
G1 E-1 F2400 ; undo some of the retraction to avoid oozing
G1 F6000 ; set travel speed to move to start printing point
M117
G90
G21
M83 ; use relative distances for extrusion
; filament start gcode
M106 S0
;LAYER_CHANGE
;Z:0.2
;HEIGHT:0.2
;BEFORE_LAYER_CHANGE 
G92 E0.0 
;0.2
G1 E-3 F2400
;AFTER_LAYER_CHANGE
;0.2
;_SET_FAN_SPEED_CHANGING_LAYER
M204 S1000
G1 Z.6 F9600
G1 X87.867 Y109.031
G1 Z.6
G1 Z.2
G1 E3 F2400
;TYPE:Skirt
;WIDTH:0.4
G1 F3000
G1 X139.044 Y109.031 E1.4891
G1 X141.235 Y109.428 E.0648
G1 X143.148 Y110.568 E.0648
G1 X143.972 Y111.438 E.03487
G1 X145.695 Y113.854 E.08635
G1 X146.884 Y115.966 E.07052
G1 X148.056 Y118.693 E.08635
G1 X148.77 Y121.009 E.07052
G1 X149.337 Y123.921 E.08634
G1 X149.544 Y126.336 E.07052
G1 X149.532 Y128.493 E.06276
G1 X149.216 Y131.444 E.08635
G1 X148.702 Y133.812 E.07052
G1 X147.768 Y136.628 E.08634
G1 X146.763 Y138.834 E.07052
G1 X145.836 Y140.481 E.05499
G1 X145.102 Y141.609 E.03915
G1 X143.972 Y143.124 E.055
G1 X142.312 Y144.608 E.0648
G1 X140.237 Y145.416 E.0648
G1 X139.044 Y145.531 E.03487
G1 X87.313 Y145.531 E1.50524
G1 X85.121 Y145.134 E.0648
G1 X83.208 Y143.994 E.0648
G1 X81.816 Y142.256 E.0648
G1 X81.063 Y139.281 E.08928
G1 X81.063 Y115.281 E.69834
G1 X81.46 Y113.09 E.0648
G1 X82.6 Y111.177 E.0648
G1 X84.338 Y109.785 E.0648
G1 X87.313 Y109.031 E.08928
G1 X87.827 Y109.031 E.01498
G1 X87.827 Y109.388 F9600
G1 F3000
G1 X139.044 Y109.388 E1.49026
G1 X141.169 Y109.785 E.06291
G1 X143.691 Y111.658 E.0914
G1 X145.396 Y114.049 E.08546
G1 X146.562 Y116.121 E.06919
G1 X147.722 Y118.82 E.08546
G1 X148.423 Y121.092 E.06919
G1 X148.984 Y123.975 E.08546
G1 X149.187 Y126.344 E.06919
G1 X149.176 Y128.47 E.06187
G1 X148.863 Y131.39 E.08546
G1 X148.359 Y133.714 E.06919
G1 X147.434 Y136.502 E.08546
G1 X146.448 Y138.666 E.06919
G1 X144.812 Y141.402 E.09277
G1 X143.691 Y142.904 E.05455
G1 X142.071 Y144.337 E.06291
G1 X139.044 Y145.174 E.0914
G1 X87.313 Y145.174 E1.50524
G1 X85.187 Y144.777 E.06291
G1 X83.348 Y143.641 E.06291
G1 X82.043 Y141.918 E.06291
G1 X81.42 Y139.281 E.07882
G1 X81.42 Y115.281 E.69834
G1 X81.817 Y113.156 E.06291
G1 X82.953 Y111.317 E.06291
G1 X84.676 Y110.011 E.06291
G1 X87.313 Y109.388 E.07882
G1 X87.787 Y109.388 E.01381
G1 X87.787 Y109.746 F9600
G1 F3000
G1 X139.044 Y109.746 E1.49143
G1 X141.101 Y110.142 E.06096
G1 X143.409 Y111.877 E.08404
G1 X145.097 Y114.244 E.08457
G1 X146.593 Y117.007 E.09144
G1 X147.388 Y118.946 E.06098
G1 X148.075 Y121.175 E.06786
G1 X148.631 Y124.028 E.08457
G1 X148.83 Y126.351 E.06786
G1 X148.82 Y128.447 E.06098
G1 X148.51 Y131.337 E.08457
G1 X148.015 Y133.616 E.06786
G1 X147.1 Y136.375 E.08457
G1 X146.134 Y138.497 E.06786
G1 X144.521 Y141.194 E.09144
G1 X143.409 Y142.685 E.05411
G1 X141.832 Y144.063 E.06096
G1 X139.044 Y144.817 E.08404
G1 X87.313 Y144.817 E1.50524
G1 X85.256 Y144.42 E.06096
G1 X83.493 Y143.288 E.06096
G1 X82.278 Y141.582 E.06096
G1 X81.777 Y139.281 E.06851
G1 X81.777 Y115.281 E.69834
G1 X82.174 Y113.224 E.06096
G1 X83.306 Y111.462 E.06096
G1 X85.012 Y110.246 E.06096
G1 X87.313 Y109.746 E.06851
G1 X87.747 Y109.746 E.01265
G1 X87.747 Y110.103 F9600
G1 F3000
G1 X139.044 Y110.103 E1.49259
G1 X141.03 Y110.499 E.05894
G1 X143.128 Y112.097 E.07673
G1 X143.625 Y112.736 E.02356
G1 X144.914 Y114.627 E.06658
G1 X146.363 Y117.364 E.09011
G1 X147.384 Y120.052 E.08368
G1 X147.964 Y122.264 E.06652
G1 X148.392 Y125.108 E.08368
G1 X148.49 Y127.171 E.0601
G1 X148.392 Y129.455 E.06653
G1 X148.119 Y131.502 E.0601
G1 X147.449 Y134.299 E.08368
G1 X146.683 Y136.453 E.06652
G1 X145.436 Y139.044 E.08369
G1 X144.23 Y140.987 E.06653
G1 X143.128 Y142.465 E.05366
G1 X141.594 Y143.788 E.05894
G1 X139.044 Y144.46 E.07673
G1 X87.313 Y144.46 E1.50524
G1 X85.326 Y144.064 E.05894
G1 X83.644 Y142.936 E.05894
G1 X82.523 Y141.249 E.05894
G1 X82.134 Y139.281 E.05836
G1 X82.134 Y115.281 E.69834
G1 X82.53 Y113.295 E.05894
G1 X83.658 Y111.612 E.05894
G1 X85.345 Y110.491 E.05894
G1 X87.313 Y110.103 E.05836
G1 X87.707 Y110.103 E.01148
; printing object seg3b.stl id:0 copy 0
G1 E-2.2 F2400
;WIPE_START
G1 F3000
G1 X88.707 Y110.103 E-.8
;WIPE_END
G1 Z.6 F9600
G1 X136.098 Y116.417 Z.6
G1 Z.2
G1 E3 F2400
;TYPE:Inner wall
;WIDTH:0.399999
G1 F3000
G1 X138.483 Y116.417 E.0694
G1 X139.079 Y117.227 E.02927
G1 X139.492 Y117.862 E.02201
G1 X139.88 Y118.518 E.02221
G1 X140.24 Y119.191 E.02221
G1 X140.571 Y119.879 E.02221
G1 X140.872 Y120.58 E.02221
G1 X141.144 Y121.294 E.02221
G1 X141.384 Y122.018 E.02221
G1 X141.593 Y122.752 E.02221
G1 X141.848 Y123.889 E.03391
G1 X141.986 Y124.706 E.02411
G1 X142.114 Y125.797 E.03197
G1 X142.162 Y126.57 E.02252
G1 X142.176 Y127.342 E.02249
G1 X142.161 Y128.044 E.02043
G1 X142.112 Y128.806 E.02221
G1 X142.03 Y129.565 E.02221
G1 X141.917 Y130.319 E.02221
G1 X141.771 Y131.068 E.02221
G1 X141.593 Y131.811 E.02221
G1 X141.384 Y132.545 E.02221
G1 X141.144 Y133.269 E.02221
G1 X140.872 Y133.982 E.02221
G1 X140.461 Y134.913 E.0296
G1 X139.868 Y136.065 E.03769
G1 X139.394 Y136.851 E.0267
G1 X138.907 Y137.577 E.02547
G1 X138.489 Y138.146 E.02052
G1 X136.448 Y138.146 E.05938
G1 X136.448 Y133.023 E.14905
G1 X136.616 Y133.335 E.01031
G1 X136.903 Y133.726 E.0141
G1 X137.159 Y133.96 E.01009
G1 X137.571 Y134.211 E.01404
G1 X137.897 Y134.331 E.01011
G1 X138.298 Y134.393 E.01181
G1 X138.688 Y134.399 E.01135
G1 X139.2 Y134.275 E.01531
G1 X139.516 Y134.128 E.01016
G1 X139.907 Y133.841 E.01412
G1 X140.142 Y133.584 E.01012
G1 X140.478 Y132.988 E.01992
G1 X140.587 Y132.364 E.01845
G1 X140.572 Y132.017 E.01011
G1 X140.357 Y131.3 E.02177
G1 X140.025 Y130.84 E.01651
G1 X139.767 Y130.603 E.01019
G1 X139.124 Y130.252 E.02132
G1 X138.543 Y130.157 E.01715
G1 X138.196 Y130.172 E.0101
G1 X137.725 Y130.287 E.0141
G1 X137.41 Y130.434 E.01012
G1 X137.018 Y130.721 E.01412
G1 X136.783 Y130.978 E.01014
;WIDTH:0.4164
G1 X136.473 Y131.483 E.01801
G1 X136.448 Y130.885 E.01821
;WIDTH:0.399999
G1 X136.448 Y123.023 E.22876
G1 X136.616 Y123.335 E.01031
G1 X136.903 Y123.726 E.0141
G1 X137.159 Y123.96 E.01009
G1 X137.571 Y124.211 E.01404
G1 X137.897 Y124.331 E.01011
G1 X138.377 Y124.406 E.01412
G1 X138.704 Y124.396 E.00952
G1 X139.182 Y124.28 E.01431
G1 X139.516 Y124.128 E.01069
G1 X140.048 Y123.713 E.01963
G1 X140.343 Y123.255 E.01584
G1 X140.513 Y122.843 E.01297
G1 X140.587 Y122.364 E.01411
G1 X140.572 Y122.017 E.01011
G1 X140.425 Y121.441 E.01728
G1 X140.025 Y120.84 E.02102
G1 X139.761 Y120.599 E.01041
G1 X139.227 Y120.287 E.018
G1 X138.728 Y120.185 E.0148
G1 X138.279 Y120.156 E.01311
G1 X137.725 Y120.287 E.01657
G1 X137.41 Y120.434 E.01012
G1 X137.018 Y120.721 E.01412
G1 X136.783 Y120.978 E.01014
;WIDTH:0.416396
G1 X136.473 Y121.483 E.01801
G1 X136.448 Y120.885 E.01821
;WIDTH:0.399999
G1 X136.448 Y117.038 E.11192
G1 X136.27 Y116.503 E.01643
G1 X136.134 Y116.435 E.00442
G1 E-2.2 F2400
;WIPE_START
G1 F3000
G1 X137.134 Y116.427 E-.8
;WIPE_END
G1 Z.6 F9600
G1 X137.575 Y133.796 Z.6
G1 Z.2
G1 E3 F2400
G1 F3000
G1 X137.344 Y133.655 E.00787
G1 X137.191 Y133.515 E.00606
G1 X136.904 Y133.124 E.0141
;WIDTH:0.435578
G1 X136.819 Y132.909 E.0074
;WIDTH:0.471157
G1 X136.734 Y132.694 E.00807
;WIDTH:0.506736
G1 X136.649 Y132.478 E.00874
;WIDTH:0.523123
G1 X136.63 Y132.247 E.00908
;WIDTH:0.560293
G1 X136.686 Y131.763 E.02056
G1 X136.786 Y131.613 E.00761
;WIDTH:0.52022
G1 X136.887 Y131.463 E.00702
;WIDTH:0.480146
G1 X136.988 Y131.313 E.00643
;WIDTH:0.440073
G1 X137.088 Y131.163 E.00584
;WIDTH:0.399999
G1 X137.229 Y131.009 E.00609
G1 X137.621 Y130.722 E.01412
G1 X137.81 Y130.634 E.00607
G1 X138.281 Y130.519 E.0141
G1 X138.489 Y130.51 E.00606
G1 X139.029 Y130.596 E.01591
G1 X139.582 Y130.908 E.01849
G1 X139.737 Y131.05 E.00612
G1 X140.051 Y131.483 E.01556
G1 X140.225 Y132.101 E.01867
G1 X140.234 Y132.309 E.00606
G1 X140.139 Y132.876 E.01671
G1 X139.837 Y133.399 E.01759
G1 X139.5 Y133.697 E.01308
G1 X139.159 Y133.916 E.01178
G1 X138.641 Y134.044 E.01554
G1 X138.353 Y134.04 E.00838
G1 X137.952 Y133.978 E.01181
G1 X137.756 Y133.906 E.00607
G1 X137.61 Y133.817 E.005
G1 X137.778 Y133.469 F9600
;TYPE:Outer wall
G1 F3000
G1 X137.541 Y133.332 E.00797
G1 X137.209 Y132.9 E.01585
G1 X137.068 Y132.375 E.01581
G1 X137.139 Y131.832 E.01594
G1 X137.412 Y131.36 E.01587
G1 X137.844 Y131.028 E.01587
G1 X138.371 Y130.887 E.01585
G1 X138.909 Y130.957 E.0158
G1 X139.386 Y131.232 E.01602
G1 X139.718 Y131.666 E.01589
G1 X139.858 Y132.19 E.0158
G1 X139.786 Y132.731 E.01586
G1 X139.514 Y133.203 E.01586
G1 X139.081 Y133.535 E.01587
G1 X138.551 Y133.676 E.01595
G1 X138.011 Y133.604 E.01587
G1 X137.813 Y133.489 E.00666
G1 E-2.2 F2400
;WIPE_START
G1 F3000
G1 X137.541 Y133.332 E-.25112
G1 X137.209 Y132.9 E-.43577
G1 X137.173 Y132.763 E-.11311
;WIPE_END
G1 Z.6 F9600
G1 X139.472 Y123.713 Z.6
G1 Z.2
G1 E3 F2400
;TYPE:Inner wall
G1 F3000
G1 X139.305 Y123.84 E.0061
G1 X139.097 Y123.933 E.00662
G1 X138.628 Y124.047 E.01405
G1 X138.432 Y124.053 E.00571
G1 X137.952 Y123.978 E.01412
G1 X137.756 Y123.906 E.00607
G1 X137.344 Y123.655 E.01404
G1 X137.191 Y123.515 E.00606
G1 X136.904 Y123.124 E.0141
;WIDTH:0.435579
G1 X136.819 Y122.909 E.0074
;WIDTH:0.471158
G1 X136.734 Y122.694 E.00807
;WIDTH:0.506737
G1 X136.649 Y122.478 E.00874
;WIDTH:0.523125
G1 X136.63 Y122.247 E.00908
;WIDTH:0.560293
G1 X136.686 Y121.763 E.02056
G1 X136.786 Y121.613 E.00761
;WIDTH:0.52022
G1 X136.887 Y121.463 E.00702
;WIDTH:0.480146
G1 X136.988 Y121.313 E.00643
;WIDTH:0.440073
G1 X137.088 Y121.163 E.00584
;WIDTH:0.399999
G1 X137.229 Y121.009 E.00609
G1 X137.621 Y120.722 E.01412
G1 X137.81 Y120.634 E.00607
G1 X138.331 Y120.509 E.01558
G1 X138.966 Y120.582 E.01862
G1 X139.163 Y120.654 E.0061
G1 X139.576 Y120.904 E.01404
G1 X139.847 Y121.201 E.01169
G1 X140.106 Y121.612 E.01415
G1 X140.225 Y122.101 E.01464
G1 X140.234 Y122.309 E.00606
G1 X140.16 Y122.789 E.01411
G1 X140.037 Y123.069 E.00892
G1 X139.781 Y123.476 E.01399
G1 X139.503 Y123.688 E.01016
G1 X139.242 Y123.412 F9600
;TYPE:Outer wall
G1 F3000
G1 X139.081 Y123.535 E.00588
G1 X138.551 Y123.676 E.01595
G1 X138.011 Y123.604 E.01587
G1 X137.541 Y123.332 E.01579
G1 X137.209 Y122.9 E.01585
G1 X137.068 Y122.375 E.01581
G1 X137.139 Y121.832 E.01594
G1 X137.412 Y121.36 E.01587
G1 X137.844 Y121.028 E.01587
G1 X138.371 Y120.887 E.01585
G1 X138.909 Y120.957 E.0158
G1 X139.38 Y121.228 E.0158
G1 X139.718 Y121.666 E.0161
G1 X139.858 Y122.19 E.0158
G1 X139.792 Y122.695 E.01481
G1 X139.514 Y123.203 E.01684
G1 X139.273 Y123.387 E.00882
G1 E-2.2 F2400
;WIPE_START
G1 F3000
G1 X139.081 Y123.535 E-.19378
G1 X138.551 Y123.676 E-.43856
G1 X138.344 Y123.648 E-.16766
;WIPE_END
G1 Z.6 F9600
G1 X92.239 Y116.852 Z.6
G1 Z.2
G1 E3 F2400
;TYPE:Inner wall
G1 F3000
G1 X92.177 Y117.038 E.00573
G1 X92.177 Y120.889 E.11206
;WIDTH:0.416879
G1 X92.152 Y121.477 E.01794
G1 X91.845 Y120.982 E.01776
;WIDTH:0.399999
G1 X91.61 Y120.724 E.01016
G1 X91.217 Y120.435 E.01418
G1 X90.919 Y120.292 E.00962
M73 P1 R64
G1 X90.247 Y120.15 E.01998
G1 X89.71 Y120.204 E.01571
G1 X89.253 Y120.36 E.01406
G1 X88.951 Y120.534 E.01013
G1 X88.585 Y120.856 E.01418
G1 X88.448 Y121.035 E.00656
G1 X88.448 Y116.417 E.13438
G1 X92.496 Y116.417 E.11776
G1 X92.356 Y116.503 E.00478
G1 X92.252 Y116.814 E.00954
G1 E-2.2 F2400
;WIPE_START
G1 F3000
G1 X92.177 Y117.038 E-.1895
G1 X92.177 Y117.801 E-.6105
;WIPE_END
G1 Z.6 F9600
G1 X88.448 Y123.543 Z.6
G1 Z.2
G1 E3 F2400
G1 F3000
G1 X88.718 Y123.841 E.0117
G1 X89.11 Y124.128 E.01412
G1 X89.425 Y124.275 E.01013
G1 X89.896 Y124.39 E.01412
G1 X90.175 Y124.414 E.00813
G1 X90.724 Y124.332 E.01616
G1 X91.051 Y124.213 E.01013
G1 X91.466 Y123.961 E.01412
G1 X91.723 Y123.726 E.01015
G1 X92.01 Y123.334 E.01413
G1 X92.177 Y122.936 E.01257
G1 X92.177 Y130.889 E.23143
;WIDTH:0.416877
G1 X92.152 Y131.477 E.01794
G1 X91.845 Y130.982 E.01776
;WIDTH:0.399999
G1 X91.61 Y130.724 E.01016
G1 X91.217 Y130.435 E.01418
G1 X90.919 Y130.292 E.00962
G1 X90.247 Y130.15 E.01998
G1 X89.71 Y130.204 E.01571
G1 X89.253 Y130.36 E.01406
G1 X88.951 Y130.534 E.01013
G1 X88.585 Y130.856 E.01418
G1 X88.448 Y131.035 E.00656
G1 X88.448 Y123.583 E.21682
G1 E-2.2 F2400
;WIPE_START
G1 F3000
G1 X88.718 Y123.841 E-.29865
G1 X89.11 Y124.128 E-.3881
G1 X89.238 Y124.188 E-.11325
;WIPE_END
G1 Z.6 F9600
G1 X89.58 Y120.634 Z.6
G1 Z.2
G1 E3 F2400
G1 F3000
G1 X89.986 Y120.513 E.01232
G1 X90.407 Y120.525 E.01226
G1 X90.827 Y120.637 E.01266
G1 X91.006 Y120.723 E.00577
G1 X91.398 Y121.012 E.01418
G1 X91.54 Y121.166 E.0061
;WIDTH:0.439924
G1 X91.64 Y121.316 E.00583
;WIDTH:0.479849
G1 X91.74 Y121.466 E.00642
;WIDTH:0.519774
G1 X91.84 Y121.616 E.007
;WIDTH:0.559699
G1 X91.941 Y121.766 E.00759
G1 X92 Y122.335 E.02412
;WIDTH:0.518336
G1 X91.936 Y122.535 E.0081
;WIDTH:0.478891
G1 X91.873 Y122.734 E.00743
;WIDTH:0.439445
G1 X91.81 Y122.933 E.00676
;WIDTH:0.399999
G1 X91.722 Y123.123 E.00608
G1 X91.435 Y123.514 E.01413
G1 X91.281 Y123.656 E.00609
G1 X90.866 Y123.907 E.01412
G1 X90.67 Y123.979 E.00608
G1 X90.148 Y124.058 E.01534
G1 X89.51 Y123.928 E.01895
G1 X89.321 Y123.84 E.00608
G1 X88.815 Y123.438 E.0188
G1 X88.58 Y123.078 E.01249
G1 X88.413 Y122.537 E.01649
;WIDTH:0.38921
G1 X88.432 Y121.928 E.01718
;WIDTH:0.396871
G1 X88.482 Y121.727 E.00599
;WIDTH:0.399999
G1 X88.694 Y121.291 E.01412
G1 X88.821 Y121.124 E.0061
G1 X89.187 Y120.802 E.01418
G1 X89.368 Y120.698 E.00608
G1 X89.542 Y120.646 E.00528
G1 X89.68 Y120.998 F9600
;TYPE:Outer wall
G1 F3000
G1 X89.948 Y120.9 E.0083
G1 X90.309 Y120.891 E.01052
G1 X90.782 Y121.028 E.01432
G1 X91.216 Y121.362 E.01594
G1 X91.487 Y121.835 E.01587
G1 X91.562 Y122.335 E.01473
G1 X91.442 Y122.844 E.01519
G1 X91.129 Y123.291 E.01588
G1 X90.669 Y123.584 E.01587
G1 X90.132 Y123.679 E.01587
G1 X89.6 Y123.561 E.01587
G1 X89.153 Y123.248 E.01587
G1 X88.939 Y122.956 E.01054
G1 X88.776 Y122.473 E.01483
G1 X88.804 Y121.952 E.01519
G1 X89.034 Y121.457 E.01587
G1 X89.437 Y121.087 E.01594
G1 X89.642 Y121.012 E.00635
G1 E-2.2 F2400
;WIPE_START
G1 F3000
G1 X89.948 Y120.9 E-.26019
G1 X90.309 Y120.891 E-.28926
G1 X90.61 Y120.978 E-.25055
;WIPE_END
G1 Z.6 F9600
G1 X88.448 Y133.531 Z.6
G1 Z.2
G1 E3 F2400
;TYPE:Inner wall
G1 F3000
G1 X88.736 Y133.857 E.01265
G1 X89.012 Y134.068 E.01011
G1 X89.449 Y134.284 E.01418
G1 X89.708 Y134.365 E.00792
G1 X90.175 Y134.414 E.01364
G1 X90.724 Y134.332 E.01616
G1 X91.051 Y134.213 E.01013
G1 X91.466 Y133.961 E.01412
G1 X91.723 Y133.726 E.01015
G1 X92.01 Y133.334 E.01413
G1 X92.177 Y132.936 E.01257
G1 X92.177 Y138.146 E.1516
G1 X88.448 Y138.146 E.1085
G1 X88.448 Y133.571 E.13312
G1 E-2.2 F2400
;WIPE_START
G1 F3000
G1 X88.736 Y133.857 E-.32458
G1 X89.012 Y134.068 E-.27805
G1 X89.233 Y134.177 E-.19737
;WIPE_END
G1 Z.6 F9600
G1 X89.546 Y130.644 Z.6
G1 Z.2
G1 E3 F2400
G1 F3000
G1 X89.986 Y130.513 E.01334
G1 X90.407 Y130.525 E.01226
G1 X90.827 Y130.637 E.01265
G1 X91.006 Y130.723 E.00577
