; HEADER_BLOCK_START
; generated by OrcaSlicer 2.3.2 on 2026-05-18 at 13:05:04
; total layer number: 140
; filament_density: 1.24
; filament_diameter: 1.75
; max_z_height: 28.00
; filament: 1
; HEADER_BLOCK_END

; THUMBNAIL_BLOCK_START

;
; THUMBNAIL_BLOCK_END

; THUMBNAIL_BLOCK_START

;
; THUMBNAIL_BLOCK_END

; external perimeters extrusion width = 0.40mm
; perimeters extrusion width = 0.40mm
; infill extrusion width = 0.40mm
; solid infill extrusion width = 0.40mm
; top infill extrusion width = 0.40mm
; support material extrusion width = 0.40mm
; first layer extrusion width = 0.40mm

; EXECUTABLE_BLOCK_START
M73 P0 R73
M201 X1000 Y1000 Z200 E5000
M203 X200 Y200 Z10 E60
M204 P1250 R1250 T1250
M205 X8.00 Y8.00 Z0.40 E5.00 ; sets the jerk limits, mm/sec
M190 S45 ; set bed temperature and wait for it to be reached
M104 S220 ; set nozzle temperature
;TYPE:Custom
G21 ;metric values
G90 ;absolute positioning
M82 ;set extruder to absolute mode
M107 ;start with the fan off
G28 X0 Y0 ;move X/Y to min endstops
G28 Z0 ;move Z to min endstops
G0 Z0.2 F1800 ; move nozzle to print position
G92 E0 ; specify current extruder position as zero
G1 Y10 X180 E50 F1200 ; extrude a line in front of the printer
G92 E0 ; specify current extruder position as zero
G0 Z20 F6000 ; move head up
G1 E-7 F2400 ; retract
G04 S2 ; wait 2s
G0 X0 F6000 ; wipe from oozed filament
G1 E-1 F2400 ; undo some of the retraction to avoid oozing
G1 F6000 ; set travel speed to move to start printing point
M117
G90
G21
M83 ; use relative distances for extrusion
; filament start gcode
M106 S0
;LAYER_CHANGE
;Z:0.2
;HEIGHT:0.2
;BEFORE_LAYER_CHANGE 
G92 E0.0 
;0.2
G1 E-3 F2400
;AFTER_LAYER_CHANGE
;0.2
;_SET_FAN_SPEED_CHANGING_LAYER
M204 S1000
G1 Z.6 F9600
G1 X96.796 Y105.636
G1 Z.6
G1 Z.2
G1 E3 F2400
;TYPE:Skirt
;WIDTH:0.4
G1 F3000
G1 X98.63 Y105.443 E.05366
G1 X158.927 Y105.449 E1.75448
G1 X161.007 Y105.641 E.06078
G1 X161.978 Y105.862 E.02897
G1 X163.96 Y106.596 E.06151
G1 X165.779 Y107.673 E.06151
G1 X167.376 Y109.057 E.06151
G1 X168.115 Y109.9 E.0326
G1 X169.277 Y111.665 E.06151
G1 X170.105 Y113.61 E.06151
G1 X170.459 Y114.922 E.03954
G1 X171.868 Y121.453 E.1944
G1 X172.047 Y123.118 E.04873
G1 X172.009 Y144.671 E.62714
G1 X171.661 Y146.344 E.04972
G1 X171.421 Y146.985 E.01992
G1 X170.889 Y148.019 E.03383
G1 X169.796 Y149.418 E.05165
G1 X169.03 Y150.101 E.02988
G1 X168.355 Y150.574 E.02398
G1 X167.327 Y151.116 E.0338
G1 X166.296 Y151.48 E.03183
G1 X165.087 Y151.716 E.03583
G1 X164.197 Y151.767 E.02595
G1 X93.124 Y151.761 E2.06804
G1 X91.9 Y151.623 E.03585
G1 X90.907 Y151.362 E.02988
G1 X89.835 Y150.911 E.03383
G1 X89.239 Y150.574 E.01991
G1 X88.406 Y149.974 E.02988
G1 X87.798 Y149.418 E.02397
G1 X87.213 Y148.75 E.02584
G1 X86.635 Y147.902 E.02987
G1 X86.173 Y146.986 E.02987
G1 X85.834 Y146.017 E.02987
G1 X85.625 Y145.011 E.02988
G1 X85.553 Y144.19 E.02398
G1 X85.549 Y123.047 E.6152
G1 X85.656 Y121.824 E.03573
G1 X87.459 Y114.297 E.2252
G1 X88.027 Y112.65 E.05069
G1 X88.511 Y111.64 E.0326
G1 X89.021 Y110.785 E.02897
G1 X90.332 Y109.127 E.06151
G1 X91.918 Y107.73 E.06151
G1 X92.852 Y107.111 E.0326
G1 X93.728 Y106.638 E.02897
G1 X95.704 Y105.887 E.06151
G1 X96.757 Y105.645 E.03144
G1 X96.837 Y105.992 F9600
G1 F3000
G1 X96.845 Y105.99 E.00023
G1 X98.63 Y105.801 E.05225
G1 X158.911 Y105.806 E1.75401
G1 X160.928 Y105.99 E.05894
G1 X161.899 Y106.21 E.02897
G1 X163.82 Y106.925 E.05965
G1 X165.582 Y107.971 E.05965
G1 X167.13 Y109.316 E.05965
G1 X167.826 Y110.11 E.03074
G1 X168.955 Y111.821 E.05965
G1 X169.761 Y113.706 E.05964
G1 X170.11 Y114.997 E.03893
G1 X171.519 Y121.528 E.1944
G1 X171.689 Y123.118 E.04653
G1 X171.653 Y144.64 E.62624
G1 X171.32 Y146.237 E.04746
G1 X170.584 Y147.834 E.05118
G1 X169.543 Y149.165 E.04916
G1 X168.813 Y149.818 E.02852
G1 X168.163 Y150.273 E.02307
G1 X167.183 Y150.789 E.03222
G1 X166.203 Y151.135 E.03025
G1 X165.048 Y151.361 E.03425
G1 X164.197 Y151.41 E.02481
G1 X93.14 Y151.405 E2.06758
G1 X91.97 Y151.273 E.03426
G1 X91.022 Y151.023 E.02852
G1 X89.431 Y150.273 E.05117
G1 X88.635 Y149.701 E.02852
G1 X88.051 Y149.166 E.02306
G1 X87.496 Y148.533 E.02448
G1 X86.944 Y147.723 E.02851
G1 X86.503 Y146.849 E.02851
G1 X86.179 Y145.924 E.02851
G1 X85.979 Y144.964 E.02852
G1 X85.91 Y144.174 E.02308
G1 X85.906 Y123.047 E.61475
G1 X86.007 Y121.886 E.03392
G1 X87.806 Y114.382 E.22454
G1 X88.361 Y112.775 E.04945
G1 X88.818 Y111.823 E.03074
G1 X89.327 Y110.968 E.02897
G1 X90.601 Y109.361 E.05965
G1 X92.141 Y108.009 E.05964
G1 X93.022 Y107.425 E.03074
G1 X93.898 Y106.952 E.02897
G1 X95.815 Y106.227 E.05964
G1 X96.798 Y106.001 E.02934
G1 X96.877 Y106.347 F9600
G1 F3000
G1 X96.893 Y106.344 E.00047
G1 X98.63 Y106.158 E.05084
G1 X158.895 Y106.163 E1.75354
G1 X160.849 Y106.338 E.05709
G1 X161.82 Y106.558 E.02897
G1 X163.68 Y107.253 E.05778
G1 X165.386 Y108.269 E.05778
G1 X166.883 Y109.574 E.05778
G1 X167.537 Y110.32 E.02888
G1 X168.634 Y111.976 E.05779
G1 X169.417 Y113.801 E.05778
G1 X169.76 Y115.073 E.03833
G1 X171.202 Y121.76 E.19905
G1 X171.332 Y123.118 E.03969
G1 X171.298 Y144.609 E.62533
G1 X171.136 Y145.58 E.02864
G1 X170.815 Y146.583 E.03065
G1 X170.081 Y147.952 E.04521
G1 X169.617 Y148.557 E.02216
G1 X168.929 Y149.258 E.0286
G1 X167.553 Y150.213 E.04872
G1 X165.976 Y150.826 E.04924
G1 X165.009 Y151.006 E.02861
G1 X164.197 Y151.053 E.02368
G1 X93.155 Y151.048 E2.06713
G1 X92.039 Y150.922 E.03268
M73 P0 R72
G1 X91.136 Y150.685 E.02716
G1 X89.623 Y149.972 E.04869
G1 X88.303 Y148.913 E.04923
G1 X87.694 Y148.205 E.02717
G1 X87.184 Y147.424 E.02715
G1 X86.779 Y146.583 E.02714
G1 X86.524 Y145.832 E.0231
G1 X86.266 Y144.159 E.04925
G1 X86.263 Y123.047 E.61429
G1 X86.359 Y121.948 E.03211
G1 X88.153 Y114.466 E.22388
G1 X88.696 Y112.9 E.04821
G1 X89.125 Y112.006 E.02888
G1 X89.634 Y111.15 E.02897
G1 X90.87 Y109.596 E.05778
G1 X92.364 Y108.287 E.05778
G1 X93.192 Y107.739 E.02888
G1 X94.067 Y107.266 E.02897
G1 X95.926 Y106.566 E.05778
G1 X96.838 Y106.356 E.02725
G1 X96.918 Y106.703 F9600
G1 F3000
G1 X96.941 Y106.698 E.0007
G1 X98.63 Y106.515 E.04943
G1 X158.879 Y106.519 E1.75308
G1 X160.77 Y106.686 E.05524
G1 X161.741 Y106.906 E.02897
G1 X163.54 Y107.582 E.05592
G1 X165.19 Y108.568 E.05592
G1 X166.637 Y109.832 E.05592
G1 X167.249 Y110.531 E.02701
G1 X168.312 Y112.132 E.05592
G1 X169.073 Y113.897 E.05592
G1 X169.411 Y115.148 E.03773
G1 X170.852 Y121.83 E.19888
G1 X170.975 Y123.118 E.03766
G1 X170.942 Y144.578 E.62443
G1 X170.789 Y145.495 E.02706
G1 X170.485 Y146.446 E.02906
G1 X169.788 Y147.748 E.04294
G1 X168.693 Y148.99 E.04819
G1 X167.388 Y149.896 E.04623
G1 X165.884 Y150.482 E.04698
G1 X164.97 Y150.651 E.02703
G1 X164.197 Y150.696 E.02255
G1 X93.171 Y150.691 E2.06667
G1 X92.109 Y150.572 E.03109
G1 X91.251 Y150.347 E.0258
G1 X89.815 Y149.671 E.0462
G1 X88.556 Y148.661 E.04697
G1 X87.978 Y147.988 E.02581
G1 X87.493 Y147.245 E.02579
G1 X86.869 Y145.739 E.04744
G1 X86.623 Y144.143 E.04699
G1 X86.62 Y123.047 E.61384
G1 X86.711 Y122.01 E.0303
G1 X88.5 Y114.55 E.22322
G1 X89.03 Y113.025 E.04696
G1 X89.941 Y111.333 E.05592
G1 X90.486 Y110.581 E.02701
G1 X91.81 Y109.188 E.05592
G1 X93.361 Y108.054 E.05592
G1 X94.237 Y107.581 E.02897
G1 X96.037 Y106.906 E.05592
G1 X96.879 Y106.712 E.02515
; printing object seg4b.stl id:4919414379270591557 copy 0
G1 E-2.2 F2400
;WIPE_START
G1 F3000
G1 X96.941 Y106.698 E-.05118
G1 X97.872 Y106.597 E-.74882
;WIPE_END
G1 Z.6 F9600
G1 X98.987 Y111.887 Z.6
G1 Z.2
G1 E3 F2400
;TYPE:Support
G1 F3000
G1 X98.646 Y111.871 E.00992
G1 X97.692 Y112.001 E.02803
G1 X96.775 Y112.298 E.02803
G1 X95.927 Y112.755 E.02803
G1 X95.174 Y113.356 E.02803
G1 X94.54 Y114.081 E.02803
G1 X94.046 Y114.908 E.02803
G1 X93.707 Y115.81 E.02803
G1 X93.535 Y116.758 E.02803
G1 X93.535 Y117.722 E.02803
G1 X93.707 Y118.67 E.02803
G1 X94.046 Y119.572 E.02803
G1 X94.54 Y120.399 E.02803
G1 X95.168 Y121.117 E.02777
G1 X102.577 Y121.118 E.2156
G1 X102.934 Y120.776 E.01439
G1 X103.501 Y119.996 E.02803
G1 X103.919 Y119.128 E.02803
G1 X104.175 Y118.2 E.02803
G1 X104.261 Y117.24 E.02803
G1 X104.175 Y116.28 E.02803
G1 X103.919 Y115.352 E.02803
G1 X103.501 Y114.484 E.02803
G1 X102.934 Y113.704 E.02803
G1 X102.238 Y113.038 E.02803
G1 X101.434 Y112.508 E.02803
G1 X100.548 Y112.129 E.02803
G1 X99.609 Y111.915 E.02803
G1 X99.04 Y111.889 E.01655
G1 X103.801 Y118.95 F9600
G1 F3000
G1 X103.801 Y116.134 E.08195
G1 X103.617 Y115.465 E.02018
G1 X103.404 Y115.024 E.01423
G1 X103.404 Y119.456 E.12894
G1 X103.224 Y119.831 E.01212
G1 X103.008 Y120.128 E.01069
G1 X103.008 Y114.352 E.16808
G1 X102.691 Y113.917 E.01566
G1 X102.611 Y113.84 E.00324
G1 X102.611 Y120.64 E.19789
G1 X102.448 Y120.796 E.00656
G1 X102.214 Y120.796 E.0068
G1 X102.214 Y113.46 E.21346
G1 X102.037 Y113.291 E.00714
G1 X101.817 Y113.146 E.00765
G1 X101.817 Y120.796 E.22261
G1 X101.421 Y120.796 E.01154
G1 X101.421 Y112.884 E.23023
G1 X101.281 Y112.792 E.00487
G1 X101.024 Y112.682 E.00814
G1 X101.024 Y120.796 E.23611
G1 X100.627 Y120.796 E.01154
G1 X100.627 Y112.512 E.24104
G1 X100.448 Y112.436 E.00566
G1 X100.23 Y112.386 E.0065
G1 X100.23 Y120.796 E.24471
G1 X99.834 Y120.796 E.01154
G1 X99.834 Y112.296 E.24735
G1 X99.565 Y112.234 E.00801
G1 X99.437 Y112.229 E.00374
G1 X99.437 Y120.796 E.2493
G1 X99.04 Y120.796 E.01154
G1 X99.04 Y112.211 E.24981
G1 X98.661 Y112.194 E.01105
G1 X98.643 Y112.196 E.00051
G1 X98.643 Y120.796 E.25024
G1 X98.247 Y120.796 E.01154
G1 X98.247 Y112.25 E.24868
G1 X97.85 Y112.304 E.01165
G1 X97.85 Y120.796 E.24711
G1 X97.453 Y120.796 E.01154
G1 X97.453 Y112.416 E.24384
G1 X97.056 Y112.545 E.01214
G1 X97.056 Y120.796 E.24009
G1 X96.66 Y120.796 E.01154
G1 X96.66 Y112.726 E.23483
G1 X96.263 Y112.939 E.01311
G1 X96.263 Y120.796 E.22862
G1 X95.866 Y120.796 E.01154
G1 X95.866 Y113.214 E.22061
G1 X95.469 Y113.531 E.01477
G1 X95.469 Y120.796 E.2114
G1 X95.314 Y120.796 E.00454
G1 X95.073 Y120.52 E.01065
G1 X95.073 Y113.96 E.1909
G1 X94.801 Y114.271 E.01202
G1 X94.676 Y114.48 E.00708
G1 X94.676 Y120 E.16063
G1 X94.336 Y119.432 E.01927
G1 X94.279 Y119.28 E.00473
G1 X94.279 Y115.2 E.11869
G1 X94.018 Y115.896 E.02162
G1 X93.882 Y116.644 E.02211
G1 X93.882 Y118.68 E.05924
;WIPE_START
;WIPE_END
G1 E-3 F2400
G1 Z.6 F9600
G1 X154.189 Y114.983 Z.6
G1 Z.2
G1 E3 F2400
G1 F3000
G1 X154.189 Y119.04 E.11804
G1 X154.336 Y119.432 E.01218
G1 X154.586 Y119.85 E.01416
G1 X154.586 Y114.63 E.15186
G1 X154.801 Y114.271 E.01219
M73 P1 R72
G1 X154.983 Y114.063 E.00805
G1 X154.983 Y120.417 E.18491
G1 X155.315 Y120.797 E.01468
G1 X155.379 Y120.797 E.00188
G1 X155.379 Y113.609 E.20918
G1 X155.776 Y113.286 E.01487
G1 X155.776 Y120.797 E.21856
G1 X156.173 Y120.797 E.01154
G1 X156.173 Y112.988 E.22725
G1 X156.57 Y112.774 E.01311
G1 X156.57 Y120.797 E.23346
G1 X156.966 Y120.797 E.01154
G1 X156.966 Y112.574 E.23927
G1 X157.363 Y112.445 E.01214
G1 X157.363 Y120.797 E.24303
G1 X157.76 Y120.797 E.01154
G1 X157.76 Y112.316 E.24678
G1 X158.157 Y112.262 E.01165
G1 X158.157 Y120.797 E.24836
G1 X158.553 Y120.797 E.01154
G1 X158.553 Y112.208 E.24992
G1 X158.661 Y112.194 E.00315
G1 X158.95 Y112.207 E.00843
G1 X158.95 Y120.797 E.24997
G1 X159.347 Y120.797 E.01154
G1 X159.347 Y112.225 E.24945
G1 X159.565 Y112.234 E.00636
G1 X159.744 Y112.275 E.00532
G1 X159.744 Y120.797 E.24798
G1 X160.14 Y120.798 E.01154
G1 X160.14 Y112.366 E.24535
G1 X160.448 Y112.436 E.00919
G1 X160.537 Y112.474 E.00281
G1 X160.537 Y120.798 E.2422
G1 X160.934 Y120.798 E.01154
G1 X160.934 Y112.643 E.23726
G1 X161.281 Y112.792 E.01098
G1 X161.331 Y112.825 E.00173
G1 X161.331 Y120.798 E.23199
G1 X161.727 Y120.798 E.01154
G1 X161.727 Y113.086 E.22437
G1 X162.037 Y113.291 E.01079
G1 X162.124 Y113.374 E.00352
G1 X162.124 Y120.798 E.216
G1 X162.447 Y120.798 E.00938
G1 X162.521 Y120.727 E.00299
G1 X162.521 Y113.754 E.2029
G1 X162.691 Y113.917 E.00686
G1 X162.918 Y114.228 E.0112
G1 X162.918 Y120.252 E.17529
G1 X163.224 Y119.831 E.01515
G1 X163.314 Y119.642 E.00608
G1 X163.314 Y114.838 E.13981
G1 X163.617 Y115.465 E.02027
G1 X163.711 Y115.808 E.01034
G1 X163.711 Y119.189 E.09839
G1 X159.04 Y111.889 F9600
G1 F3000
G1 X159.609 Y111.915 E.01655
G1 X160.548 Y112.129 E.02803
G1 X161.434 Y112.508 E.02803
G1 X162.238 Y113.038 E.02803
G1 X162.934 Y113.704 E.02803
G1 X163.501 Y114.484 E.02803
G1 X163.919 Y115.352 E.02803
G1 X164.175 Y116.28 E.02803
G1 X164.261 Y117.24 E.02803
G1 X164.175 Y118.2 E.02803
G1 X163.919 Y119.128 E.02803
G1 X163.501 Y119.996 E.02803
G1 X162.934 Y120.776 E.02803
G1 X162.576 Y121.119 E.01445
G1 X155.169 Y121.119 E.21552
G1 X154.54 Y120.399 E.02782
G1 X154.046 Y119.572 E.02803
G1 X153.707 Y118.67 E.02803
G1 X153.535 Y117.722 E.02803
G1 X153.535 Y116.758 E.02803
G1 X153.707 Y115.81 E.02803
G1 X154.046 Y114.908 E.02803
G1 X154.54 Y114.081 E.02803
G1 X155.174 Y113.356 E.02803
G1 X155.927 Y112.755 E.02803
G1 X156.775 Y112.298 E.02803
G1 X157.692 Y112.001 E.02803
G1 X158.646 Y111.871 E.02803
G1 X158.987 Y111.887 E.00992
G1 E-2.2 F2400
;WIPE_START
G1 F3000
G1 X159.609 Y111.915 E-.49799
G1 X159.977 Y111.999 E-.30201
;WIPE_END
G1 Z.6 F9600
G1 X160.585 Y122.655 Z.6
G1 Z.2
G1 E3 F2400
;TYPE:Inner wall
;WIDTH:0.399999
G1 F3000
G1 X164.176 Y122.655 E.10448
G1 X164.446 Y122.74 E.00826
G1 X164.602 Y122.926 E.00706
G1 X164.661 Y123.235 E.00915
G1 X164.66 Y143.835 E.59942
G1 X164.625 Y144.062 E.00668
G1 X164.489 Y144.264 E.00709
G1 X164.253 Y144.37 E.00753
G1 X160.932 Y144.379 E.09662
G1 X160.932 Y123.275 E.61409
G1 X160.754 Y122.739 E.01643
G1 X160.621 Y122.672 E.00432
G1 E-2.2 F2400
;WIPE_START
G1 F3000
G1 X161.621 Y122.667 E-.8
;WIPE_END
G1 Z.6 F9600
G1 X144.723 Y123.088 Z.6
G1 Z.2
G1 E3 F2400
G1 F3000
G1 X144.661 Y123.275 E.00573
G1 X144.661 Y127.255 E.11583
G1 X144.393 Y126.959 E.01161
G1 X144 Y126.671 E.01418
G1 X143.703 Y126.528 E.00961
G1 X143.283 Y126.416 E.01264
G1 X142.97 Y126.39 E.00914
G1 X142.471 Y126.445 E.01459
G1 X142.21 Y126.516 E.00788
G1 X141.736 Y126.77 E.01563
G1 X141.371 Y127.09 E.01413
G1 X141.058 Y127.526 E.01562
G1 X140.932 Y127.864 E.01051
G1 X140.932 Y123.275 E.13355
G1 X140.754 Y122.739 E.01643
G1 X140.585 Y122.655 E.00549
G1 X144.977 Y122.655 E.1278
G1 X144.84 Y122.739 E.00469
G1 X144.736 Y123.05 E.00953
G1 E-2.2 F2400
;WIPE_START
G1 F3000
G1 X144.661 Y123.275 E-.1896
G1 X144.661 Y124.038 E-.6104
;WIPE_END
G1 Z.6 F9600
G1 X144.661 Y129.764 Z.6
G1 Z.2
G1 E3 F2400
G1 F3000
G1 X144.661 Y137.284 E.21882
G1 X144.505 Y137.071 E.00768
G1 X144.247 Y136.835 E.01017
G1 X143.834 Y136.585 E.01405
G1 X143.508 Y136.467 E.0101
G1 X142.862 Y136.383 E.01896
G1 X142.213 Y136.522 E.01931
G1 X141.897 Y136.669 E.01015
G1 X141.503 Y136.957 E.01418
G1 X141.267 Y137.214 E.01016
;WIDTH:0.416343
G1 X140.957 Y137.719 E.01804
G1 X140.932 Y137.12 E.01824
;WIDTH:0.399999
G1 X140.932 Y129.909 E.20982
;WIDTH:0.424915
G1 X140.981 Y129.421 E.01528
G1 X141.485 Y130.064 E.02542
;WIDTH:0.399999
G1 X141.832 Y130.33 E.01272
G1 X142.305 Y130.552 E.01522
G1 X142.916 Y130.632 E.01794
G1 X143.396 Y130.595 E.01399
G1 X143.855 Y130.44 E.0141
G1 X144.157 Y130.265 E.01015
G1 X144.524 Y129.944 E.01419
G1 X144.637 Y129.796 E.00542
G1 E-2.2 F2400
;WIPE_START
G1 F3000
G1 X144.64 Y130.796 E-.8
;WIPE_END
G1 Z.6 F9600
G1 X143.872 Y127.025 Z.6
G1 Z.2
G1 E3 F2400
G1 F3000
G1 X144.297 Y127.363 E.01582
G1 X144.531 Y127.724 E.0125
G1 X144.683 Y128.184 E.01412
;WIDTH:0.391772
G1 X144.677 Y128.873 E.01959
;WIDTH:0.397189
G1 X144.627 Y129.074 E.00598
;WIDTH:0.399999
G1 X144.415 Y129.509 E.01406
G1 X144.288 Y129.675 E.0061
G1 X143.921 Y129.997 E.01419
G1 X143.74 Y130.102 E.00609
G1 X143.281 Y130.257 E.0141
G1 X142.939 Y130.276 E.00996
G1 X142.434 Y130.219 E.0148
G1 X142.049 Y130.047 E.01227
G1 X141.702 Y129.78 E.01272
;WIDTH:0.424915
G1 X141.308 Y129.223 E.02123
;WIDTH:0.470373
G1 X141.262 Y129.165 E.0026
;WIDTH:0.51583
G1 X141.216 Y129.106 E.00288
;WIDTH:0.561287
G1 X141.17 Y129.047 E.00316
G1 X141.11 Y128.463 E.02478
;WIDTH:0.530488
G1 X141.121 Y128.32 E.0057
G1 X141.202 Y128.117 E.00867
;WIDTH:0.486992
G1 X141.283 Y127.914 E.0079
;WIDTH:0.443496
G1 X141.363 Y127.711 E.00713
;WIDTH:0.399999
G1 X141.607 Y127.358 E.01248
G1 X142.109 Y126.951 E.01881
G1 X142.511 Y126.8 E.01249
G1 X143.003 Y126.745 E.0144
