; HEADER_BLOCK_START
; generated by OrcaSlicer 2.3.2 on 2026-05-19 at 10:57:35
; total layer number: 40
; filament_density: 1.24
; filament_diameter: 1.75
; max_z_height: 8.00
; filament: 1
; HEADER_BLOCK_END

; THUMBNAIL_BLOCK_START

;
; THUMBNAIL_BLOCK_END

; THUMBNAIL_BLOCK_START

;
; THUMBNAIL_BLOCK_END

; external perimeters extrusion width = 0.40mm
; perimeters extrusion width = 0.40mm
; infill extrusion width = 0.40mm
; solid infill extrusion width = 0.40mm
; top infill extrusion width = 0.40mm
; support material extrusion width = 0.40mm
; first layer extrusion width = 0.40mm

; external perimeters extrusion width = 0.40mm
; perimeters extrusion width = 0.40mm
; infill extrusion width = 0.40mm
; solid infill extrusion width = 0.40mm
; top infill extrusion width = 0.40mm
; support material extrusion width = 0.40mm
; first layer extrusion width = 0.40mm

; external perimeters extrusion width = 0.40mm
; perimeters extrusion width = 0.40mm
; infill extrusion width = 0.40mm
; solid infill extrusion width = 0.40mm
; top infill extrusion width = 0.40mm
; support material extrusion width = 0.40mm
; first layer extrusion width = 0.40mm

; EXECUTABLE_BLOCK_START
M73 P0 R85
M201 X1000 Y1000 Z200 E5000
M203 X200 Y200 Z10 E60
M204 P1250 R1250 T1250
M205 X8.00 Y8.00 Z0.40 E5.00 ; sets the jerk limits, mm/sec
M190 S60 ; set bed temperature and wait for it to be reached
M104 S220 ; set nozzle temperature
;TYPE:Custom
G21 ;metric values
G90 ;absolute positioning
M82 ;set extruder to absolute mode
M107 ;start with the fan off
G28 X0 Y0 ;move X/Y to min endstops
G28 Z0 ;move Z to min endstops
G0 Z0.2 F1800 ; move nozzle to print position
G92 E0 ; specify current extruder position as zero
G1 Y10 X180 E50 F1200 ; extrude a line in front of the printer
G92 E0 ; specify current extruder position as zero
G0 Z20 F6000 ; move head up
M73 P0 R84
G1 E-7 F2400 ; retract
G04 S2 ; wait 2s
G0 X0 F6000 ; wipe from oozed filament
G1 E-1 F2400 ; undo some of the retraction to avoid oozing
G1 F6000 ; set travel speed to move to start printing point
M117
G90
G21
M83 ; use relative distances for extrusion
; filament start gcode
M106 S0
;LAYER_CHANGE
;Z:0.2
;HEIGHT:0.2
;BEFORE_LAYER_CHANGE 
G92 E0.0 
;0.2
G1 E-3 F2400
;AFTER_LAYER_CHANGE
;0.2
;_SET_FAN_SPEED_CHANGING_LAYER
M204 S1000
G1 Z.6 F9600
G1 X64.915 Y70.232
G1 Z.6
G1 Z.2
G1 E3 F2400
;TYPE:Skirt
;WIDTH:0.4
G1 F3000
G1 X65.825 Y68.632 E.05357
G1 X67.799 Y66.318 E.0885
G1 X69.604 Y64.606 E.07239
G1 X71.126 Y63.389 E.05671
G1 X72.248 Y62.603 E.03985
G1 X74.888 Y61.068 E.08886
G1 X76.126 Y60.481 E.03985
G1 X77.936 Y59.759 E.05671
G1 X80.304 Y59.04 E.07202
G1 X83.303 Y58.464 E.08886
G1 X84.665 Y58.32 E.03985
G1 X86.744 Y58.236 E.06054
G1 X150.881 Y58.238 E1.86621
G1 X153.168 Y58.35 E.06663
G1 X155.168 Y58.613 E.0587
G1 X157.406 Y59.097 E.06663
G1 X159.594 Y59.774 E.06663
G1 X161.714 Y60.639 E.06663
G1 X162.985 Y61.267 E.04126
G1 X164.963 Y62.422 E.06663
G1 X166.615 Y63.579 E.0587
G1 X168.377 Y65.042 E.06663
G1 X169.401 Y66.022 E.04126
G1 X170.764 Y67.51 E.0587
G1 X172.167 Y69.319 E.06663
G1 X173.408 Y71.244 E.06663
G1 X174.476 Y73.27 E.06663
G1 X175.047 Y74.567 E.04126
G1 X175.819 Y76.723 E.06663
G1 X176.341 Y78.672 E.0587
G1 X176.75 Y80.925 E.06663
G1 X176.905 Y82.334 E.04125
G1 X176.994 Y84.553 E.06461
G1 X176.443 Y135.252 E1.47529
G1 X176.35 Y136.666 E.04125
G1 X176.087 Y138.666 E.0587
G1 X175.532 Y141.168 E.07456
G1 X174.516 Y144.162 E.09199
G1 X173.499 Y146.36 E.07049
G1 X146.632 Y198.046 E1.69499
G1 X145.378 Y200.036 E.06843
G1 X143.98 Y201.63 E.0617
G1 X142.275 Y203.063 E.06481
G1 X141.233 Y203.741 E.03617
G1 X140.136 Y204.326 E.03617
G1 X138.992 Y204.812 E.03617
G1 X137.816 Y205.196 E.03598
G1 X136.599 Y205.478 E.03636
G1 X135.377 Y205.651 E.03591
G1 X133.991 Y205.72 E.04039
G1 X113.854 Y205.718 E.58592
G1 X112.011 Y205.58 E.05379
G1 X110.171 Y205.197 E.05468
G1 X108.093 Y204.441 E.06436
G1 X106.22 Y203.414 E.06215
G1 X104.465 Y202.067 E.06436
G1 X102.988 Y200.524 E.06215
G1 X65.207 Y149.984 E1.83608
G1 X64.213 Y147.99 E.0648
G1 X63.964 Y146.243 E.05137
G1 X63.964 Y122.176 E.70028
G1 X64.495 Y72.419 E1.44787
G1 X64.907 Y70.272 E.06364
G1 X65.263 Y70.342 F9600
G1 F3000
G1 X65.271 Y70.302 E.00118
G1 X66.106 Y68.852 E.04869
G1 X68.242 Y66.374 E.0952
G1 X69.646 Y65.044 E.05627
G1 X70.674 Y64.185 E.03898
G1 X73.151 Y62.45 E.08799
G1 X75.276 Y61.273 E.07071
G1 X78.061 Y60.094 E.08799
G1 X80.386 Y59.387 E.07071
G1 X83.356 Y58.817 E.08799
G1 X84.688 Y58.676 E.03898
G1 X86.744 Y58.593 E.05988
G1 X150.873 Y58.595 E1.86598
G1 X153.129 Y58.705 E.06572
G1 X155.114 Y58.966 E.05825
G1 X157.321 Y59.444 E.06572
G1 X159.479 Y60.112 E.06572
G1 X161.57 Y60.966 E.06572
G1 X162.814 Y61.58 E.04035
G1 X164.547 Y62.581 E.05825
G1 X166.404 Y63.867 E.06572
G1 X168.141 Y65.31 E.06572
G1 X169.143 Y66.269 E.04035
G1 X170.661 Y67.942 E.06572
G1 X172.027 Y69.741 E.06572
G1 X173.103 Y71.429 E.05825
G1 X174.155 Y73.427 E.06573
G1 X174.714 Y74.697 E.04035
G1 X175.476 Y76.823 E.06572
G1 X176.05 Y79.008 E.06572
G1 X176.397 Y80.979 E.05825
G1 X176.548 Y82.358 E.04035
G1 X176.637 Y84.549 E.06381
G1 X176.086 Y135.244 E1.47518
G1 X175.995 Y136.627 E.04035
G1 X175.734 Y138.612 E.05825
G1 X175.19 Y141.068 E.0732
G1 X174.183 Y144.032 E.09108
G1 X173.182 Y146.196 E.06936
G1 X146.315 Y197.882 E1.69499
G1 X145.09 Y199.824 E.06684
G1 X143.733 Y201.373 E.0599
G1 X142.064 Y202.775 E.06344
G1 X141.048 Y203.436 E.03526
G1 X139.978 Y204.005 E.03526
G1 X138.862 Y204.479 E.03526
G1 X137.716 Y204.853 E.03508
G1 X136.529 Y205.128 E.03545
G1 X135.338 Y205.296 E.03501
G1 X133.991 Y205.363 E.03926
G1 X113.862 Y205.361 E.58569
G1 X112.065 Y205.227 E.05244
G1 X110.271 Y204.855 E.05331
G1 X108.236 Y204.114 E.063
G1 X107.156 Y203.564 E.03526
G1 X106.128 Y202.923 E.03526
G1 X104.511 Y201.625 E.06034
G1 X103.048 Y200.028 E.06301
G1 X65.493 Y149.77 E1.82557
G1 X64.539 Y147.83 E.06291
G1 X64.321 Y146.243 E.04661
G1 X64.321 Y122.18 E.70017
G1 X64.852 Y72.423 E1.44787
G1 X65.256 Y70.381 E.06057
G1 X65.611 Y70.454 F9600
G1 F3000
G1 X65.627 Y70.374 E.00236
G1 X66.387 Y69.072 E.04387
G1 X66.907 Y68.409 E.02453
G1 X69.093 Y66.035 E.09389
G1 X70.891 Y64.469 E.0694
G1 X73.343 Y62.751 E.08711
G1 X75.429 Y61.595 E.0694
G1 X78.186 Y60.428 E.08711
G1 X80.468 Y59.735 E.0694
G1 X83.408 Y59.17 E.08711
G1 X84.711 Y59.033 E.0381
G1 X86.744 Y58.951 E.05922
G1 X150.865 Y58.952 E1.86575
G1 X153.09 Y59.06 E.06482
G1 X155.059 Y59.319 E.0578
G1 X157.236 Y59.791 E.06482
G1 X159.364 Y60.45 E.06482
G1 X161.426 Y61.293 E.06482
G1 X162.642 Y61.893 E.03944
G1 X164.362 Y62.886 E.0578
G1 X166.193 Y64.155 E.06482
G1 X167.906 Y65.579 E.06482
G1 X168.885 Y66.516 E.03944
G1 X170.382 Y68.166 E.06482
G1 X171.73 Y69.939 E.06482
G1 X172.918 Y71.824 E.06482
G1 X173.835 Y73.585 E.0578
G1 X174.381 Y74.826 E.03944
G1 X175.133 Y76.923 E.06482
G1 X175.647 Y78.842 E.0578
G1 X176.044 Y81.034 E.06482
G1 X176.192 Y82.381 E.03944
G1 X176.28 Y84.545 E.06302
G1 X175.729 Y135.236 E1.47506
G1 X175.64 Y136.589 E.03944
G1 X175.381 Y138.558 E.0578
G1 X174.847 Y140.968 E.07184
G1 X173.851 Y143.903 E.09017
G1 X172.866 Y146.031 E.06823
G1 X145.998 Y197.717 E1.69499
G1 X144.802 Y199.613 E.06525
G1 X143.486 Y201.115 E.0581
G1 X141.852 Y202.487 E.06207
G1 X140.862 Y203.131 E.03436
G1 X139.82 Y203.685 E.03436
G1 X138.733 Y204.147 E.03436
G1 X137.616 Y204.51 E.03418
G1 X136.46 Y204.778 E.03453
G1 X135.299 Y204.941 E.0341
G1 X133.991 Y205.006 E.03812
G1 X113.87 Y205.004 E.58546
G1 X112.119 Y204.874 E.05109
G1 X110.371 Y204.512 E.05194
G1 X109.248 Y204.147 E.03436
G1 X108.161 Y203.685 E.03436
G1 X106.327 Y202.626 E.06165
G1 X104.758 Y201.367 E.05853
G1 X103.327 Y199.805 E.06165
G1 X65.779 Y149.556 E1.82521
G1 X64.866 Y147.671 E.06096
G1 X64.678 Y146.243 E.04191
G1 X64.678 Y122.184 E.70006
G1 X65.209 Y72.427 E1.44787
G1 X65.603 Y70.493 E.05744
G1 X65.958 Y70.568 F9600
G1 F3000
G1 X65.983 Y70.449 E.00354
G1 X66.668 Y69.292 E.0391
G1 X67.188 Y68.629 E.02453
G1 X69.344 Y66.289 E.09258
G1 X71.108 Y64.752 E.06808
G1 X73.535 Y63.052 E.08624
G1 X75.582 Y61.918 E.06809
G1 X78.312 Y60.763 E.08624
G1 X80.55 Y60.082 E.06808
G1 X83.461 Y59.524 E.08624
G1 X84.733 Y59.389 E.03723
G1 X86.744 Y59.308 E.05857
G1 X150.857 Y59.309 E1.86553
G1 X153.051 Y59.414 E.06391
G1 X155.228 Y59.711 E.06391
G1 X157.37 Y60.196 E.06391
G1 X159.249 Y60.789 E.05734
G1 X161.282 Y61.62 E.06391
G1 X162.47 Y62.206 E.03854
G1 X164.367 Y63.313 E.06391
G1 X165.982 Y64.443 E.05734
G1 X167.671 Y65.847 E.06391
G1 X168.627 Y66.763 E.03854
G1 X170.104 Y68.389 E.06391
G1 X171.433 Y70.138 E.06391
G1 X172.605 Y71.995 E.06391
G1 X173.61 Y73.948 E.06391
G1 X174.365 Y75.769 E.05734
G1 X175.034 Y77.861 E.06391
G1 X175.349 Y79.147 E.03854
G1 X175.691 Y81.088 E.05734
G1 X175.836 Y82.404 E.03854
G1 X175.923 Y84.541 E.06223
G1 X175.372 Y135.228 E1.47494
G1 X175.285 Y136.55 E.03854
G1 X175.028 Y138.504 E.05734
G1 X174.504 Y140.868 E.07048
G1 X173.518 Y143.773 E.08927
G1 X172.549 Y145.866 E.06711
G1 X145.682 Y197.552 E1.69499
G1 X144.514 Y199.402 E.06365
G1 X143.238 Y200.857 E.0563
G1 X141.641 Y202.199 E.0607
G1 X140.677 Y202.825 E.03345
G1 X139.662 Y203.365 E.03345
G1 X137.516 Y204.167 E.06668
G1 X136.39 Y204.427 E.03361
G1 X135.26 Y204.586 E.0332
G1 X133.991 Y204.648 E.03699
G1 X113.878 Y204.647 E.58524
G1 X112.173 Y204.521 E.04974
G1 X110.471 Y204.169 E.05057
G1 X109.378 Y203.814 E.03345
G1 X108.319 Y203.365 E.03345
G1 X106.525 Y202.329 E.06029
G1 X105.005 Y201.109 E.05671
G1 X103.605 Y199.581 E.06029
G1 X66.065 Y149.342 E1.82485
G1 X65.194 Y147.514 E.05894
G1 X65.035 Y146.243 E.03727
G1 X65.035 Y122.188 E.69995
G1 X65.566 Y72.431 E1.44787
G1 X65.95 Y70.607 E.05424
M73 P1 R84
; printing object seg4a.stl id:1299729 copy 0
G1 E-2.2 F2400
;WIPE_START
G1 F3000
G1 X65.983 Y70.449 E-.1292
G1 X66.41 Y69.727 E-.6708
;WIPE_END
G1 Z.6 F9600
G1 X88.394 Y103.223 Z.6
G1 Z.2
G1 E3 F2400
;TYPE:Inner wall
;WIDTH:0.65447
G1 F3000
G1 X88.319 Y103.247 E.00393
;WIDTH:0.606506
G1 X88.244 Y103.271 E.00362
;WIDTH:0.558542
G1 X88.169 Y103.295 E.00331
;WIDTH:0.510578
G1 X88.094 Y103.319 E.003
;WIDTH:0.462614
G1 X88.019 Y103.343 E.00269
;WIDTH:0.414649
G1 X87.809 Y103.351 E.00636
;WIDTH:0.399999
G1 X85.949 Y103.334 E.05411
G1 X85.156 Y103.283 E.02313
G1 X84.365 Y103.2 E.02314
G1 X83.579 Y103.083 E.02313
G1 X82.838 Y102.941 E.02194
G1 X82.023 Y102.75 E.02436
G1 X81.259 Y102.535 E.0231
G1 X80.503 Y102.288 E.02313
G1 X79.759 Y102.009 E.02314
G1 X79.064 Y101.715 E.02194
G1 X78.307 Y101.358 E.02436
G1 X77.605 Y100.988 E.0231
G1 X76.917 Y100.588 E.02313
G1 X76.248 Y100.16 E.02313
G1 X75.63 Y99.727 E.02194
G1 X74.964 Y99.22 E.02436
G1 X74.355 Y98.711 E.0231
G1 X73.767 Y98.177 E.02309
G1 X73.221 Y97.634 E.0224
G1 X73.244 Y97.621 E.00076
G1 X88.015 Y97.622 E.42981
;WIDTH:0.441747
G1 X88.079 Y97.644 E.0022
;WIDTH:0.483495
G1 X88.143 Y97.667 E.00243
;WIDTH:0.525243
G1 X88.206 Y97.69 E.00266
;WIDTH:0.566991
G1 X88.27 Y97.712 E.00289
;WIDTH:0.608739
G1 X88.334 Y97.735 E.00312
;WIDTH:0.650486
G1 X88.398 Y97.758 E.00335
;WIDTH:0.636487
G1 X88.238 Y97.829 E.00848
;WIDTH:0.58919
G1 X88.077 Y97.901 E.00781
;WIDTH:0.541892
G1 X87.917 Y97.972 E.00713
;WIDTH:0.494595
G1 X87.757 Y98.044 E.00645
;WIDTH:0.447297
G1 X87.597 Y98.115 E.00578
;WIDTH:0.399999
G1 X87.126 Y98.41 E.01618
G1 X86.777 Y98.735 E.01385
G1 X86.504 Y99.101 E.0133
G1 X86.266 Y99.599 E.01608
G1 X86.132 Y100.159 E.01674
G1 X86.115 Y100.638 E.01396
G1 X86.181 Y101.09 E.01329
G1 X86.353 Y101.594 E.01549
G1 X86.657 Y102.088 E.0169
G1 X86.991 Y102.451 E.01435
G1 X87.442 Y102.774 E.01614
G1 X87.883 Y102.975 E.0141
;WIDTH:0.442411
G1 X87.968 Y103.016 E.00308
;WIDTH:0.484823
G1 X88.053 Y103.058 E.00341
;WIDTH:0.527235
G1 X88.139 Y103.099 E.00373
;WIDTH:0.569647
G1 X88.224 Y103.141 E.00406
;WIDTH:0.612059
G1 X88.309 Y103.182 E.00439
;WIDTH:0.65447
G1 X88.358 Y103.206 E.00272
G1 E-2.2 F2400
;WIPE_START
G1 F3000
G1 X88.319 Y103.247 E-.04558
G1 X88.244 Y103.271 E-.06302
G1 X88.169 Y103.295 E-.06302
G1 X88.094 Y103.319 E-.06302
G1 X88.019 Y103.343 E-.06302
G1 X87.809 Y103.351 E-.16788
G1 X87.391 Y103.347 E-.33447
;WIPE_END
G1 Z.6 F9600
G1 X150.322 Y87.073 Z.6
G1 Z.2
G1 E3 F2400
;WIDTH:0.399999
G1 F3000
G1 X149.969 Y87.002 E.01047
G1 X149.498 Y86.808 E.01483
G1 X149.08 Y86.529 E.01462
G1 X148.701 Y86.151 E.01558
G1 X148.397 Y85.685 E.01619
G1 X148.21 Y85.204 E.01501
G1 X148.123 Y84.733 E.01392
G1 X148.125 Y84.201 E.01547
G1 X148.226 Y83.707 E.01469
G1 X148.423 Y83.239 E.01477
G1 X148.736 Y82.779 E.01619
G1 X149.126 Y82.41 E.01562
G1 X149.597 Y82.115 E.01618
G1 X150.047 Y81.948 E.01397
G1 X150.558 Y81.857 E.01508
G1 X151.088 Y81.878 E.01543
G1 X151.36 Y81.933 E.00809
G1 X151.837 Y82.095 E.01466
G1 X152.36 Y82.408 E.01774
G1 X152.732 Y82.756 E.0148
G1 X153.032 Y83.184 E.01522
G1 X153.243 Y83.65 E.01487
G1 X153.358 Y84.142 E.01473
G1 X153.374 Y84.655 E.01493
G1 X153.283 Y85.183 E.01558
G1 X153.104 Y85.66 E.01483
G1 X152.823 Y86.102 E.01522
G1 X152.475 Y86.474 E.01483
G1 X152.046 Y86.774 E.01522
G1 X151.581 Y86.985 E.01489
G1 X151.023 Y87.107 E.01661
G1 X150.515 Y87.112 E.01478
G1 X150.361 Y87.081 E.00457
G1 X150.391 Y86.728 F9600
G1 F3000
G1 X150.099 Y86.669 E.00869
G1 X149.642 Y86.478 E.01441
G1 X149.245 Y86.201 E.01407
G1 X148.965 Y85.906 E.01184
G1 X148.703 Y85.497 E.01414
G1 X148.559 Y85.126 E.01157
G1 X148.48 Y84.725 E.01189
G1 X148.482 Y84.232 E.01434
G1 X148.587 Y83.758 E.01414
G1 X148.752 Y83.386 E.01184
G1 X149.03 Y82.987 E.01413
G1 X149.324 Y82.707 E.01184
G1 X149.734 Y82.445 E.01414
G1 X150.117 Y82.298 E.01193
G1 X150.614 Y82.214 E.01467
G1 X151.113 Y82.238 E.01455
G1 X151.689 Y82.422 E.01758
G1 X152.162 Y82.705 E.01604
G1 X152.523 Y83.065 E.01481
G1 X152.785 Y83.476 E.01419
G1 X152.963 Y83.994 E.01596
G1 X153.008 Y84.247 E.00747
G1 X153.007 Y84.74 E.01434
G1 X152.902 Y85.215 E.01414
G1 X152.737 Y85.587 E.01184
G1 X152.459 Y85.985 E.01413
G1 X152.164 Y86.265 E.01184
G1 X151.755 Y86.527 E.01414
G1 X151.418 Y86.663 E.01057
G1 X150.918 Y86.758 E.01481
G1 X150.499 Y86.75 E.01217
G1 X150.43 Y86.736 E.00205
G1 X150.468 Y86.359 F9600
;TYPE:Outer wall
G1 F3000
G1 X150.236 Y86.316 E.00687
G1 X149.852 Y86.163 E.01202
G1 X149.513 Y85.933 E.01192
G1 X149.28 Y85.695 E.0097
G1 X149.053 Y85.352 E.01197
G1 X148.928 Y85.044 E.00965
G1 X148.859 Y84.717 E.00975
G1 X148.853 Y84.306 E.01195
G1 X148.936 Y83.902 E.01199
G1 X149.067 Y83.596 E.0097
G1 X149.297 Y83.255 E.01197
G1 X149.535 Y83.021 E.0097
G1 X149.879 Y82.795 E.01197
G1 X150.19 Y82.669 E.00977
G1 X150.601 Y82.592 E.01217
G1 X151.123 Y82.629 E.01524
G1 X151.601 Y82.792 E.01466
G1 X151.976 Y83.039 E.01308
G1 X152.209 Y83.277 E.00969
G1 X152.494 Y83.762 E.01636
G1 X152.629 Y84.247 E.01465
G1 X152.635 Y84.666 E.01221
G1 X152.493 Y85.214 E.01645
G1 X152.211 Y85.693 E.01619
G1 X151.954 Y85.951 E.01059
G1 X151.469 Y86.236 E.01636
G1 X150.899 Y86.38 E.0171
G1 X150.565 Y86.377 E.00972
G1 X150.507 Y86.367 E.00171
G1 E-2.2 F2400
;WIPE_START
G1 F3000
G1 X150.236 Y86.316 E-.22096
G1 X149.852 Y86.163 E-.33052
G1 X149.595 Y85.989 E-.24852
;WIPE_END
G1 Z.6 F9600
G1 X97.13 Y97.59 Z.6
G1 Z.2
G1 E3 F2400
;TYPE:Inner wall
G1 F3000
G1 X97.365 Y97.538 E.00701
G1 X97.65 Y97.327 E.0103
G1 X97.811 Y97.072 E.00878
G1 X97.88 Y96.729 E.01019
G1 X97.88 Y72.243 E.71247
G1 X97.811 Y71.9 E.01019
G1 X97.65 Y71.645 E.00878
G1 X97.365 Y71.435 E.0103
G1 X96.987 Y71.351 E.01127
G1 X73.209 Y71.352 E.6919
G1 X73.768 Y70.795 E.02296
G1 X74.355 Y70.261 E.02308
G1 X74.965 Y69.752 E.02314
G1 X75.596 Y69.268 E.02313
G1 X76.247 Y68.812 E.02313
G1 X76.917 Y68.384 E.02314
G1 X77.605 Y67.984 E.02313
G1 X78.308 Y67.614 E.02313
G1 X79.027 Y67.273 E.02314
G1 X79.759 Y66.963 E.02313
G1 X80.503 Y66.684 E.02313
G1 X81.259 Y66.437 E.02313
G1 X82.024 Y66.222 E.02313
G1 X82.798 Y66.039 E.02314
G1 X83.579 Y65.889 E.02313
G1 X84.365 Y65.773 E.02313
G1 X85.156 Y65.689 E.02314
G1 X85.949 Y65.639 E.02313
G1 X86.756 Y65.622 E.02348
G1 X151.131 Y65.631 E1.87313
G1 X152.396 Y65.695 E.03685
G1 X153.207 Y65.783 E.02374
G1 X154.02 Y65.909 E.02395
G1 X154.827 Y66.069 E.02395
G1 X155.627 Y66.265 E.02395
G1 X156.417 Y66.495 E.02395
G1 X157.196 Y66.76 E.02395
