; HEADER_BLOCK_START
; generated by OrcaSlicer 2.3.2 on 2026-05-19 at 10:57:32
; total layer number: 40
; filament_density: 1.24
; filament_diameter: 1.75
; max_z_height: 8.00
; filament: 1
; HEADER_BLOCK_END

; THUMBNAIL_BLOCK_START

;
; THUMBNAIL_BLOCK_END

; THUMBNAIL_BLOCK_START

;
; THUMBNAIL_BLOCK_END

; external perimeters extrusion width = 0.40mm
; perimeters extrusion width = 0.40mm
; infill extrusion width = 0.40mm
; solid infill extrusion width = 0.40mm
; top infill extrusion width = 0.40mm
; support material extrusion width = 0.40mm
; first layer extrusion width = 0.40mm

; external perimeters extrusion width = 0.40mm
; perimeters extrusion width = 0.40mm
; infill extrusion width = 0.40mm
; solid infill extrusion width = 0.40mm
; top infill extrusion width = 0.40mm
; support material extrusion width = 0.40mm
; first layer extrusion width = 0.40mm

; external perimeters extrusion width = 0.40mm
; perimeters extrusion width = 0.40mm
; infill extrusion width = 0.40mm
; solid infill extrusion width = 0.40mm
; top infill extrusion width = 0.40mm
; support material extrusion width = 0.40mm
; first layer extrusion width = 0.40mm

; EXECUTABLE_BLOCK_START
M73 P0 R41
M201 X1000 Y1000 Z200 E5000
M203 X200 Y200 Z10 E60
M204 P1250 R1250 T1250
M205 X8.00 Y8.00 Z0.40 E5.00 ; sets the jerk limits, mm/sec
M190 S60 ; set bed temperature and wait for it to be reached
M104 S220 ; set nozzle temperature
;TYPE:Custom
G21 ;metric values
G90 ;absolute positioning
M82 ;set extruder to absolute mode
M107 ;start with the fan off
G28 X0 Y0 ;move X/Y to min endstops
G28 Z0 ;move Z to min endstops
G0 Z0.2 F1800 ; move nozzle to print position
G92 E0 ; specify current extruder position as zero
G1 Y10 X180 E50 F1200 ; extrude a line in front of the printer
G92 E0 ; specify current extruder position as zero
G0 Z20 F6000 ; move head up
G1 E-7 F2400 ; retract
G04 S2 ; wait 2s
G0 X0 F6000 ; wipe from oozed filament
G1 E-1 F2400 ; undo some of the retraction to avoid oozing
G1 F6000 ; set travel speed to move to start printing point
M117
G90
G21
M83 ; use relative distances for extrusion
; filament start gcode
M106 S0
;LAYER_CHANGE
;Z:0.2
;HEIGHT:0.2
;BEFORE_LAYER_CHANGE 
G92 E0.0 
;0.2
G1 E-3 F2400
;AFTER_LAYER_CHANGE
;0.2
;_SET_FAN_SPEED_CHANGING_LAYER
M204 S1000
G1 Z.6 F9600
G1 X101.034 Y104.447
G1 Z.6
G1 Z.2
G1 E3 F2400
;TYPE:Skirt
;WIDTH:0.4
G1 F3000
G1 X101.183 Y103.156 E.0378
G1 X101.83 Y101.025 E.0648
G1 X103.183 Y99.257 E.0648
G1 X105.071 Y98.075 E.0648
G1 X107.391 Y97.628 E.06875
G1 X152.191 Y97.628 E1.30357
G1 X154.382 Y98.025 E.0648
G1 X156.295 Y99.165 E.0648
G1 X157.687 Y100.903 E.0648
G1 X158.358 Y102.864 E.06031
G1 X164.918 Y142.789 E1.17727
G1 X165 Y143.705 E.02677
G1 X165.42 Y170.751 E.78706
G1 X165.42 Y184.285 E.39383
G1 X165.023 Y186.477 E.0648
G1 X163.883 Y188.39 E.0648
G1 X162.144 Y189.782 E.0648
G1 X159.17 Y190.535 E.08928
G1 X103.17 Y190.535 E1.62946
G1 X100.978 Y190.138 E.0648
G1 X99.065 Y188.998 E.0648
G1 X97.673 Y187.26 E.0648
G1 X96.921 Y184.383 E.08654
G1 X96.502 Y157.434 E.78423
G1 X96.501 Y143.802 E.39665
G1 X101.03 Y104.487 E1.15154
G1 X101.384 Y104.527 F9600
G1 F3000
G1 X101.537 Y103.198 E.03895
G1 X102.177 Y101.132 E.06291
G1 X103.518 Y99.436 E.06291
G1 X105.38 Y98.339 E.06291
G1 X107.391 Y97.985 E.0594
G1 X152.191 Y97.985 E1.30357
G1 X154.316 Y98.382 E.06291
G1 X156.155 Y99.518 E.06291
G1 X157.461 Y101.241 E.06291
G1 X158.005 Y102.922 E.05141
G1 X164.566 Y142.847 E1.17727
G1 X164.643 Y143.71 E.02524
M73 P1 R41
G1 X165.063 Y170.751 E.7869
G1 X165.063 Y184.285 E.39383
G1 X164.666 Y186.411 E.06291
G1 X163.53 Y188.25 E.06291
G1 X161.806 Y189.555 E.06291
G1 X159.17 Y190.178 E.07882
G1 X103.17 Y190.178 E1.62946
G1 X101.045 Y189.782 E.06291
G1 X99.205 Y188.645 E.06291
G1 X97.9 Y186.922 E.06291
G1 X97.278 Y184.377 E.07623
G1 X96.859 Y157.428 E.78423
G1 X96.858 Y143.802 E.39649
G1 X101.38 Y104.567 E1.14919
G1 X101.734 Y104.608 F9600
G1 F3000
G1 X101.892 Y103.239 E.04011
G1 X102.523 Y101.241 E.06096
G1 X103.852 Y99.621 E.06096
G1 X105.687 Y98.611 E.06096
G1 X107.391 Y98.342 E.0502
G1 X152.191 Y98.342 E1.30357
G1 X154.248 Y98.739 E.06096
G1 X156.01 Y99.871 E.06096
G1 X157.226 Y101.577 E.06096
G1 X157.653 Y102.98 E.04268
G1 X164.213 Y142.904 E1.17727
G1 X164.286 Y143.716 E.02371
G1 X164.705 Y170.751 E.78674
G1 X164.705 Y184.285 E.39383
G1 X164.309 Y186.342 E.06096
G1 X163.177 Y188.105 E.06096
G1 X161.47 Y189.32 E.06096
G1 X159.17 Y189.821 E.06851
G1 X103.17 Y189.821 E1.62946
G1 X101.113 Y189.425 E.06096
G1 X99.35 Y188.292 E.06096
G1 X98.135 Y186.586 E.06096
G1 X97.635 Y184.371 E.06606
G1 X97.216 Y157.423 E.78423
G1 X97.215 Y143.802 E.39633
G1 X101.73 Y104.648 E1.14683
G1 X102.084 Y104.689 F9600
G1 F3000
G1 X102.247 Y103.28 E.04126
G1 X102.87 Y101.353 E.05894
G1 X104.184 Y99.811 E.05894
G1 X105.989 Y98.892 E.05894
G1 X107.391 Y98.699 E.04117
M73 P1 R40
G1 X152.191 Y98.699 E1.30357
G1 X154.177 Y99.095 E.05894
G1 X155.86 Y100.223 E.05894
G1 X156.981 Y101.91 E.05894
G1 X157.301 Y103.038 E.03412
G1 X163.861 Y142.962 E1.17727
G1 X163.929 Y143.722 E.02218
G1 X164.348 Y170.751 E.78657
G1 X164.348 Y184.285 E.39383
G1 X163.952 Y186.272 E.05894
G1 X162.824 Y187.954 E.05894
G1 X161.138 Y189.076 E.05894
G1 X159.17 Y189.464 E.05836
G1 X103.17 Y189.464 E1.62946
G1 X101.183 Y189.068 E.05894
G1 X99.501 Y187.94 E.05894
G1 X98.38 Y186.253 E.05894
G1 X97.992 Y184.366 E.05606
G1 X97.573 Y157.417 E.78423
G1 X97.573 Y143.802 E.39617
G1 X102.08 Y104.728 E1.14448
; printing object seg3_strut.stl id:4640501617010768336 copy 0
G1 E-2.2 F2400
;WIPE_START
G1 F3000
G1 X102.194 Y103.735 E-.8
;WIPE_END
G1 Z.6 F9600
G1 X110.298 Y120.233 Z.6
G1 Z.2
G1 E3 F2400
;TYPE:Inner wall
;WIDTH:0.399999
G1 F3000
G1 X110.255 Y120.402 E.00508
G1 X110.255 Y128.277 E.22913
G1 X108.526 Y128.277 E.0503
G1 X108.526 Y105.013 E.67691
G1 X110.255 Y105.013 E.0503
G1 X110.255 Y112.888 E.22913
G1 X110.36 Y113.308 E.0126
G1 X110.612 Y113.602 E.01127
G1 X110.898 Y113.745 E.00929
G1 X111.148 Y113.781 E.00735
G1 X148.191 Y113.781 E1.07785
G1 X148.684 Y113.745 E.01438
G1 X148.969 Y113.602 E.00929
G1 X149.221 Y113.308 E.01127
G1 X149.326 Y112.888 E.0126
G1 X149.326 Y105.013 E.22913
G1 X151.055 Y105.013 E.0503
G1 X151.055 Y128.277 E.67691
G1 X149.326 Y128.277 E.0503
G1 X149.326 Y120.402 E.22913
G1 X149.221 Y119.982 E.0126
G1 X148.969 Y119.688 E.01127
G1 X148.684 Y119.545 E.00929
G1 X148.434 Y119.51 E.00735
G1 X111.391 Y119.51 E1.07785
G1 X110.898 Y119.545 E.01438
G1 X110.612 Y119.688 E.00929
G1 X110.36 Y119.982 E.01127
G1 X110.307 Y120.194 E.00635
G1 X110.634 Y120.315 F9600
G1 F3000
G1 X110.612 Y120.402 E.00262
G1 X110.612 Y128.634 E.23952
G1 X108.169 Y128.634 E.07108
G1 X108.169 Y104.656 E.69769
G1 X110.612 Y104.656 E.07108
G1 X110.612 Y112.888 E.23952
G1 X110.675 Y113.14 E.00756
G1 X110.826 Y113.317 E.00676
G1 X110.998 Y113.402 E.00558
G1 X111.391 Y113.424 E.01145
G1 X148.541 Y113.424 E1.08097
G1 X148.755 Y113.317 E.00697
G1 X148.906 Y113.14 E.00676
G1 X148.969 Y112.888 E.00756
G1 X148.969 Y104.656 E.23952
G1 X151.412 Y104.656 E.07108
G1 X151.412 Y128.634 E.69769
G1 X148.969 Y128.634 E.07108
G1 X148.969 Y120.402 E.23952
G1 X148.906 Y120.15 E.00756
G1 X148.755 Y119.974 E.00676
G1 X148.584 Y119.888 E.00558
G1 X148.191 Y119.867 E.01145
G1 X111.041 Y119.867 E1.08097
G1 X110.826 Y119.974 E.00697
G1 X110.675 Y120.15 E.00676
G1 X110.644 Y120.276 E.00378
G1 X110.991 Y120.402 F9600
;TYPE:Outer wall
G1 F3000
G1 X110.991 Y129.012 E.25054
G1 X107.791 Y129.012 E.09311
G1 X107.791 Y104.278 E.71972
M73 P2 R40
G1 X110.991 Y104.278 E.09311
G1 X110.991 Y112.888 E.25054
G1 X111.054 Y113.014 E.00409
G1 X111.148 Y113.045 E.00289
G1 X148.191 Y113.045 E1.07785
G1 X148.528 Y113.014 E.00985
G1 X148.591 Y112.888 E.00409
G1 X148.591 Y104.278 E.25054
G1 X151.791 Y104.278 E.09311
G1 X151.791 Y129.012 E.71972
G1 X148.591 Y129.012 E.09311
G1 X148.591 Y120.402 E.25054
G1 X148.528 Y120.277 E.00409
G1 X148.434 Y120.245 E.00289
G1 X111.391 Y120.245 E1.07785
G1 X111.054 Y120.277 E.00985
G1 X111.009 Y120.366 E.00292
G1 E-2.2 F2400
;WIPE_START
G1 F3000
G1 X111.007 Y121.366 E-.8
;WIPE_END
G1 Z.6 F9600
G1 X150.948 Y105.846 Z.6
G1 Z.2
G1 E3 F2400
;TYPE:Bottom surface
;WIDTH:0.401599
G1 X150.383 Y105.281 E.02334
G1 X149.876 Y105.281 E.01483
G1 X150.787 Y106.192 E.03766
G1 X150.787 Y106.7 E.01483
G1 X149.594 Y105.506 E.04932
G1 X149.594 Y106.014 E.01483
G1 X150.787 Y107.207 E.04932
G1 X150.787 Y107.714 E.01483
G1 X149.594 Y106.521 E.04932
G1 X149.594 Y107.028 E.01483
G1 X150.787 Y108.221 E.04932
G1 X150.787 Y108.729 E.01483
G1 X149.594 Y107.535 E.04932
G1 X149.594 Y108.043 E.01483
G1 X150.787 Y109.236 E.04932
G1 X150.787 Y109.743 E.01483
G1 X149.594 Y108.55 E.04932
G1 X149.594 Y109.057 E.01483
G1 X150.787 Y110.25 E.04932
G1 X150.787 Y110.758 E.01483
G1 X149.594 Y109.564 E.04932
G1 X149.594 Y110.072 E.01483
G1 X150.787 Y111.265 E.04932
G1 X150.787 Y111.772 E.01483
G1 X149.594 Y110.579 E.04932
G1 X149.594 Y111.086 E.01483
G1 X150.787 Y112.279 E.04932
G1 X150.787 Y112.787 E.01483
G1 X149.594 Y111.593 E.04932
G1 X149.594 Y112.101 E.01483
G1 X150.787 Y113.294 E.04932
G1 X150.787 Y113.801 E.01483
G1 X149.594 Y112.608 E.04932
G1 X149.575 Y113.096 E.01428
G1 X150.787 Y114.308 E.0501
G1 X150.787 Y114.816 E.01483
G1 X149.435 Y113.463 E.05588
G1 X149.201 Y113.737 E.01051
G1 X150.787 Y115.323 E.06556
G1 X150.787 Y115.83 E.01483
G1 X148.894 Y113.936 E.07828
G1 X148.761 Y114.003 E.00435
G1 X148.491 Y114.041 E.00795
G1 X150.787 Y116.337 E.09491
G1 X150.787 Y116.845 E.01483
G1 X147.991 Y114.049 E.11557
G1 X147.484 Y114.049 E.01483
G1 X150.787 Y117.352 E.13654
G1 X150.787 Y117.859 E.01483
G1 X146.977 Y114.049 E.1575
G1 X146.47 Y114.049 E.01483
G1 X150.787 Y118.366 E.17847
G1 X150.787 Y118.874 E.01483
G1 X145.962 Y114.049 E.19944
G1 X145.455 Y114.049 E.01483
G1 X150.787 Y119.381 E.2204
G1 X150.787 Y119.888 E.01483
G1 X144.948 Y114.049 E.24137
G1 X144.441 Y114.049 E.01483
G1 X150.787 Y120.395 E.26234
G1 X150.787 Y120.902 E.01483
G1 X143.933 Y114.049 E.2833
G1 X143.426 Y114.049 E.01483
G1 X148.649 Y119.272 E.21589
G1 X148.761 Y119.287 E.00329
G1 X149.132 Y119.473 E.01215
G1 X149.46 Y119.856 E.01473
G1 X149.536 Y120.158 E.00911
G1 X150.787 Y121.41 E.05172
G1 X150.787 Y121.917 E.01483
G1 X149.594 Y120.724 E.04932
G1 X149.594 Y121.231 E.01483
G1 X150.787 Y122.424 E.04932
G1 X150.787 Y122.931 E.01483
G1 X149.594 Y121.738 E.04932
G1 X149.594 Y122.246 E.01483
G1 X150.787 Y123.439 E.04932
G1 X150.787 Y123.946 E.01483
G1 X149.594 Y122.753 E.04932
G1 X149.594 Y123.26 E.01483
G1 X150.787 Y124.453 E.04932
G1 X150.787 Y124.96 E.01483
G1 X149.594 Y123.767 E.04932
G1 X149.594 Y124.275 E.01483
G1 X150.787 Y125.468 E.04932
G1 X150.787 Y125.975 E.01483
G1 X149.594 Y124.782 E.04932
G1 X149.594 Y125.289 E.01483
G1 X150.787 Y126.482 E.04932
G1 X150.787 Y126.989 E.01483
G1 X149.594 Y125.796 E.04932
G1 X149.594 Y126.304 E.01483
G1 X150.787 Y127.497 E.04932
G1 X150.787 Y128.004 E.01483
G1 X149.594 Y126.811 E.04932
G1 X149.594 Y127.318 E.01483
G1 X150.285 Y128.009 E.02856
G1 X149.778 Y128.009 E.01483
G1 X149.434 Y127.665 E.01424
G1 E-2
;WIPE_START
G1 X149.778 Y128.009 E-.48709
G1 X150.285 Y128.009 E-.50725
G1 X150.281 Y128.005 E-.00567
;WIPE_END
G1 Z.6 F9600
G1 X148.273 Y119.402 Z.6
G1 Z.2
G1 E3 F2400
G1 X142.919 Y114.049 E.2213
G1 X142.412 Y114.049 E.01483
G1 X147.605 Y119.242 E.21466
G1 X147.098 Y119.242 E.01483
G1 X141.904 Y114.049 E.21466
G1 X141.397 Y114.049 E.01483
G1 X146.59 Y119.242 E.21466
G1 X146.083 Y119.242 E.01483
G1 X140.89 Y114.049 E.21466
G1 X140.383 Y114.049 E.01483
G1 X145.576 Y119.242 E.21466
G1 X145.069 Y119.242 E.01483
G1 X139.875 Y114.049 E.21466
G1 X139.368 Y114.049 E.01483
G1 X144.561 Y119.242 E.21466
G1 X144.054 Y119.242 E.01483
G1 X138.861 Y114.049 E.21466
G1 X138.354 Y114.049 E.01483
G1 X143.547 Y119.242 E.21466
G1 X143.04 Y119.242 E.01483
G1 X137.846 Y114.049 E.21466
G1 X137.339 Y114.049 E.01483
G1 X142.532 Y119.242 E.21466
G1 X142.025 Y119.242 E.01483
G1 X136.832 Y114.049 E.21466
G1 X136.325 Y114.049 E.01483
G1 X141.518 Y119.242 E.21466
G1 X141.011 Y119.242 E.01483
G1 X135.817 Y114.049 E.21466
G1 X135.31 Y114.049 E.01483
G1 X140.503 Y119.242 E.21466
G1 X139.996 Y119.242 E.01483
G1 X134.803 Y114.049 E.21466
G1 X134.296 Y114.049 E.01483
G1 X139.489 Y119.242 E.21466
G1 X138.982 Y119.242 E.01483
G1 X133.788 Y114.049 E.21466
G1 X133.281 Y114.049 E.01483
G1 X138.474 Y119.242 E.21466
G1 X137.967 Y119.242 E.01483
G1 X132.774 Y114.049 E.21466
G1 X132.267 Y114.049 E.01483
G1 X137.46 Y119.242 E.21466
G1 X136.953 Y119.242 E.01483
G1 X131.759 Y114.049 E.21466
G1 X131.252 Y114.049 E.01483
G1 X136.445 Y119.242 E.21466
G1 X135.938 Y119.242 E.01483
G1 X130.745 Y114.049 E.21466
G1 X130.238 Y114.049 E.01483
G1 X135.431 Y119.242 E.21466
G1 X134.924 Y119.242 E.01483
G1 X129.73 Y114.049 E.21466
G1 X129.223 Y114.049 E.01483
G1 X134.416 Y119.242 E.21466
G1 X133.909 Y119.242 E.01483
G1 X128.716 Y114.049 E.21466
G1 X128.209 Y114.049 E.01483
G1 X133.402 Y119.242 E.21466
G1 X132.895 Y119.242 E.01483
G1 X127.701 Y114.049 E.21466
G1 X127.194 Y114.049 E.01483
G1 X132.387 Y119.242 E.21466
G1 X131.88 Y119.242 E.01483
G1 X126.687 Y114.049 E.21466
G1 X126.18 Y114.049 E.01483
G1 X131.373 Y119.242 E.21466
G1 X130.866 Y119.242 E.01483
G1 X125.672 Y114.049 E.21466
G1 X125.165 Y114.049 E.01483
G1 X130.358 Y119.242 E.21466
G1 X129.851 Y119.242 E.01483
G1 X124.658 Y114.049 E.21466
G1 X124.151 Y114.049 E.01483
G1 X129.344 Y119.242 E.21466
G1 X128.837 Y119.242 E.01483
G1 X123.643 Y114.049 E.21466
G1 X123.136 Y114.049 E.01483
G1 X128.329 Y119.242 E.21466
G1 X127.822 Y119.242 E.01483
G1 X122.629 Y114.049 E.21466
G1 X122.122 Y114.049 E.01483
G1 X127.315 Y119.242 E.21466
G1 X126.808 Y119.242 E.01483
G1 X121.614 Y114.049 E.21466
G1 X121.107 Y114.049 E.01483
G1 X126.3 Y119.242 E.21466
G1 X125.793 Y119.242 E.01483
G1 X120.6 Y114.049 E.21466
G1 X120.093 Y114.049 E.01483
G1 X125.286 Y119.242 E.21466
G1 X124.779 Y119.242 E.01483
G1 X119.585 Y114.049 E.21466
G1 X119.078 Y114.049 E.01483
G1 X124.271 Y119.242 E.21466
G1 X123.764 Y119.242 E.01483
G1 X118.571 Y114.049 E.21466
G1 X118.064 Y114.049 E.01483
G1 X123.257 Y119.242 E.21466
G1 X122.75 Y119.242 E.01483
G1 X117.556 Y114.049 E.21466
G1 X117.049 Y114.049 E.01483
G1 X122.242 Y119.242 E.21466
G1 X121.735 Y119.242 E.01483
G1 X116.542 Y114.049 E.21466
G1 X116.035 Y114.049 E.01483
G1 X121.228 Y119.242 E.21466
G1 X120.721 Y119.242 E.01483
G1 X115.527 Y114.049 E.21466
G1 X115.02 Y114.049 E.01483
G1 X120.213 Y119.242 E.21466
G1 X119.706 Y119.242 E.01483
G1 X114.513 Y114.049 E.21466
G1 X114.006 Y114.049 E.01483
G1 X119.199 Y119.242 E.21466
G1 X118.692 Y119.242 E.01483
G1 X113.498 Y114.049 E.21466
G1 X112.991 Y114.049 E.01483
G1 X118.184 Y119.242 E.21466
G1 X117.677 Y119.242 E.01483
M73 P3 R40
G1 X112.484 Y114.049 E.21466
G1 X111.977 Y114.049 E.01483
G1 X117.17 Y119.242 E.21466
G1 X116.663 Y119.242 E.01483
G1 X111.309 Y113.888 E.2213
G1 E-2
;WIPE_START
G1 X112.016 Y114.595 E-1
;WIPE_END
G1 Z.6 F9600
G1 X110.148 Y105.626 Z.6
G1 Z.2
G1 E3 F2400
G1 X109.804 Y105.281 E.01424
G1 X109.296 Y105.281 E.01483
G1 X109.987 Y105.972 E.02856
G1 X109.987 Y106.479 E.01483
G1 X108.794 Y105.286 E.04932
G1 X108.794 Y105.794 E.01483
G1 X109.987 Y106.987 E.04932
G1 X109.987 Y107.494 E.01483
G1 X108.794 Y106.301 E.04932
G1 X108.794 Y106.808 E.01483
G1 X109.987 Y108.001 E.04932
G1 X109.987 Y108.508 E.01483
G1 X108.794 Y107.315 E.04932
G1 X108.794 Y107.823 E.01483
G1 X109.987 Y109.016 E.04932
G1 X109.987 Y109.523 E.01483
G1 X108.794 Y108.33 E.04932
G1 X108.794 Y108.837 E.01483
G1 X109.987 Y110.03 E.04932
G1 X109.987 Y110.537 E.01483
G1 X108.794 Y109.344 E.04932
G1 X108.794 Y109.852 E.01483
G1 X109.987 Y111.045 E.04932
G1 X109.987 Y111.552 E.01483
G1 X108.794 Y110.359 E.04932
G1 X108.794 Y110.866 E.01483
G1 X109.987 Y112.059 E.04932
G1 X109.987 Y112.566 E.01483
G1 X108.794 Y111.373 E.04932
G1 X108.794 Y111.881 E.01483
G1 X110.005 Y113.091 E.05003
G1 X110.124 Y113.437 E.0107
G1 X110.449 Y113.817 E.01461
G1 X110.821 Y114.003 E.01215
G1 X110.932 Y114.019 E.00329
G1 X116.155 Y119.242 E.21589
G1 X115.648 Y119.242 E.01483
G1 X108.794 Y112.388 E.2833
