; HEADER_BLOCK_START
; generated by OrcaSlicer 2.3.2 on 2026-05-19 at 10:57:36
; total layer number: 212
; filament_density: 1.24
; filament_diameter: 1.75
; max_z_height: 42.40
; filament: 1
; HEADER_BLOCK_END

; THUMBNAIL_BLOCK_START

;
; THUMBNAIL_BLOCK_END

; THUMBNAIL_BLOCK_START

;
; THUMBNAIL_BLOCK_END

; external perimeters extrusion width = 0.40mm
; perimeters extrusion width = 0.40mm
; infill extrusion width = 0.40mm
; solid infill extrusion width = 0.40mm
; top infill extrusion width = 0.40mm
; support material extrusion width = 0.40mm
; first layer extrusion width = 0.40mm

; EXECUTABLE_BLOCK_START
M73 P0 R66
M201 X1000 Y1000 Z200 E5000
M203 X200 Y200 Z10 E60
M204 P1250 R1250 T1250
M205 X8.00 Y8.00 Z0.40 E5.00 ; sets the jerk limits, mm/sec
M190 S60 ; set bed temperature and wait for it to be reached
M104 S220 ; set nozzle temperature
;TYPE:Custom
G21 ;metric values
G90 ;absolute positioning
M82 ;set extruder to absolute mode
M107 ;start with the fan off
G28 X0 Y0 ;move X/Y to min endstops
G28 Z0 ;move Z to min endstops
G0 Z0.2 F1800 ; move nozzle to print position
G92 E0 ; specify current extruder position as zero
G1 Y10 X180 E50 F1200 ; extrude a line in front of the printer
G92 E0 ; specify current extruder position as zero
G0 Z20 F6000 ; move head up
G1 E-7 F2400 ; retract
G04 S2 ; wait 2s
G0 X0 F6000 ; wipe from oozed filament
G1 E-1 F2400 ; undo some of the retraction to avoid oozing
G1 F6000 ; set travel speed to move to start printing point
M117
G90
G21
M83 ; use relative distances for extrusion
; filament start gcode
M106 S0
;LAYER_CHANGE
;Z:0.2
;HEIGHT:0.2
;BEFORE_LAYER_CHANGE 
G92 E0.0 
;0.2
G1 E-3 F2400
;AFTER_LAYER_CHANGE
;0.2
;_SET_FAN_SPEED_CHANGING_LAYER
M204 S1000
G1 Z.6 F9600
G1 X94.108 Y115.805
G1 Z.6
G1 Z.2
G1 E3 F2400
;TYPE:Skirt
;WIDTH:0.4
G1 F3000
G1 X145.284 Y115.805 E1.4891
G1 X147.475 Y116.201 E.0648
G1 X149.388 Y117.341 E.0648
G1 X150.212 Y118.212 E.03487
G1 X151.936 Y120.628 E.08635
G1 X153.124 Y122.74 E.07052
G1 X154.296 Y125.466 E.08635
G1 X155.01 Y127.782 E.07052
G1 X155.577 Y130.695 E.08634
G1 X155.784 Y133.109 E.07052
G1 X155.772 Y135.266 E.06276
G1 X155.456 Y138.217 E.08635
G1 X154.942 Y140.585 E.07052
G1 X154.008 Y143.402 E.08634
G1 X153.003 Y145.607 E.07052
G1 X152.076 Y147.254 E.05499
G1 X151.343 Y148.382 E.03915
G1 X150.212 Y149.897 E.055
G1 X148.552 Y151.382 E.0648
G1 X146.477 Y152.189 E.0648
G1 X145.284 Y152.304 E.03487
G1 X93.553 Y152.304 E1.50524
G1 X91.361 Y151.907 E.0648
G1 X89.448 Y150.767 E.0648
G1 X88.056 Y149.029 E.0648
G1 X87.303 Y146.054 E.08928
G1 X87.303 Y122.054 E.69834
G1 X87.7 Y119.863 E.0648
G1 X88.84 Y117.95 E.0648
G1 X90.578 Y116.558 E.0648
G1 X93.553 Y115.805 E.08928
G1 X94.068 Y115.805 E.01498
G1 X94.068 Y116.162 F9600
G1 F3000
G1 X145.284 Y116.162 E1.49026
G1 X147.409 Y116.558 E.06291
G1 X149.931 Y118.431 E.0914
G1 X151.636 Y120.822 E.08546
G1 X152.803 Y122.894 E.06919
G1 X153.962 Y125.593 E.08546
G1 X154.663 Y127.865 E.06919
G1 X155.224 Y130.748 E.08546
G1 X155.427 Y133.117 E.06919
G1 X155.416 Y135.243 E.06187
G1 X155.103 Y138.164 E.08546
G1 X154.599 Y140.487 E.06919
G1 X153.674 Y143.275 E.08546
G1 X152.689 Y145.439 E.06919
G1 X151.052 Y148.175 E.09277
G1 X149.931 Y149.678 E.05455
G1 X148.311 Y151.11 E.06291
G1 X145.284 Y151.947 E.0914
G1 X93.553 Y151.947 E1.50524
G1 X91.428 Y151.551 E.06291
G1 X89.588 Y150.414 E.06291
G1 X88.283 Y148.691 E.06291
G1 X87.66 Y146.054 E.07882
G1 X87.66 Y122.054 E.69834
G1 X88.057 Y119.929 E.06291
G1 X89.193 Y118.09 E.06291
G1 X90.916 Y116.784 E.06291
G1 X93.553 Y116.162 E.07882
G1 X94.028 Y116.162 E.01381
G1 X94.028 Y116.519 F9600
G1 F3000
G1 X145.284 Y116.519 E1.49143
G1 X147.341 Y116.915 E.06096
G1 X149.649 Y118.651 E.08404
G1 X151.337 Y121.017 E.08457
G1 X152.833 Y123.781 E.09144
G1 X153.628 Y125.72 E.06098
G1 X154.316 Y127.948 E.06786
G1 X154.871 Y130.801 E.08457
G1 X155.07 Y133.125 E.06786
G1 X155.06 Y135.221 E.06098
G1 X154.75 Y138.11 E.08457
G1 X154.256 Y140.389 E.06786
G1 X153.34 Y143.148 E.08457
G1 X152.374 Y145.27 E.06786
G1 X150.761 Y147.968 E.09144
G1 X149.649 Y149.458 E.05411
G1 X148.072 Y150.837 E.06096
G1 X145.284 Y151.59 E.08404
G1 X93.553 Y151.59 E1.50524
G1 X91.496 Y151.194 E.06096
G1 X89.733 Y150.061 E.06096
G1 X88.518 Y148.355 E.06096
G1 X88.017 Y146.054 E.06851
G1 X88.017 Y122.054 E.69834
G1 X88.414 Y119.997 E.06096
G1 X89.546 Y118.235 E.06096
G1 X91.252 Y117.02 E.06096
G1 X93.553 Y116.519 E.06851
G1 X93.988 Y116.519 E.01265
G1 X93.988 Y116.876 F9600
G1 F3000
G1 X145.284 Y116.876 E1.49259
G1 X147.27 Y117.272 E.05894
G1 X149.368 Y118.87 E.07673
G1 X149.866 Y119.509 E.02356
G1 X151.154 Y121.4 E.06658
G1 X152.603 Y124.137 E.09011
G1 X153.624 Y126.825 E.08368
G1 X154.204 Y129.037 E.06652
G1 X154.633 Y131.881 E.08368
G1 X154.73 Y133.944 E.0601
G1 X154.633 Y136.228 E.06653
G1 X154.359 Y138.275 E.0601
G1 X153.69 Y141.072 E.08368
G1 X152.923 Y143.226 E.06652
G1 X151.676 Y145.818 E.08369
G1 X150.47 Y147.76 E.06653
G1 X149.368 Y149.239 E.05366
G1 X147.834 Y150.562 E.05894
G1 X145.284 Y151.233 E.07673
G1 X93.553 Y151.233 E1.50524
G1 X91.566 Y150.837 E.05894
G1 X89.884 Y149.709 E.05894
G1 X88.763 Y148.022 E.05894
G1 X88.374 Y146.054 E.05836
G1 X88.374 Y122.054 E.69834
G1 X88.77 Y120.068 E.05894
G1 X89.898 Y118.385 E.05894
G1 X91.585 Y117.264 E.05894
G1 X93.553 Y116.876 E.05836
G1 X93.948 Y116.876 E.01148
; printing object seg3b.stl id:3544383781168493106 copy 0
G1 E-2.2 F2400
;WIPE_START
G1 F3000
G1 X94.948 Y116.876 E-.8
;WIPE_END
G1 Z.6 F9600
G1 X142.338 Y123.19 Z.6
G1 Z.2
G1 E3 F2400
;TYPE:Inner wall
;WIDTH:0.399999
G1 F3000
G1 X144.723 Y123.19 E.0694
G1 X145.319 Y124.001 E.02927
G1 X145.732 Y124.635 E.02201
G1 X146.12 Y125.292 E.02221
G1 X146.474 Y125.952 E.0218
G1 X146.917 Y126.898 E.03039
;WIDTH:0.443605
G1 X147.028 Y127.221 E.01116
;WIDTH:0.48721
G1 X147.402 Y128.213 E.03839
;WIDTH:0.458246
G1 X147.619 Y128.837 E.02237
;WIDTH:0.434385
G1 X147.833 Y129.525 E.02297
;WIDTH:0.399999
G1 X148.092 Y130.685 E.03459
G1 X148.273 Y131.799 E.03283
G1 X148.354 Y132.567 E.02247
G1 X148.402 Y133.338 E.0225
G1 X148.415 Y134.128 E.02299
G1 X148.376 Y135.195 E.03105
G1 X148.306 Y136.004 E.02363
G1 X148.234 Y136.579 E.01687
G1 X148.082 Y137.476 E.02647
G1 X147.804 Y138.688 E.03619
;WIDTH:0.440491
G1 X147.603 Y139.317 E.02139
;WIDTH:0.459882
G1 X147.429 Y139.811 E.01778
;WIDTH:0.466155
G1 X147.069 Y140.806 E.03649
;WIDTH:0.440378
G1 X146.811 Y141.457 E.02268
;WIDTH:0.399999
G1 X146.48 Y142.144 E.0222
G1 X146.12 Y142.817 E.02221
G1 X145.814 Y143.335 E.01751
G1 X145.147 Y144.351 E.03535
G1 X144.729 Y144.919 E.02052
G1 X142.688 Y144.919 E.05938
G1 X142.688 Y140.318 E.13386
G1 X142.783 Y140.457 E.00489
G1 X143.135 Y140.842 E.01517
G1 X143.536 Y141.133 E.01443
G1 X143.996 Y141.33 E.01455
G1 X144.465 Y141.423 E.01391
G1 X144.937 Y141.427 E.01373
G1 X145.423 Y141.326 E.01443
G1 X145.897 Y141.117 E.01507
G1 X146.255 Y140.864 E.01277
;WIDTH:0.444313
G1 X146.493 Y140.628 E.01094
;WIDTH:0.488627
G1 X146.73 Y140.392 E.01215
G1 X146.929 Y139.983 E.01656
;WIDTH:0.481709
G1 X147.093 Y139.422 E.02089
G1 X147.081 Y139.221 E.00718
;WIDTH:0.440491
G1 X147.055 Y138.666 E.018
;WIDTH:0.399999
G1 X146.943 Y138.242 E.01275
G1 X146.717 Y137.781 E.01496
G1 X146.349 Y137.339 E.01671
G1 X145.934 Y137.02 E.01524
G1 X145.41 Y136.779 E.01677
G1 X144.81 Y136.674 E.01774
G1 X144.293 Y136.707 E.01507
G1 X143.746 Y136.878 E.01667
G1 X143.294 Y137.139 E.01518
G1 X142.873 Y137.528 E.01669
G1 X142.688 Y137.786 E.00923
G1 X142.688 Y130.318 E.2173
G1 X142.783 Y130.457 E.0049
G1 X143.135 Y130.842 E.01517
G1 X143.536 Y131.133 E.01443
G1 X143.993 Y131.329 E.01447
G1 X144.596 Y131.435 E.0178
G1 X145.109 Y131.402 E.01496
G1 X145.605 Y131.26 E.01502
G1 X146.104 Y130.975 E.01671
G1 X146.491 Y130.622 E.01525
G1 X146.651 Y130.427 E.00733
G1 X146.9 Y129.976 E.01501
G1 X147.052 Y129.42 E.01677
;WIDTH:0.43906
G1 X147.079 Y129.071 E.01128
;WIDTH:0.478121
G1 X147.105 Y128.723 E.01239
G1 X146.968 Y128.219 E.01852
;WIDTH:0.48721
G1 X146.752 Y127.755 E.01855
G1 X146.55 Y127.547 E.01047
;WIDTH:0.443605
G1 X146.349 Y127.339 E.00944
;WIDTH:0.399999
G1 X145.933 Y127.02 E.01525
G1 X145.412 Y126.78 E.0167
G1 X144.81 Y126.674 E.01781
G1 X144.293 Y126.707 E.01507
G1 X143.746 Y126.878 E.01667
G1 X143.294 Y127.139 E.01518
G1 X142.873 Y127.528 E.01668
G1 X142.688 Y127.786 E.00923
G1 X142.688 Y123.812 E.11566
G1 X142.51 Y123.276 E.01643
G1 X142.374 Y123.208 E.00442
G1 E-2.2 F2400
;WIPE_START
G1 F3000
G1 X143.374 Y123.2 E-.8
;WIPE_END
G1 Z.6 F9600
G1 X146.655 Y128.561 Z.6
G1 Z.2
G1 E3 F2400
G1 F3000
G1 X146.718 Y128.883 E.00955
G1 X146.695 Y129.404 E.01518
G1 X146.529 Y129.939 E.0163
G1 X146.25 Y130.358 E.01466
G1 X145.864 Y130.711 E.01522
G1 X145.338 Y130.979 E.01715
G1 X144.91 Y131.071 E.01274
G1 X144.483 Y131.07 E.01244
G1 X144.122 Y130.996 E.0107
G1 X143.728 Y130.832 E.01243
G1 X143.399 Y130.601 E.01171
G1 X143.047 Y130.216 E.01517
G1 X142.819 Y129.802 E.01377
G1 X142.688 Y129.276 E.01577
;WIDTH:0.422033
G1 X142.719 Y128.587 E.02128
G1 X142.925 Y128.08 E.01693
;WIDTH:0.399999
G1 X143.131 Y127.775 E.0107
G1 X143.473 Y127.448 E.01375
G1 X143.924 Y127.187 E.01518
G1 X144.445 Y127.042 E.01573
G1 X144.923 Y127.039 E.01391
G1 X145.283 Y127.113 E.0107
G1 X145.716 Y127.304 E.01376
G1 X146.132 Y127.623 E.01525
G1 X146.481 Y128.081 E.01678
G1 X146.628 Y128.419 E.01072
G1 X146.648 Y128.522 E.00303
G1 X146.287 Y128.631 F9600
;TYPE:Outer wall
G1 F3000
G1 X146.34 Y128.866 E.00702
G1 X146.317 Y129.387 E.01518
G1 X146.19 Y129.769 E.01172
G1 X145.994 Y130.079 E.01066
G1 X145.609 Y130.432 E.01519
G1 X145.249 Y130.611 E.01171
G1 X144.901 Y130.692 E.01038
G1 X144.548 Y130.697 E.01028
G1 X144.259 Y130.643 E.00855
G1 X143.931 Y130.513 E.01027
G1 X143.678 Y130.345 E.00884
G1 X143.326 Y129.961 E.01517
G1 X143.147 Y129.603 E.01164
G1 X143.066 Y129.259 E.01028
G1 X143.056 Y128.965 E.00855
G1 X143.113 Y128.613 E.01037
G1 X143.244 Y128.283 E.01035
G1 X143.405 Y128.037 E.00855
G1 X143.662 Y127.776 E.01065
G1 X144.114 Y127.515 E.01518
G1 X144.502 Y127.417 E.01165
G1 X144.988 Y127.435 E.01415
G1 X145.447 Y127.582 E.01402
G1 X145.901 Y127.923 E.01653
G1 X146.138 Y128.241 E.01154
G1 X146.26 Y128.509 E.00856
G1 X146.278 Y128.592 E.00247
G1 E-2.2 F2400
;WIPE_START
G1 F3000
G1 X146.34 Y128.866 E-.225
G1 X146.317 Y129.387 E-.4174
G1 X146.255 Y129.574 E-.1576
;WIPE_END
G1 Z.6 F9600
G1 X144.663 Y141.07 Z.6
G1 Z.2
G1 E3 F2400
;TYPE:Inner wall
G1 F3000
G1 X144.519 Y141.07 E.00419
G1 X144.125 Y140.997 E.01166
G1 X143.728 Y140.832 E.01251
G1 X143.399 Y140.601 E.01171
G1 X143.047 Y140.216 E.01517
G1 X142.819 Y139.802 E.01377
G1 X142.688 Y139.276 E.01577
;WIDTH:0.422032
G1 X142.719 Y138.587 E.02128
G1 X142.925 Y138.08 E.01693
;WIDTH:0.399999
G1 X143.131 Y137.775 E.0107
G1 X143.473 Y137.448 E.01375
G1 X143.925 Y137.187 E.01518
G1 X144.378 Y137.054 E.01375
G1 X144.908 Y137.037 E.01543
G1 X145.283 Y137.113 E.01115
G1 X145.716 Y137.304 E.01376
G1 X146.132 Y137.623 E.01524
G1 X146.428 Y137.992 E.01378
G1 X146.649 Y138.487 E.01577
G1 X146.718 Y138.883 E.01171
G1 X146.695 Y139.404 E.01517
G1 X146.52 Y139.953 E.01677
G1 X146.327 Y140.267 E.01072
G1 X145.941 Y140.654 E.01591
G1 X145.449 Y140.939 E.01654
G1 X144.922 Y141.07 E.01582
G1 X144.703 Y141.07 E.00635
G1 X144.665 Y140.695 F9600
;TYPE:Outer wall
G1 F3000
G1 X144.576 Y140.696 E.00259
G1 X144.262 Y140.644 E.00928
G1 X143.931 Y140.513 E.01035
G1 X143.678 Y140.345 E.00884
G1 X143.326 Y139.961 E.01517
G1 X143.147 Y139.603 E.01164
G1 X143.066 Y139.259 E.01028
G1 X143.056 Y138.965 E.00855
G1 X143.113 Y138.613 E.01037
G1 X143.244 Y138.283 E.01035
G1 X143.405 Y138.037 E.00855
G1 X143.662 Y137.776 E.01065
G1 X144.114 Y137.515 E.01518
G1 X144.502 Y137.417 E.01165
G1 X144.858 Y137.412 E.01035
G1 X145.147 Y137.466 E.00855
G1 X145.486 Y137.604 E.01066
G1 X145.901 Y137.923 E.01524
G1 X146.146 Y138.259 E.01211
G1 X146.315 Y138.728 E.0145
G1 X146.326 Y139.188 E.01337
G1 X146.309 Y139.431 E.0071
G1 X146.192 Y139.764 E.01026
G1 X146.043 Y140.017 E.00856
G1 X145.711 Y140.354 E.01376
G1 X145.281 Y140.6 E.01442
G1 X144.905 Y140.692 E.01126
G1 X144.705 Y140.694 E.00582
G1 E-2.2 F2400
;WIPE_START
G1 F3000
G1 X144.576 Y140.696 E-.10312
G1 X144.262 Y140.644 E-.25506
G1 X143.931 Y140.513 E-.28445
G1 X143.767 Y140.404 E-.15737
;WIPE_END
G1 Z.6 F9600
G1 X98.48 Y123.625 Z.6
G1 Z.2
G1 E3 F2400
;TYPE:Inner wall
G1 F3000
G1 X98.417 Y123.812 E.00573
G1 X98.417 Y127.78 E.11547
G1 X98.226 Y127.52 E.00937
G1 X97.776 Y127.107 E.0178
G1 X97.268 Y126.84 E.0167
G1 X96.761 Y126.704 E.01525
G1 X96.188 Y126.681 E.0167
G1 X95.758 Y126.759 E.01272
G1 X95.296 Y126.944 E.01447
G1 X94.929 Y127.181 E.01273
G1 X94.688 Y127.407 E.0096
G1 X94.688 Y123.19 E.12272
G1 X98.736 Y123.19 E.11776
G1 X98.596 Y123.276 E.00478
G1 X98.492 Y123.587 E.00954
G1 E-2.2 F2400
;WIPE_START
G1 F3000
G1 X98.417 Y123.812 E-.1895
G1 X98.417 Y124.575 E-.6105
;WIPE_END
G1 Z.6 F9600
G1 X94.739 Y130.75 Z.6
G1 Z.2
G1 E3 F2400
G1 F3000
G1 X94.898 Y130.898 E.00632
G1 X95.276 Y131.15 E.01322
G1 X95.711 Y131.336 E.01377
G1 X96.198 Y131.428 E.01442
G1 X96.637 Y131.427 E.01276
G1 X97.122 Y131.326 E.01443
G1 X97.681 Y131.066 E.01792
G1 X98.07 Y130.759 E.01442
G1 X98.417 Y130.317 E.01635
G1 X98.417 Y137.783 E.21723
G1 X98.082 Y137.364 E.01561
G1 X97.681 Y137.043 E.01496
G1 X97.122 Y136.783 E.01792
G1 X96.559 Y136.682 E.01664
G1 X96.04 Y136.705 E.01512
G1 X95.488 Y136.854 E.01664
G1 X95.1 Y137.058 E.01276
G1 X94.688 Y137.401 E.01559
G1 X94.688 Y130.703 E.19491
G1 X94.71 Y130.723 E.00085
M73 P1 R66
G1 E-2.2 F2400
;WIPE_START
G1 F3000
G1 X94.898 Y130.898 E-.20587
G1 X95.276 Y131.15 E-.36349
G1 X95.541 Y131.263 E-.23064
;WIPE_END
G1 Z.6 F9600
G1 X95.133 Y141.047 Z.6
G1 Z.2
G1 E3 F2400
G1 F3000
G1 X95.351 Y141.186 E.00753
G1 X95.839 Y141.364 E.01512
G1 X96.465 Y141.439 E.01836
G1 X97.017 Y141.357 E.01622
G1 X97.496 Y141.172 E.01496
G1 X97.968 Y140.844 E.01671
G1 X98.417 Y140.318 E.02012
G1 X98.417 Y144.919 E.13386
G1 X94.688 Y144.919 E.1085
G1 X94.688 Y140.705 E.1226
G1 X94.866 Y140.876 E.00718
G1 X95.099 Y141.025 E.00804
G1 E-2.2 F2400
;WIPE_START
G1 F3000
G1 X95.351 Y141.186 E-.23904
G1 X95.839 Y141.364 E-.41561
G1 X96.019 Y141.386 E-.14535
;WIPE_END
G1 Z.6 F9600
G1 X98.806 Y123.715 Z.6
G1 Z.2
G1 E3 F2400
G1 F3000
G1 X98.774 Y123.812 E.00295
G1 X98.774 Y127.95 E.12042
;WIDTH:0.409362
G1 X98.774 Y129.305 E.04048
;WIDTH:0.400772
G1 X98.774 Y129.893 E.01712
;WIDTH:0.399999
G1 X98.774 Y138.007 E.23611
;WIDTH:0.41377
G1 X98.772 Y139.361 E.04092
;WIDTH:0.404824
G1 X98.774 Y139.915 E.01635
;WIDTH:0.399999
G1 X98.774 Y145.276 E.15598
G1 X94.331 Y145.276 E.12928
G1 X94.331 Y140.018 E.15298
;WIDTH:0.443366
G1 X94.353 Y139.748 E.00884
;WIDTH:0.486732
G1 X94.375 Y139.478 E.0098
G1 X94.406 Y139.561 E.00318
;WIDTH:0.467263
G1 X94.561 Y139.87 E.01196
;WIDTH:0.433631
G1 X94.716 Y140.179 E.01101
;WIDTH:0.399999
G1 X95.077 Y140.588 E.01588
G1 X95.473 Y140.851 E.01381
G1 X95.961 Y141.028 E.01512
G1 X96.43 Y141.081 E.01373
G1 X96.799 Y141.043 E.01079
G1 X97.311 Y140.866 E.01578
G1 X97.705 Y140.603 E.01377
G1 X98.059 Y140.216 E.01525
G1 X98.287 Y139.802 E.01376
;WIDTH:0.407944
G1 X98.395 Y139.453 E.01087
G1 X98.426 Y139.027 E.01269
;WIDTH:0.41377
G1 X98.398 Y138.658 E.0112
G1 X98.263 Y138.251 E.01295
;WIDTH:0.399999
G1 X98.088 Y137.928 E.0107
G1 X97.814 Y137.6 E.01244
G1 X97.469 Y137.331 E.01273
G1 X97.137 Y137.165 E.01079
G1 X96.575 Y137.039 E.01678
G1 X96.056 Y137.062 E.01512
G1 X95.603 Y137.192 E.01373
G1 X95.278 Y137.367 E.01072
G1 X94.951 Y137.641 E.01242
G1 X94.626 Y138.079 E.01587
;WIDTH:0.436041
G1 X94.496 Y138.4 E.01108
;WIDTH:0.472082
G1 X94.367 Y138.72 E.01209
G1 X94.349 Y138.499 E.00778
;WIDTH:0.436041
G1 X94.331 Y138.277 E.00712
;WIDTH:0.399999
G1 X94.331 Y130.262 E.23321
;WIDTH:0.44044
G1 X94.352 Y130.045 E.00708
;WIDTH:0.48088
G1 X94.372 Y129.827 E.0078
;WIDTH:0.52132
G1 X94.392 Y129.609 E.00853
G1 X94.468 Y129.745 E.00607
;WIDTH:0.48088
G1 X94.544 Y129.881 E.00555
;WIDTH:0.44044
G1 X94.619 Y130.017 E.00504
;WIDTH:0.399999
G1 X94.976 Y130.491 E.01725
G1 X95.474 Y130.853 E.01793
G1 X95.834 Y131 E.01129
G1 X96.253 Y131.076 E.0124
