; HEADER_BLOCK_START
; generated by OrcaSlicer 2.3.2 on 2026-05-19 at 10:57:28
; total layer number: 60
; filament_density: 1.24
; filament_diameter: 1.75
; max_z_height: 12.00
; filament: 1
; HEADER_BLOCK_END

; THUMBNAIL_BLOCK_START

;
; THUMBNAIL_BLOCK_END

; THUMBNAIL_BLOCK_START

;
; THUMBNAIL_BLOCK_END

; external perimeters extrusion width = 0.40mm
; perimeters extrusion width = 0.40mm
; infill extrusion width = 0.40mm
; solid infill extrusion width = 0.40mm
; top infill extrusion width = 0.40mm
; support material extrusion width = 0.40mm
; first layer extrusion width = 0.40mm

; external perimeters extrusion width = 0.40mm
; perimeters extrusion width = 0.40mm
; infill extrusion width = 0.40mm
; solid infill extrusion width = 0.40mm
; top infill extrusion width = 0.40mm
; support material extrusion width = 0.40mm
; first layer extrusion width = 0.40mm

; EXECUTABLE_BLOCK_START
M73 P0 R95
M201 X1000 Y1000 Z200 E5000
M203 X200 Y200 Z10 E60
M204 P1250 R1250 T1250
M205 X8.00 Y8.00 Z0.40 E5.00 ; sets the jerk limits, mm/sec
M190 S60 ; set bed temperature and wait for it to be reached
M104 S220 ; set nozzle temperature
;TYPE:Custom
G21 ;metric values
G90 ;absolute positioning
M82 ;set extruder to absolute mode
M107 ;start with the fan off
G28 X0 Y0 ;move X/Y to min endstops
G28 Z0 ;move Z to min endstops
G0 Z0.2 F1800 ; move nozzle to print position
G92 E0 ; specify current extruder position as zero
G1 Y10 X180 E50 F1200 ; extrude a line in front of the printer
G92 E0 ; specify current extruder position as zero
G0 Z20 F6000 ; move head up
G1 E-7 F2400 ; retract
G04 S2 ; wait 2s
G0 X0 F6000 ; wipe from oozed filament
G1 E-1 F2400 ; undo some of the retraction to avoid oozing
G1 F6000 ; set travel speed to move to start printing point
M117
G90
G21
M83 ; use relative distances for extrusion
; filament start gcode
M106 S0
;LAYER_CHANGE
;Z:0.2
;HEIGHT:0.2
;BEFORE_LAYER_CHANGE 
G92 E0.0 
;0.2
G1 E-3 F2400
;AFTER_LAYER_CHANGE
;0.2
;_SET_FAN_SPEED_CHANGING_LAYER
M204 S1000
G1 Z.6 F9600
G1 X66.993 Y73.079
G1 Z.6
G1 Z.2
G1 E3 F2400
;TYPE:Skirt
;WIDTH:0.4
G1 F3000
G1 X67.41 Y72.838 E.014
G1 X69.788 Y71.725 E.07639
G1 X71.995 Y70.906 E.06851
G1 X74.524 Y70.199 E.07639
G1 X77.104 Y69.713 E.0764
G1 X79.716 Y69.453 E.07639
G1 X81.255 Y69.405 E.04479
G1 X177.555 Y70.036 E2.80214
G1 X180.321 Y70.185 E.0806
G1 X182.653 Y70.509 E.06851
G1 X183.94 Y70.769 E.03821
G1 X186.732 Y71.537 E.08428
G1 X189.19 Y72.461 E.07639
G1 X191.558 Y73.595 E.0764
G1 X192.703 Y74.238 E.03821
G1 X194.682 Y75.513 E.06851
G1 X196.972 Y77.287 E.08428
G1 X198.892 Y79.078 E.07639
G1 X200.65 Y81.028 E.0764
G1 X202.077 Y82.9 E.06851
G1 X202.808 Y83.991 E.03821
G1 X204.25 Y86.503 E.08428
G1 X205.343 Y88.89 E.0764
G1 X206.226 Y91.363 E.0764
G1 X206.832 Y93.638 E.06851
G1 X207.093 Y94.925 E.03821
G1 X207.469 Y97.797 E.08428
G1 X207.571 Y100.42 E.07639
G1 X207.477 Y104.472 E.11792
G1 X207.208 Y108.515 E.11792
G1 X206.798 Y112.274 E.11003
G1 X206.144 Y116.548 E.12581
G1 X205.351 Y120.523 E.11792
G1 X204.387 Y124.459 E.11792
G1 X203.254 Y128.35 E.11792
G1 X201.952 Y132.188 E.11792
G1 X200.588 Y135.714 E.11003
G1 X198.969 Y139.43 E.11792
G1 X197.191 Y143.071 E.11792
G1 X195.121 Y146.867 E.12581
G1 X193.169 Y150.106 E.11003
G1 X191.037 Y153.328 E.11242
G1 X188.552 Y156.765 E.12342
G1 X186.031 Y159.938 E.11792
G1 X183.193 Y163.2 E.12581
G1 X180.398 Y166.134 E.11792
G1 X177.478 Y168.945 E.11792
G1 X174.439 Y171.626 E.11792
G1 X171.287 Y174.173 E.11792
G1 X168.027 Y176.58 E.11792
G1 X164.666 Y178.844 E.11792
G1 X161.209 Y180.96 E.11792
G1 X157.664 Y182.924 E.11792
G1 X154.038 Y184.732 E.11792
G1 X150.586 Y186.276 E.11003
G1 X146.82 Y187.774 E.11792
G1 X142.993 Y189.107 E.11792
G1 X139.112 Y190.273 E.11792
G1 X137.075 Y190.53 E.05973
G1 X121.158 Y189.899 E.46352
G1 X119.616 Y189.642 E.04548
G1 X115.735 Y188.476 E.11792
G1 X111.908 Y187.143 E.11792
G1 X108.392 Y185.751 E.11003
G1 X104.69 Y184.101 E.11792
G1 X101.063 Y182.293 E.11792
G1 X97.284 Y180.192 E.12581
G1 X93.834 Y178.066 E.11792
G1 X90.48 Y175.793 E.11792
G1 X87.227 Y173.376 E.11792
G1 X84.289 Y170.995 E.11003
G1 X81.25 Y168.314 E.11792
G1 X78.33 Y165.503 E.11792
G1 X75.353 Y162.368 E.12581
G1 X72.697 Y159.307 E.11792
G1 X70.34 Y156.35 E.11003
G1 X67.795 Y152.855 E.12581
G1 X65.559 Y149.475 E.11792
G1 X63.471 Y146.001 E.11792
G1 X61.537 Y142.441 E.11792
G1 X59.872 Y139.045 E.11003
G1 X58.14 Y135.084 E.12581
G1 X56.684 Y131.302 E.11792
G1 X55.393 Y127.46 E.11792
G1 X54.271 Y123.566 E.11792
G1 X53.376 Y119.892 E.11003
G1 X52.537 Y115.651 E.12581
G1 X51.93 Y111.644 E.11792
G1 X51.52 Y107.885 E.11003
G1 X51.239 Y103.57 E.12581
G1 X51.191 Y98.206 E.15609
G1 X51.395 Y95.86 E.06851
G1 X51.837 Y93.272 E.07639
G1 X52.502 Y90.732 E.07639
G1 X53.009 Y89.231 E.0461
G1 X53.906 Y87.054 E.06851
G1 X55.102 Y84.717 E.07639
G1 X56.496 Y82.492 E.0764
G1 X58.078 Y80.397 E.07639
G1 X59.118 Y79.202 E.0461
G1 X60.976 Y77.347 E.0764
G1 X62.987 Y75.659 E.07639
G1 X65.137 Y74.152 E.0764
G1 X66.959 Y73.099 E.06123
G1 X67.137 Y73.407 F9600
G1 F3000
G1 X67.57 Y73.157 E.01453
G1 X69.919 Y72.057 E.07549
G1 X72.356 Y71.165 E.07549
G1 X74.86 Y70.488 E.07549
G1 X77.161 Y70.065 E.06806
G1 X79.742 Y69.809 E.07549
G1 X81.253 Y69.762 E.04396
G1 X177.552 Y70.393 E2.80214
G1 X180.279 Y70.54 E.07945
M73 P0 R94
G1 X182.596 Y70.862 E.06806
G1 X183.868 Y71.118 E.03776
G1 X186.616 Y71.874 E.08293
G1 X189.044 Y72.787 E.07549
G1 X191.385 Y73.907 E.0755
G1 X192.516 Y74.542 E.03776
G1 X194.482 Y75.809 E.06805
G1 X196.735 Y77.554 E.08293
G1 X198.633 Y79.323 E.07549
G1 X200.37 Y81.25 E.07549
G1 X201.788 Y83.111 E.06806
G1 X202.51 Y84.189 E.03775
G1 X203.811 Y86.433 E.07549
G1 X205.01 Y89.019 E.08293
G1 X205.883 Y91.462 E.07549
G1 X206.485 Y93.722 E.06806
G1 X206.742 Y94.994 E.03776
G1 X207.09 Y97.565 E.07549
G1 X207.214 Y100.413 E.08293
G1 X207.121 Y104.449 E.11747
G1 X206.875 Y108.222 E.11003
G1 X206.443 Y112.236 E.11747
G1 X205.838 Y116.227 E.11747
G1 X205.06 Y120.189 E.11747
G1 X204.044 Y124.36 E.12491
G1 X202.915 Y128.236 E.11747
G1 X201.619 Y132.059 E.11747
G1 X200.255 Y135.586 E.11003
G1 X198.642 Y139.287 E.11747
G1 X196.753 Y143.141 E.12491
G1 X194.816 Y146.683 E.11747
G1 X192.863 Y149.921 E.11003
G1 X190.74 Y153.131 E.11197
G1 X188.263 Y156.555 E.12296
G1 X185.752 Y159.716 E.11747
G1 X183.106 Y162.765 E.11747
G1 X180.33 Y165.696 E.11747
G1 X177.241 Y168.677 E.12491
G1 X174.214 Y171.348 E.11747
G1 X171.074 Y173.886 E.11747
G1 X167.827 Y176.284 E.11747
G1 X164.479 Y178.54 E.11747
G1 X161.036 Y180.648 E.11747
G1 X157.505 Y182.605 E.11747
G1 X153.892 Y184.406 E.11747
G1 X150.44 Y185.95 E.11003
G1 X146.689 Y187.442 E.11747
G1 X142.876 Y188.77 E.11747
G1 X139.01 Y189.931 E.11747
G1 X137.089 Y190.173 E.05632
G1 X121.172 Y189.542 E.46352
G1 X119.718 Y189.3 E.04288
G1 X115.852 Y188.139 E.11747
G1 X112.279 Y186.9 E.11003
G1 X108.524 Y185.419 E.11747
G1 X104.836 Y183.775 E.11747
G1 X101.223 Y181.974 E.11747
G1 X97.471 Y179.888 E.12491
G1 X94.249 Y177.909 E.11003
G1 X90.901 Y175.654 E.11747
G1 X87.654 Y173.255 E.11747
G1 X84.514 Y170.718 E.11747
G1 X81.486 Y168.047 E.11747
G1 X78.578 Y165.247 E.11747
G1 X75.622 Y162.134 E.12491
G1 X73.14 Y159.281 E.11003
G1 X70.619 Y156.128 E.11747
G1 X68.093 Y152.657 E.12491
G1 X65.865 Y149.291 E.11747
G1 X63.912 Y146.052 E.11003
G1 X61.975 Y142.511 E.11747
G1 X60.193 Y138.888 E.11747
G1 X58.473 Y134.955 E.12491
G1 X57.022 Y131.188 E.11747
G1 X55.736 Y127.361 E.11747
G1 X54.683 Y123.729 E.11003
G1 X53.723 Y119.808 E.11747
G1 X52.89 Y115.597 E.12491
G1 X52.318 Y111.859 E.11003
G1 X51.875 Y107.846 E.11747
G1 X51.596 Y103.562 E.12491
G1 X51.548 Y98.229 E.15519
G1 X51.75 Y95.899 E.06806
G1 X52.188 Y93.341 E.07549
G1 X52.845 Y90.832 E.07549
G1 X53.718 Y88.388 E.07549
G1 X54.799 Y86.03 E.07549
G1 X55.543 Y84.666 E.0452
G1 X56.794 Y82.69 E.06806
G1 X58.357 Y80.62 E.07549
G1 X59.377 Y79.448 E.0452
G1 X61.212 Y77.614 E.07549
G1 X63.2 Y75.946 E.07549
G1 X65.324 Y74.457 E.07549
G1 X67.103 Y73.427 E.0598
G1 X67.281 Y73.736 F9600
G1 F3000
G1 X67.729 Y73.476 E.01506
G1 X70.051 Y72.389 E.07459
G1 X72.229 Y71.581 E.06761
G1 X74.698 Y70.891 E.07459
G1 X77.218 Y70.418 E.07459
G1 X79.768 Y70.165 E.07459
G1 X81.25 Y70.119 E.04314
G1 X177.55 Y70.75 E2.80214
G1 X180.238 Y70.894 E.07831
G1 X182.539 Y71.214 E.0676
G1 X183.796 Y71.468 E.03731
G1 X186.499 Y72.212 E.08158
G1 X188.898 Y73.113 E.07459
G1 X191.211 Y74.219 E.07459
G1 X192.329 Y74.847 E.0373
G1 X194.282 Y76.105 E.0676
G1 X196.499 Y77.822 E.08158
G1 X198.374 Y79.569 E.07459
G1 X200.091 Y81.473 E.07459
G1 X201.5 Y83.321 E.06761
G1 X202.213 Y84.386 E.0373
G1 X203.608 Y86.818 E.08158
G1 X204.677 Y89.148 E.07459
G1 X205.54 Y91.562 E.07459
G1 X206.138 Y93.807 E.0676
G1 X206.392 Y95.063 E.0373
G1 X206.756 Y97.843 E.08158
G1 X206.857 Y100.405 E.07459
G1 X206.765 Y104.425 E.11702
G1 X206.518 Y108.199 E.11003
G1 X206.088 Y112.197 E.11702
G1 X205.485 Y116.173 E.11702
G1 X204.709 Y120.119 E.11702
G1 X203.702 Y124.26 E.12401
G1 X202.577 Y128.121 E.11702
G1 X201.286 Y131.93 E.11702
G1 X199.922 Y135.457 E.11003
G1 X198.315 Y139.144 E.11702
G1 X196.55 Y142.757 E.11702
G1 X194.51 Y146.499 E.12401
G1 X192.557 Y149.737 E.11003
G1 X190.442 Y152.933 E.11152
G1 X187.975 Y156.345 E.12251
G1 X185.473 Y159.493 E.11702
G1 X182.836 Y162.53 E.11702
G1 X180.071 Y165.45 E.11702
G1 X177.005 Y168.41 E.12401
G1 X173.989 Y171.071 E.11702
G1 X170.862 Y173.599 E.11702
G1 X167.627 Y175.988 E.11702
G1 X164.292 Y178.236 E.11702
G1 X160.862 Y180.336 E.11702
G1 X157.345 Y182.285 E.11702
G1 X153.746 Y184.08 E.11702
G1 X150.294 Y185.624 E.11003
G1 X146.557 Y187.11 E.11702
G1 X142.759 Y188.432 E.11702
G1 X138.907 Y189.589 E.11702
G1 X137.104 Y189.816 E.0529
G1 X121.186 Y189.185 E.46352
G1 X119.82 Y188.958 E.04028
G1 X115.969 Y187.802 E.11702
G1 X112.396 Y186.563 E.11003
G1 X108.655 Y185.087 E.11702
G1 X104.982 Y183.449 E.11702
G1 X101.383 Y181.655 E.11702
G1 X97.658 Y179.584 E.12401
G1 X94.436 Y177.605 E.11003
G1 X91.101 Y175.358 E.11702
G1 X87.866 Y172.968 E.11702
G1 X84.738 Y170.44 E.11702
G1 X81.723 Y167.779 E.11702
G1 X78.826 Y164.99 E.11702
G1 X75.891 Y161.899 E.12401
G1 X73.409 Y159.047 E.11003
G1 X70.899 Y155.905 E.11702
G1 X68.39 Y152.46 E.12401
G1 X66.171 Y149.106 E.11702
G1 X64.098 Y145.66 E.11702
G1 X62.178 Y142.126 E.11702
G1 X60.514 Y138.731 E.11003
G1 X58.806 Y134.826 E.12401
G1 X57.36 Y131.073 E.11702
G1 X56.079 Y127.261 E.11702
G1 X55.026 Y123.629 E.11003
G1 X54.07 Y119.723 E.11702
G1 X53.243 Y115.542 E.12401
G1 X52.64 Y111.566 E.11702
G1 X52.23 Y107.807 E.11003
G1 X51.953 Y103.555 E.12401
G1 X51.904 Y98.252 E.15429
G1 X52.105 Y95.937 E.06761
G1 X52.538 Y93.411 E.07459
G1 X53.188 Y90.931 E.07459
G1 X54.051 Y88.517 E.07459
G1 X55.12 Y86.187 E.07459
G1 X55.848 Y84.851 E.04429
G1 X57.091 Y82.887 E.06761
G1 X58.637 Y80.842 E.07459
G1 X59.636 Y79.694 E.04429
G1 X61.449 Y77.881 E.07459
G1 X63.412 Y76.233 E.07459
G1 X65.511 Y74.761 E.07459
G1 X67.247 Y73.756 E.05837
G1 X67.414 Y74.072 F9600
G1 F3000
G1 X68.821 Y73.33 E.04629
G1 X71.151 Y72.338 E.07369
G1 X72.56 Y71.849 E.04339
G1 X75.004 Y71.187 E.07369
G1 X77.274 Y70.77 E.06716
G1 X79.795 Y70.521 E.07369
G1 X81.248 Y70.476 E.04231
G1 X177.548 Y71.107 E2.80214
G1 X180.196 Y71.249 E.07717
G1 X182.482 Y71.567 E.06715
G1 X183.723 Y71.818 E.03685
G1 X186.382 Y72.549 E.08022
G1 X187.577 Y72.968 E.03685
G1 X189.704 Y73.864 E.06715
G1 X191.948 Y75.037 E.07369
G1 X194.266 Y76.531 E.08023
G1 X196.09 Y77.944 E.06715
G1 X197.042 Y78.78 E.03685
G1 X198.984 Y80.737 E.08022
G1 X199.812 Y81.695 E.03685
G1 X201.211 Y83.531 E.06715
G1 X202.686 Y85.861 E.08022
G1 X204.254 Y89.059 E.10365
G1 X205.13 Y91.447 E.074
G1 X205.84 Y94.111 E.08022
G1 X206.081 Y95.354 E.03685
G1 X206.38 Y97.643 E.06715
G1 X206.5 Y100.172 E.07369
G1 X206.418 Y104.178 E.11657
G1 X206.143 Y108.399 E.1231
G1 X205.704 Y112.381 E.11657
G1 X205.093 Y116.341 E.11657
G1 X204.359 Y120.05 E.11003
G1 X203.416 Y123.944 E.11657
G1 X202.306 Y127.793 E.11657
G1 X200.953 Y131.801 E.1231
G1 X199.503 Y135.536 E.11657
G1 X197.894 Y139.204 E.11657
G1 X196.229 Y142.6 E.11003
G1 X194.316 Y146.119 E.11657
G1 X192.252 Y149.553 E.11657
G1 X190.04 Y152.893 E.11657
G1 X187.55 Y156.313 E.1231
G1 X185.05 Y159.443 E.11657
G1 X182.567 Y162.296 E.11003
G1 X179.812 Y165.204 E.11657
G1 X176.933 Y167.99 E.11657
G1 X173.765 Y170.794 E.12311
G1 X170.649 Y173.312 E.11657
G1 X167.611 Y175.563 E.11003
G1 X164.294 Y177.809 E.11657
G1 X160.883 Y179.91 E.11657
G1 X157.384 Y181.861 E.11657
G1 X153.803 Y183.658 E.11657
G1 X150.148 Y185.298 E.11657
G1 X146.426 Y186.778 E.11657
G1 X142.642 Y188.095 E.11657
G1 X138.805 Y189.246 E.11657
G1 X137.118 Y189.459 E.04949
G1 X121.2 Y188.828 E.46352
G1 X119.923 Y188.616 E.03768
G1 X116.086 Y187.464 E.11657
G1 X112.302 Y186.147 E.11657
G1 X108.579 Y184.667 E.11657
G1 X104.924 Y183.027 E.11657
G1 X101.543 Y181.335 E.11003
G1 X98.039 Y179.393 E.11657
G1 X94.623 Y177.301 E.11657
G1 X91.117 Y174.932 E.12311
G1 X87.901 Y172.543 E.11657
G1 X84.792 Y170.018 E.11657
G1 X81.795 Y167.359 E.11657
G1 X78.916 Y164.573 E.11657
G1 X76.312 Y161.831 E.11003
G1 X73.678 Y158.813 E.11657
G1 X71.042 Y155.504 E.12311
G1 X68.688 Y152.262 E.11657
G1 X66.597 Y149.112 E.11003
G1 X64.412 Y145.489 E.1231
G1 X62.499 Y141.969 E.11657
G1 X60.74 Y138.37 E.11657
G1 X59.224 Y134.905 E.11003
G1 X57.775 Y131.171 E.11657
G1 X56.422 Y127.162 E.1231
G1 X55.311 Y123.313 E.11657
G1 X54.369 Y119.419 E.11657
G1 X53.635 Y115.71 E.11003
G1 X53.024 Y111.751 E.11657
G1 X52.585 Y107.769 E.11657
G1 X52.32 Y103.771 E.11657
G1 X52.228 Y99.542 E.12311
G1 X52.328 Y97.236 E.06715
G1 X52.489 Y95.753 E.04339
G1 X52.888 Y93.48 E.06715
G1 X53.241 Y92.031 E.04339
G1 X54.008 Y89.618 E.07369
G1 X54.887 Y87.484 E.06715
G1 X55.543 Y86.145 E.04339
G1 X56.812 Y83.953 E.07369
G1 X58.267 Y81.879 E.07369
G1 X59.744 Y80.106 E.06715
G1 X61.52 Y78.302 E.07369
G1 X62.637 Y77.313 E.04339
G1 X64.645 Y75.77 E.07369
G1 X66.78 Y74.407 E.07369
G1 X67.378 Y74.091 E.0197
; printing object seg1_shell-side_r.stl id:6350129655775965748 copy 0
G1 E-2.2 F2400
;WIPE_START
G1 F3000
G1 X68.263 Y73.624 E-.8
;WIPE_END
G1 Z.6 F9600
G1 X138.458 Y182.76 Z.6
G1 Z.2
G1 E3 F2400
;TYPE:Inner wall
;WIDTH:0.399999
G1 F3000
G1 X138.458 Y112.678 E2.0392
G1 X159.352 Y86.148 E.98262
G1 X159.991 Y85.372 E.02924
G1 X160.655 Y84.634 E.02888
G1 X161.35 Y83.925 E.02888
G1 X162.075 Y83.248 E.02888
G1 X162.828 Y82.602 E.02888
G1 X163.609 Y81.989 E.02888
G1 X164.416 Y81.412 E.02888
G1 X165.248 Y80.869 E.02888
G1 X166.101 Y80.364 E.02888
G1 X166.977 Y79.895 E.02888
G1 X167.871 Y79.465 E.02888
G1 X168.784 Y79.075 E.02888
G1 X169.712 Y78.724 E.02888
G1 X170.655 Y78.414 E.02888
G1 X171.61 Y78.146 E.02888
G1 X172.577 Y77.919 E.02888
G1 X173.552 Y77.734 E.02888
G1 X174.534 Y77.591 E.02888
G1 X175.521 Y77.492 E.02888
G1 X176.512 Y77.435 E.02888
G1 X177.505 Y77.421 E.02888
G1 X178.446 Y77.449 E.0274
G1 X179.488 Y77.523 E.03039
G1 X180.472 Y77.639 E.02884
G1 X181.452 Y77.797 E.02888
G1 X182.424 Y77.997 E.02888
G1 X183.387 Y78.239 E.02888
G1 X184.338 Y78.523 E.02888
G1 X185.276 Y78.848 E.02888
G1 X186.198 Y79.214 E.02888
G1 X187.104 Y79.619 E.02888
G1 X187.992 Y80.063 E.02888
G1 X188.86 Y80.545 E.02888
G1 X189.706 Y81.064 E.02888
G1 X190.528 Y81.62 E.02888
G1 X191.326 Y82.21 E.02888
G1 X192.097 Y82.835 E.02888
G1 X192.84 Y83.493 E.02888
G1 X193.554 Y84.182 E.02888
G1 X194.238 Y84.901 E.02888
G1 X194.89 Y85.65 E.02888
G1 X195.508 Y86.426 E.02888
G1 X196.092 Y87.228 E.02888
G1 X196.641 Y88.055 E.02888
G1 X197.154 Y88.905 E.02888
G1 X197.629 Y89.777 E.02888
G1 X198.044 Y90.622 E.0274
G1 X198.464 Y91.578 E.03039
G1 X198.822 Y92.503 E.02885
G1 X199.139 Y93.443 E.02888
G1 X199.416 Y94.396 E.02888
G1 X199.65 Y95.361 E.02888
G1 X199.843 Y96.334 E.02888
G1 X199.993 Y97.315 E.02888
G1 X200.113 Y98.494 E.03448
G1 X200.169 Y99.485 E.02888
G1 X200.187 Y100.285 E.02327
G1 X200.106 Y104.016 E.10859
G1 X199.863 Y107.74 E.10859
G1 X199.459 Y111.45 E.10859
M73 P1 R94
G1 X198.894 Y115.139 E.1086
G1 X198.17 Y118.8 E.10859
G1 X197.287 Y122.427 E.10859
G1 X196.248 Y126.011 E.10859
G1 X195.055 Y129.547 E.10859
G1 X193.709 Y133.028 E.1086
