; HEADER_BLOCK_START
; generated by OrcaSlicer 2.3.2 on 2026-05-19 at 10:57:33
; total layer number: 40
; filament_density: 1.24
; filament_diameter: 1.75
; max_z_height: 8.00
; filament: 1
; HEADER_BLOCK_END

; THUMBNAIL_BLOCK_START

;
; THUMBNAIL_BLOCK_END

; THUMBNAIL_BLOCK_START

;
; THUMBNAIL_BLOCK_END

; external perimeters extrusion width = 0.40mm
; perimeters extrusion width = 0.40mm
; infill extrusion width = 0.40mm
; solid infill extrusion width = 0.40mm
; top infill extrusion width = 0.40mm
; support material extrusion width = 0.40mm
; first layer extrusion width = 0.40mm

; external perimeters extrusion width = 0.40mm
; perimeters extrusion width = 0.40mm
; infill extrusion width = 0.40mm
; solid infill extrusion width = 0.40mm
; top infill extrusion width = 0.40mm
; support material extrusion width = 0.40mm
; first layer extrusion width = 0.40mm

; EXECUTABLE_BLOCK_START
M73 P0 R147
M201 X1000 Y1000 Z200 E5000
M203 X200 Y200 Z10 E60
M204 P1250 R1250 T1250
M205 X8.00 Y8.00 Z0.40 E5.00 ; sets the jerk limits, mm/sec
M190 S60 ; set bed temperature and wait for it to be reached
M104 S220 ; set nozzle temperature
;TYPE:Custom
G21 ;metric values
G90 ;absolute positioning
M82 ;set extruder to absolute mode
M107 ;start with the fan off
G28 X0 Y0 ;move X/Y to min endstops
G28 Z0 ;move Z to min endstops
G0 Z0.2 F1800 ; move nozzle to print position
G92 E0 ; specify current extruder position as zero
G1 Y10 X180 E50 F1200 ; extrude a line in front of the printer
G92 E0 ; specify current extruder position as zero
G0 Z20 F6000 ; move head up
G1 E-7 F2400 ; retract
G04 S2 ; wait 2s
G0 X0 F6000 ; wipe from oozed filament
G1 E-1 F2400 ; undo some of the retraction to avoid oozing
G1 F6000 ; set travel speed to move to start printing point
M117
G90
G21
M83 ; use relative distances for extrusion
; filament start gcode
M106 S0
;LAYER_CHANGE
;Z:0.2
;HEIGHT:0.2
;BEFORE_LAYER_CHANGE 
G92 E0.0 
;0.2
G1 E-3 F2400
;AFTER_LAYER_CHANGE
;0.2
;_SET_FAN_SPEED_CHANGING_LAYER
M204 S1000
G1 Z.6 F9600
G1 X48.985 Y80.698
G1 Z.6
G1 Z.2
G1 E3 F2400
;TYPE:Skirt
;WIDTH:0.4
G1 F3000
G1 X50.208 Y80.618 E.03567
G1 X198.495 Y80.617 E4.31478
G1 X201.271 Y80.799 E.08095
G1 X203.279 Y81.141 E.05927
G1 X205.25 Y81.657 E.05927
G1 X207.168 Y82.342 E.05927
G1 X209.019 Y83.192 E.05927
G1 X210.789 Y84.201 E.05927
G1 X212.453 Y85.351 E.05885
G1 X214.032 Y86.659 E.05969
G1 X215.481 Y88.091 E.05927
G1 X216.799 Y89.644 E.05927
G1 X218.093 Y91.489 E.06557
G1 X219.132 Y93.305 E.06089
G1 X219.982 Y95.156 E.05927
G1 X220.668 Y97.075 E.05927
G1 X221.183 Y99.045 E.05927
G1 X221.606 Y101.795 E.08095
G1 X221.708 Y104.058 E.06593
G1 X220.982 Y153.042 E1.42546
G1 X220.88 Y155.12 E.06054
G1 X220.602 Y157.138 E.05927
G1 X219.941 Y159.84 E.08095
G1 X218.868 Y162.655 E.08766
G1 X217.785 Y164.741 E.0684
G1 X216.239 Y167.054 E.08095
G1 X214.239 Y169.362 E.08887
G1 X212.536 Y170.923 E.0672
G1 X210.063 Y172.714 E.08887
G1 X207.623 Y174.052 E.08095
G1 X205.49 Y174.936 E.06719
G1 X202.819 Y175.714 E.08095
G1 X200.545 Y176.115 E.06719
G1 X197.783 Y176.297 E.08053
G1 X48.478 Y176.269 E4.34441
G1 X45.444 Y175.919 E.08887
G1 X42.482 Y175.176 E.08887
G1 X39.642 Y174.052 E.08887
G1 X36.972 Y172.568 E.08887
G1 X34.52 Y170.747 E.08887
G1 X32.326 Y168.623 E.08887
G1 X30.428 Y166.229 E.08887
G1 X29.48 Y164.741 E.05134
G1 X28.548 Y162.977 E.05806
G1 X27.646 Y160.807 E.0684
G1 X26.867 Y158.136 E.08095
G1 X26.466 Y155.862 E.06719
G1 X26.284 Y153.086 E.08095
G1 X27.011 Y103.829 E1.43339
G1 X27.088 Y102.066 E.05134
G1 X27.282 Y100.41 E.04853
G1 X27.841 Y97.791 E.07793
G1 X28.84 Y94.905 E.08886
G1 X30.207 Y92.173 E.08887
G1 X31.752 Y89.86 E.08095
G1 X33.237 Y88.091 E.06719
G1 X35.413 Y86.028 E.08725
G1 X37.699 Y84.347 E.08257
G1 X40.368 Y82.862 E.08887
G1 X42.501 Y81.979 E.06719
G1 X45.172 Y81.2 E.08095
G1 X47.447 Y80.799 E.06719
G1 X48.945 Y80.701 E.0437
G1 X48.969 Y81.057 F9600
G1 F3000
G1 X50.217 Y80.975 E.0364
G1 X198.487 Y80.974 E4.3143
G1 X201.232 Y81.154 E.08004
M73 P0 R146
G1 X203.21 Y81.491 E.05836
G1 X205.15 Y82 E.05836
G1 X207.039 Y82.675 E.05836
G1 X209.089 Y83.631 E.06583
G1 X210.821 Y84.644 E.05836
G1 X212.457 Y85.804 E.05836
G1 X213.986 Y87.101 E.05836
G1 X215.397 Y88.528 E.05836
G1 X216.677 Y90.071 E.05836
G1 X217.789 Y91.675 E.05676
G1 X218.812 Y93.463 E.05996
G1 X219.649 Y95.286 E.05836
G1 X220.325 Y97.175 E.05836
G1 X220.833 Y99.115 E.05836
G1 X221.252 Y101.834 E.08004
G1 X221.351 Y104.053 E.06464
G1 X220.625 Y153.037 E1.42546
G1 X220.525 Y155.081 E.05956
G1 X220.252 Y157.068 E.05836
G1 X219.598 Y159.74 E.08004
G1 X218.541 Y162.511 E.0863
G1 X217.479 Y164.556 E.06704
G1 X215.951 Y166.843 E.08004
G1 X213.981 Y169.115 E.08751
G1 X212.313 Y170.644 E.06584
G1 X209.877 Y172.409 E.08751
G1 X207.466 Y173.732 E.08004
G1 X205.375 Y174.598 E.06583
G1 X202.734 Y175.368 E.08004
G1 X200.506 Y175.761 E.06583
G1 X197.775 Y175.94 E.07965
G1 X48.501 Y175.913 E4.34348
G1 X45.513 Y175.569 E.08751
G1 X42.596 Y174.838 E.08751
G1 X39.799 Y173.732 E.08751
G1 X37.171 Y172.271 E.08751
G1 X34.755 Y170.479 E.08751
G1 X32.595 Y168.387 E.08751
G1 X30.725 Y166.031 E.08751
G1 X29.786 Y164.556 E.05089
G1 X28.868 Y162.819 E.05716
G1 X27.984 Y160.692 E.06704
G1 X27.214 Y158.051 E.08004
G1 X26.821 Y155.823 E.06583
G1 X26.641 Y153.078 E.08004
G1 X27.368 Y103.837 E1.43294
G1 X27.444 Y102.09 E.05089
G1 X27.635 Y100.461 E.04771
G1 X28.184 Y97.891 E.07648
G1 X29.167 Y95.048 E.08751
G1 X30.512 Y92.359 E.08751
G1 X32.04 Y90.071 E.08004
G1 X33.495 Y88.338 E.06584
G1 X35.637 Y86.306 E.08591
G1 X37.897 Y84.644 E.08164
G1 X40.526 Y83.183 E.08751
G1 X42.616 Y82.317 E.06583
G1 X45.257 Y81.547 E.08004
G1 X47.485 Y81.154 E.06583
G1 X48.929 Y81.059 E.04208
G1 X48.952 Y81.415 F9600
G1 F3000
G1 X50.225 Y81.331 E.03713
G1 X198.48 Y81.331 E4.31382
G1 X201.194 Y81.509 E.07914
G1 X203.14 Y81.842 E.05746
G1 X205.05 Y82.342 E.05746
G1 X206.909 Y83.008 E.05746
G1 X208.703 Y83.833 E.05746
G1 X210.418 Y84.811 E.05746
G1 X212.032 Y85.928 E.05709
G1 X213.561 Y87.196 E.05783
G1 X214.965 Y88.585 E.05746
G1 X216.242 Y90.091 E.05746
G1 X217.484 Y91.861 E.0629
G1 X218.492 Y93.621 E.05903
G1 X219.316 Y95.415 E.05746
G1 X219.982 Y97.274 E.05746
G1 X220.483 Y99.184 E.05746
G1 X220.897 Y101.872 E.07913
G1 X220.994 Y104.048 E.06335
G1 X220.268 Y153.031 E1.42546
G1 X220.17 Y155.042 E.05858
G1 X219.902 Y156.998 E.05745
G1 X219.256 Y159.64 E.07914
G1 X218.214 Y162.367 E.08494
G1 X217.174 Y164.371 E.06568
G1 X215.663 Y166.632 E.07914
G1 X213.723 Y168.869 E.08615
G1 X212.089 Y170.366 E.06448
G1 X209.692 Y172.104 E.08615
G1 X207.308 Y173.412 E.07914
G1 X205.26 Y174.26 E.06448
G1 X202.649 Y175.021 E.07914
G1 X200.467 Y175.406 E.06448
G1 X197.766 Y175.583 E.07877
G1 X48.525 Y175.557 E4.34255
G1 X45.583 Y175.219 E.08615
G1 X42.711 Y174.5 E.08615
G1 X39.957 Y173.412 E.08615
G1 X37.369 Y171.974 E.08615
G1 X34.991 Y170.21 E.08615
G1 X32.863 Y168.152 E.08615
G1 X31.022 Y165.833 E.08615
G1 X30.091 Y164.371 E.05043
G1 X29.188 Y162.661 E.05625
G1 X28.322 Y160.577 E.06568
G1 X27.561 Y157.966 E.07914
G1 X27.176 Y155.784 E.06448
G1 X26.998 Y153.07 E.07914
G1 X27.725 Y103.845 E1.43248
G1 X27.8 Y102.113 E.05044
G1 X27.989 Y100.512 E.0469
G1 X28.527 Y97.991 E.07503
G1 X29.494 Y95.192 E.08615
G1 X30.817 Y92.544 E.08615
G1 X32.328 Y90.282 E.07914
G1 X33.753 Y88.585 E.06448
G1 X35.861 Y86.584 E.08458
G1 X38.096 Y84.941 E.08071
G1 X40.684 Y83.503 E.08615
G1 X42.731 Y82.655 E.06447
G1 X45.342 Y81.894 E.07914
G1 X47.524 Y81.509 E.06448
G1 X48.912 Y81.418 E.04047
G1 X48.936 Y81.774 F9600
G1 F3000
G1 X50.234 Y81.688 E.03787
G1 X198.472 Y81.688 E4.31335
G1 X201.155 Y81.864 E.07823
G1 X203.07 Y82.192 E.05655
G1 X204.95 Y82.685 E.05655
G1 X206.78 Y83.341 E.05655
G1 X208.545 Y84.153 E.05655
G1 X210.233 Y85.116 E.05655
G1 X211.821 Y86.216 E.0562
G1 X213.326 Y87.465 E.0569
G1 X214.86 Y88.998 E.06312
G1 X216.101 Y90.494 E.05655
G1 X217.179 Y92.047 E.055
G1 X218.171 Y93.779 E.0581
G1 X218.984 Y95.545 E.05655
G1 X219.639 Y97.374 E.05655
G1 X220.133 Y99.254 E.05655
G1 X220.542 Y101.911 E.07823
G1 X220.637 Y104.042 E.06207
G1 X219.91 Y153.026 E1.42546
G1 X219.815 Y155.003 E.0576
G1 X219.552 Y156.929 E.05655
G1 X218.913 Y159.54 E.07823
G1 X217.887 Y162.224 E.08358
G1 X216.869 Y164.186 E.06432
G1 X215.237 Y166.6 E.08479
G1 X213.305 Y168.781 E.08479
G1 X211.284 Y170.554 E.07823
G1 X209.507 Y171.798 E.06312
G1 X207.15 Y173.091 E.07823
G1 X205.146 Y173.922 E.06312
G1 X202.564 Y174.674 E.07823
G1 X200.428 Y175.051 E.06312
G1 X197.757 Y175.226 E.07788
G1 X48.548 Y175.2 E4.34162
G1 X45.653 Y174.868 E.08479
G1 X42.826 Y174.161 E.08479
G1 X40.115 Y173.091 E.08479
G1 X37.568 Y171.677 E.08479
G1 X35.226 Y169.942 E.08479
G1 X33.132 Y167.916 E.08479
G1 X31.319 Y165.634 E.08479
G1 X30.396 Y164.186 E.04998
G1 X29.508 Y162.503 E.05534
G1 X28.66 Y160.462 E.06432
G1 X27.908 Y157.881 E.07823
G1 X27.531 Y155.745 E.06312
G1 X27.355 Y153.062 E.07823
G1 X28.081 Y103.889 E1.43098
G1 X28.28 Y100.991 E.08452
G1 X28.811 Y98.309 E.07955
G1 X29.734 Y95.545 E.08479
G1 X31.004 Y92.935 E.08444
G1 X32.175 Y91.095 E.06346
G1 X34.011 Y88.832 E.08479
G1 X36.085 Y86.862 E.08324
G1 X38.294 Y85.238 E.07978
G1 X40.842 Y83.823 E.08479
G1 X42.846 Y82.993 E.06312
G1 X45.427 Y82.241 E.07823
G1 X47.563 Y81.864 E.06312
G1 X48.896 Y81.776 E.03885
; printing object seg3a.stl id:9223597437844506171 copy 0
G1 E-2.2 F2400
;WIPE_START
G1 F3000
G1 X49.893 Y81.711 E-.8
;WIPE_END
G1 Z.6 F9600
G1 X123.565 Y105.794 Z.6
G1 Z.2
G1 E3 F2400
;TYPE:Support
G1 F3000
G1 X123.565 Y102.451 E.09727
G1 X123.756 Y102.141 E.01057
G1 X123.962 Y101.879 E.00971
G1 X123.962 Y106.052 E.12142
G1 X124.111 Y106.213 E.00639
G1 X124.359 Y106.435 E.00967
G1 X124.359 Y101.496 E.14371
G1 X124.756 Y101.221 E.01404
G1 X124.756 Y106.71 E.15969
G1 X125.152 Y106.906 E.01288
G1 X125.152 Y101.025 E.17111
G1 X125.549 Y100.892 E.01218
G1 X125.549 Y107.039 E.17885
G1 X125.946 Y107.117 E.01177
G1 X125.946 Y100.814 E.1834
G1 X126.343 Y100.787 E.01157
G1 X126.343 Y107.144 E.18495
G1 X126.739 Y107.144 E.01154
G1 X126.739 Y100.787 E.18498
G1 X127.136 Y100.787 E.01154
G1 X127.136 Y107.144 E.18498
G1 X127.533 Y107.144 E.01154
G1 X127.533 Y100.787 E.18498
G1 X127.93 Y100.787 E.01154
G1 X127.93 Y107.144 E.18498
G1 X128.326 Y107.144 E.01154
G1 X128.326 Y100.787 E.18498
G1 X128.723 Y100.787 E.01154
G1 X128.723 Y107.144 E.18498
G1 X129.12 Y107.144 E.01154
G1 X129.12 Y100.787 E.18498
G1 X129.517 Y100.787 E.01154
G1 X129.517 Y107.144 E.18498
G1 X129.913 Y107.144 E.01154
G1 X129.913 Y100.787 E.18498
G1 X130.31 Y100.787 E.01154
G1 X130.31 Y107.144 E.18498
G1 X130.707 Y107.144 E.01154
G1 X130.707 Y100.787 E.18498
G1 X131.104 Y100.787 E.01154
G1 X131.104 Y107.144 E.18498
G1 X131.5 Y107.144 E.01154
G1 X131.5 Y100.787 E.18498
G1 X131.897 Y100.787 E.01154
G1 X131.897 Y107.144 E.18498
G1 X132.294 Y107.144 E.01154
G1 X132.294 Y100.787 E.18498
G1 X132.691 Y100.787 E.01154
G1 X132.691 Y107.144 E.18498
G1 X133.088 Y107.144 E.01154
G1 X133.088 Y100.787 E.18498
G1 X133.484 Y100.787 E.01154
G1 X133.484 Y107.144 E.18498
G1 X133.881 Y107.144 E.01154
G1 X133.881 Y100.787 E.18498
G1 X134.278 Y100.787 E.01154
G1 X134.278 Y107.144 E.18498
G1 X134.675 Y107.144 E.01154
G1 X134.675 Y100.787 E.18498
G1 X135.071 Y100.787 E.01154
G1 X135.071 Y107.144 E.18498
G1 X135.468 Y107.144 E.01154
G1 X135.468 Y100.787 E.18498
G1 X135.865 Y100.787 E.01154
G1 X135.865 Y107.144 E.18498
G1 X136.262 Y107.144 E.01154
G1 X136.262 Y100.787 E.18498
G1 X136.658 Y100.787 E.01154
G1 X136.658 Y107.144 E.18498
G1 X137.055 Y107.144 E.01154
G1 X137.055 Y100.787 E.18498
G1 X137.452 Y100.787 E.01154
G1 X137.452 Y107.144 E.18498
G1 X137.849 Y107.144 E.01154
G1 X137.849 Y100.787 E.18498
G1 X138.245 Y100.787 E.01154
G1 X138.245 Y107.144 E.18498
G1 X138.642 Y107.144 E.01154
G1 X138.642 Y100.787 E.18498
G1 X139.039 Y100.787 E.01154
G1 X139.039 Y107.144 E.18498
G1 X139.436 Y107.144 E.01154
G1 X139.436 Y100.787 E.18498
G1 X139.832 Y100.787 E.01154
G1 X139.832 Y107.144 E.18498
G1 X140.229 Y107.144 E.01154
G1 X140.229 Y100.787 E.18498
G1 X140.626 Y100.787 E.01154
G1 X140.626 Y107.144 E.18498
G1 X141.023 Y107.144 E.01154
G1 X141.023 Y100.787 E.18498
G1 X141.419 Y100.787 E.01154
G1 X141.419 Y107.144 E.18498
G1 X141.816 Y107.144 E.01154
G1 X141.816 Y100.787 E.18498
G1 X142.213 Y100.787 E.01154
G1 X142.213 Y107.144 E.18498
G1 X142.61 Y107.144 E.01154
G1 X142.61 Y100.787 E.18498
G1 X143.006 Y100.787 E.01154
G1 X143.006 Y107.144 E.18498
G1 X143.403 Y107.144 E.01154
G1 X143.403 Y100.787 E.18498
G1 X143.8 Y100.787 E.01154
G1 X143.8 Y107.144 E.18498
G1 X144.197 Y107.144 E.01154
G1 X144.197 Y100.787 E.18498
G1 X144.593 Y100.787 E.01154
G1 X144.593 Y107.144 E.18498
G1 X144.99 Y107.144 E.01154
G1 X144.99 Y100.787 E.18498
G1 X145.387 Y100.787 E.01154
G1 X145.387 Y107.144 E.18498
G1 X145.784 Y107.144 E.01154
G1 X145.784 Y100.787 E.18498
G1 X146.18 Y100.787 E.01154
G1 X146.18 Y107.144 E.18498
G1 X146.577 Y107.144 E.01154
G1 X146.577 Y100.787 E.18498
G1 X146.974 Y100.787 E.01154
G1 X146.974 Y107.144 E.18498
G1 X147.371 Y107.144 E.01154
G1 X147.371 Y100.787 E.18498
G1 X147.767 Y100.787 E.01154
G1 X147.767 Y107.144 E.18498
G1 X148.164 Y107.144 E.01154
G1 X148.164 Y100.787 E.18498
G1 X148.561 Y100.787 E.01154
G1 X148.561 Y107.144 E.18498
G1 X148.958 Y107.144 E.01154
G1 X148.958 Y100.787 E.18498
G1 X149.354 Y100.787 E.01154
G1 X149.354 Y107.144 E.18498
G1 X149.751 Y107.144 E.01154
G1 X149.751 Y100.787 E.18498
G1 X150.148 Y100.787 E.01154
G1 X150.148 Y107.144 E.18498
G1 X150.545 Y107.138 E.01155
G1 X150.545 Y100.793 E.18461
G1 X150.941 Y100.841 E.01163
G1 X150.941 Y107.09 E.18181
G1 X151.338 Y106.989 E.01191
G1 X151.338 Y100.942 E.17594
G1 X151.735 Y101.101 E.01244
G1 X151.735 Y106.83 E.1667
G1 X152.132 Y106.603 E.0133
G1 X152.132 Y101.328 E.15347
G1 X152.529 Y101.643 E.01474
G1 X152.529 Y106.288 E.13513
G1 X152.702 Y106.113 E.00717
G1 X152.925 Y105.839 E.01026
G1 X152.925 Y102.092 E.10905
G1 X153.178 Y102.498 E.01393
G1 X153.322 Y102.818 E.01022
G1 X153.322 Y105.505 E.07817
G1 X150.512 Y100.469 F9600
G1 F3000
G1 X150.816 Y100.496 E.00889
G1 X151.116 Y100.549 E.00888
G1 X151.411 Y100.628 E.00888
G1 X151.698 Y100.732 E.00888
G1 X151.975 Y100.861 E.00888
G1 X152.239 Y101.014 E.00888
G1 X152.49 Y101.189 E.00889
G1 X152.834 Y101.491 E.01332
G1 X153.04 Y101.716 E.0089
G1 X153.226 Y101.958 E.00887
G1 X153.39 Y102.216 E.00888
G1 X153.587 Y102.615 E.01296
G1 X153.697 Y102.913 E.00925
G1 X153.776 Y103.208 E.00888
G1 X153.829 Y103.509 E.00888
G1 X153.855 Y103.813 E.0089
G1 X153.845 Y104.271 E.0133
G1 X153.806 Y104.573 E.00888
G1 X153.74 Y104.871 E.00888
G1 X153.648 Y105.163 E.00888
G1 X153.531 Y105.445 E.00889
G1 X153.39 Y105.715 E.00888
G1 X153.226 Y105.973 E.00888
G1 X153.04 Y106.215 E.00888
G1 X152.723 Y106.546 E.01332
G1 X152.49 Y106.742 E.00888
G1 X152.25 Y106.91 E.00852
G1 X151.975 Y107.07 E.00925
G1 X151.698 Y107.199 E.00888
G1 X151.411 Y107.304 E.0089
G1 X151.116 Y107.382 E.00887
G1 X150.816 Y107.435 E.00888
G1 X150.354 Y107.466 E.01347
G1 X126.363 Y107.466 E.69807
G1 X126.054 Y107.452 E.00901
G1 X125.751 Y107.412 E.00888
G1 X125.453 Y107.346 E.00888
G1 X125.162 Y107.254 E.00889
G1 X124.88 Y107.137 E.00888
G1 X124.609 Y106.997 E.00888
G1 X124.351 Y106.832 E.0089
G1 X123.994 Y106.546 E.0133
G1 X123.779 Y106.33 E.00888
G1 X123.582 Y106.096 E.00888
G1 X123.407 Y105.846 E.00888
G1 X123.254 Y105.582 E.00889
G1 X123.125 Y105.305 E.00888
G1 X123.021 Y105.018 E.00888
G1 X122.942 Y104.723 E.00889
G1 X122.889 Y104.422 E.00888
G1 X122.859 Y103.966 E.01332
G1 X122.872 Y103.66 E.00888
G1 X122.912 Y103.358 E.00888
G1 X122.978 Y103.06 E.00888
G1 X123.07 Y102.768 E.00888
G1 X123.187 Y102.486 E.00888
G1 X123.401 Y102.096 E.01296
G1 X123.582 Y101.835 E.00925
G1 X123.779 Y101.601 E.00888
G1 X123.994 Y101.385 E.00888
G1 X124.228 Y101.189 E.00888
G1 X124.598 Y100.941 E.01296
G1 X124.88 Y100.794 E.00925
G1 X125.162 Y100.677 E.00888
G1 X125.453 Y100.585 E.00888
G1 X125.902 Y100.496 E.01332
G1 X126.363 Y100.466 E.01345
G1 X150.458 Y100.468 E.7011
G1 E-2.2 F2400
;WIPE_START
G1 F3000
G1 X150.816 Y100.496 E-.28708
G1 X151.116 Y100.549 E-.24424
G1 X151.411 Y100.628 E-.24426
