; HEADER_BLOCK_START
; generated by OrcaSlicer 2.3.2 on 2026-05-18 at 15:43:16
; total layer number: 140
; filament_density: 1.24
; filament_diameter: 1.75
; max_z_height: 28.00
; filament: 1
; HEADER_BLOCK_END

; THUMBNAIL_BLOCK_START

;
; THUMBNAIL_BLOCK_END

; THUMBNAIL_BLOCK_START

;
; THUMBNAIL_BLOCK_END

; external perimeters extrusion width = 0.40mm
; perimeters extrusion width = 0.40mm
; infill extrusion width = 0.40mm
; solid infill extrusion width = 0.40mm
; top infill extrusion width = 0.40mm
; support material extrusion width = 0.40mm
; first layer extrusion width = 0.40mm

; EXECUTABLE_BLOCK_START
M73 P0 R77
M201 X1000 Y1000 Z200 E5000
M203 X200 Y200 Z10 E60
M204 P1250 R1250 T1250
M205 X8.00 Y8.00 Z0.40 E5.00 ; sets the jerk limits, mm/sec
M190 S45 ; set bed temperature and wait for it to be reached
M104 S220 ; set nozzle temperature
;TYPE:Custom
G21 ;metric values
G90 ;absolute positioning
M82 ;set extruder to absolute mode
M107 ;start with the fan off
G28 X0 Y0 ;move X/Y to min endstops
G28 Z0 ;move Z to min endstops
G0 Z0.2 F1800 ; move nozzle to print position
G92 E0 ; specify current extruder position as zero
G1 Y10 X180 E50 F1200 ; extrude a line in front of the printer
G92 E0 ; specify current extruder position as zero
G0 Z20 F6000 ; move head up
G1 E-7 F2400 ; retract
G04 S2 ; wait 2s
G0 X0 F6000 ; wipe from oozed filament
G1 E-1 F2400 ; undo some of the retraction to avoid oozing
M73 P0 R76
G1 F6000 ; set travel speed to move to start printing point
M117
G90
G21
M83 ; use relative distances for extrusion
; filament start gcode
M106 S0
;LAYER_CHANGE
;Z:0.2
;HEIGHT:0.2
;BEFORE_LAYER_CHANGE 
G92 E0.0 
;0.2
G1 E-3 F2400
;AFTER_LAYER_CHANGE
;0.2
;_SET_FAN_SPEED_CHANGING_LAYER
M204 S1000
G1 Z.6 F9600
G1 X86.717 Y92.702
G1 Z.6
G1 Z.2
G1 E3 F2400
;TYPE:Skirt
;WIDTH:0.4
G1 F3000
G1 X88.551 Y92.509 E.05366
G1 X148.848 Y92.514 E1.75448
G1 X150.928 Y92.707 E.06078
G1 X151.899 Y92.927 E.02897
G1 X153.881 Y93.662 E.06151
G1 X155.7 Y94.738 E.06151
G1 X157.297 Y96.122 E.06151
G1 X158.036 Y96.965 E.0326
G1 X159.198 Y98.731 E.06151
G1 X160.027 Y100.675 E.06151
G1 X160.38 Y101.988 E.03954
G1 X161.789 Y108.518 E.1944
G1 X161.968 Y110.183 E.04873
G1 X161.93 Y131.737 E.62714
G1 X161.582 Y133.409 E.04972
G1 X161.342 Y134.051 E.01992
G1 X160.811 Y135.085 E.03383
G1 X159.717 Y136.483 E.05165
G1 X158.951 Y137.167 E.02988
G1 X158.276 Y137.639 E.02398
G1 X157.248 Y138.181 E.0338
G1 X156.217 Y138.546 E.03183
G1 X155.008 Y138.782 E.03583
G1 X154.118 Y138.833 E.02595
G1 X83.045 Y138.827 E2.06804
G1 X81.821 Y138.688 E.03585
G1 X80.828 Y138.427 E.02988
G1 X79.756 Y137.977 E.03383
G1 X79.16 Y137.64 E.01991
G1 X78.327 Y137.04 E.02988
G1 X77.72 Y136.483 E.02397
G1 X77.134 Y135.816 E.02584
G1 X76.556 Y134.967 E.02987
G1 X76.094 Y134.051 E.02987
G1 X75.755 Y133.082 E.02987
G1 X75.546 Y132.076 E.02988
G1 X75.474 Y131.255 E.02398
G1 X75.47 Y110.113 E.6152
G1 X75.577 Y108.889 E.03573
G1 X77.38 Y101.363 E.2252
G1 X77.948 Y99.716 E.05069
G1 X78.433 Y98.706 E.0326
G1 X78.942 Y97.85 E.02897
G1 X80.253 Y96.192 E.06151
G1 X81.839 Y94.795 E.06151
G1 X82.774 Y94.176 E.0326
G1 X83.649 Y93.703 E.02897
G1 X85.625 Y92.953 E.06151
G1 X86.678 Y92.711 E.03144
G1 X86.758 Y93.057 F9600
G1 F3000
G1 X86.766 Y93.055 E.00023
G1 X88.551 Y92.866 E.05225
G1 X148.832 Y92.871 E1.75401
G1 X150.849 Y93.055 E.05894
G1 X151.82 Y93.275 E.02897
G1 X153.741 Y93.99 E.05965
G1 X155.504 Y95.037 E.05965
G1 X157.051 Y96.381 E.05965
G1 X157.747 Y97.176 E.03074
G1 X158.877 Y98.886 E.05965
G1 X159.683 Y100.771 E.05964
G1 X160.031 Y102.063 E.03893
G1 X161.44 Y108.593 E.1944
G1 X161.611 Y110.183 E.04653
G1 X161.575 Y131.705 E.62624
G1 X161.242 Y133.302 E.04746
G1 X160.505 Y134.899 E.05118
G1 X159.465 Y136.23 E.04916
G1 X158.734 Y136.883 E.02852
G1 X158.084 Y137.338 E.02307
G1 X157.105 Y137.854 E.03222
G1 X156.124 Y138.201 E.03025
G1 X154.969 Y138.427 E.03425
G1 X154.118 Y138.476 E.02481
G1 X83.061 Y138.47 E2.06758
G1 X81.891 Y138.338 E.03426
G1 X80.943 Y138.089 E.02852
G1 X79.352 Y137.339 E.05117
G1 X78.556 Y136.766 E.02852
G1 X77.972 Y136.231 E.02306
G1 X77.417 Y135.598 E.02448
G1 X76.865 Y134.789 E.02851
G1 X76.424 Y133.914 E.02851
G1 X76.1 Y132.989 E.02851
G1 X75.9 Y132.03 E.02852
G1 X75.831 Y131.24 E.02308
G1 X75.827 Y110.113 E.61475
G1 X75.929 Y108.951 E.03392
G1 X77.727 Y101.447 E.22454
G1 X78.282 Y99.841 E.04945
G1 X78.739 Y98.888 E.03074
G1 X79.249 Y98.033 E.02897
G1 X80.522 Y96.427 E.05965
G1 X82.062 Y95.074 E.05964
G1 X82.943 Y94.491 E.03074
G1 X83.819 Y94.018 E.02897
G1 X85.736 Y93.292 E.05964
G1 X86.719 Y93.066 E.02934
G1 X86.799 Y93.413 F9600
G1 F3000
G1 X86.814 Y93.409 E.00047
G1 X88.552 Y93.223 E.05084
G1 X148.816 Y93.228 E1.75354
G1 X150.77 Y93.403 E.05709
G1 X151.741 Y93.623 E.02897
G1 X153.601 Y94.319 E.05778
G1 X155.307 Y95.335 E.05778
G1 X156.805 Y96.639 E.05778
G1 X157.459 Y97.386 E.02888
G1 X158.555 Y99.042 E.05779
G1 X159.339 Y100.866 E.05778
G1 X159.682 Y102.138 E.03833
G1 X161.123 Y108.825 E.19905
G1 X161.254 Y110.183 E.03969
G1 X161.219 Y131.674 E.62533
G1 X161.057 Y132.645 E.02864
G1 X160.736 Y133.648 E.03065
G1 X160.002 Y135.018 E.04521
G1 X159.538 Y135.622 E.02216
G1 X158.85 Y136.324 E.0286
G1 X157.474 Y137.278 E.04872
G1 X155.897 Y137.892 E.04924
G1 X154.931 Y138.072 E.02861
G1 X154.118 Y138.118 E.02368
G1 X83.077 Y138.113 E2.06713
G1 X81.961 Y137.988 E.03268
G1 X81.058 Y137.751 E.02716
G1 X79.544 Y137.037 E.04869
G1 X78.225 Y135.978 E.04923
G1 X77.616 Y135.27 E.02717
G1 X77.105 Y134.489 E.02715
G1 X76.701 Y133.649 E.02714
G1 X76.445 Y132.897 E.0231
G1 X76.188 Y131.224 E.04925
G1 X76.184 Y110.113 E.61429
G1 X76.28 Y109.013 E.03211
G1 X78.074 Y101.531 E.22388
G1 X78.617 Y99.966 E.04821
G1 X79.046 Y99.071 E.02888
G1 X79.556 Y98.216 E.02897
G1 X80.792 Y96.661 E.05778
G1 X82.285 Y95.353 E.05778
G1 X83.113 Y94.805 E.02888
G1 X83.989 Y94.332 E.02897
G1 X85.847 Y93.631 E.05778
G1 X86.76 Y93.422 E.02725
G1 X86.839 Y93.768 F9600
G1 F3000
G1 X86.863 Y93.763 E.0007
G1 X88.552 Y93.58 E.04943
G1 X148.8 Y93.585 E1.75308
G1 X150.691 Y93.752 E.05524
G1 X151.662 Y93.972 E.02897
G1 X153.461 Y94.647 E.05592
G1 X155.111 Y95.633 E.05592
G1 X156.558 Y96.898 E.05592
G1 X157.17 Y97.596 E.02701
G1 X158.234 Y99.197 E.05592
G1 X158.994 Y100.962 E.05592
G1 X159.333 Y102.214 E.03773
G1 X160.773 Y108.895 E.19888
G1 X160.897 Y110.183 E.03766
G1 X160.863 Y131.643 E.62443
G1 X160.71 Y132.56 E.02706
G1 X160.406 Y133.512 E.02906
G1 X159.709 Y134.813 E.04294
G1 X158.614 Y136.055 E.04819
G1 X157.31 Y136.962 E.04623
G1 X155.805 Y137.547 E.04698
G1 X154.892 Y137.717 E.02703
G1 X154.118 Y137.761 E.02255
G1 X83.092 Y137.756 E2.06667
G1 X82.03 Y137.638 E.03109
G1 X81.172 Y137.413 E.0258
G1 X79.736 Y136.736 E.0462
G1 X78.477 Y135.726 E.04697
G1 X77.899 Y135.053 E.02581
G1 X77.414 Y134.311 E.02579
G1 X76.79 Y132.805 E.04744
G1 X76.545 Y131.209 E.04699
G1 X76.541 Y110.113 E.61384
G1 X76.632 Y109.075 E.0303
G1 X78.421 Y101.615 E.22322
G1 X78.951 Y100.091 E.04696
G1 X79.862 Y98.398 E.05592
G1 X80.407 Y97.647 E.02701
G1 X81.731 Y96.253 E.05592
G1 X83.283 Y95.119 E.05592
G1 X84.158 Y94.646 E.02897
G1 X85.958 Y93.971 E.05592
G1 X86.8 Y93.777 E.02515
; printing object seg4b.stl id:8589938692 copy 0
G1 E-2.2 F2400
;WIPE_START
G1 F3000
G1 X86.863 Y93.763 E-.05118
G1 X87.793 Y93.662 E-.74882
;WIPE_END
G1 Z.6 F9600
G1 X88.908 Y98.952 Z.6
G1 Z.2
G1 E3 F2400
;TYPE:Support
G1 F3000
G1 X88.568 Y98.937 E.00992
G1 X87.613 Y99.066 E.02803
G1 X86.697 Y99.364 E.02803
G1 X85.848 Y99.82 E.02803
G1 X85.095 Y100.421 E.02803
G1 X84.461 Y101.147 E.02803
G1 X83.967 Y101.974 E.02803
G1 X83.628 Y102.876 E.02803
G1 X83.456 Y103.824 E.02803
G1 X83.456 Y104.787 E.02803
G1 X83.628 Y105.735 E.02803
G1 X83.967 Y106.637 E.02803
G1 X84.461 Y107.464 E.02803
G1 X85.089 Y108.183 E.02777
G1 X92.498 Y108.183 E.2156
G1 X92.856 Y107.841 E.01439
G1 X93.422 Y107.062 E.02803
G1 X93.84 Y106.194 E.02803
G1 X94.096 Y105.265 E.02803
G1 X94.183 Y104.305 E.02803
G1 X94.096 Y103.346 E.02803
G1 X93.84 Y102.417 E.02803
G1 X93.422 Y101.549 E.02803
G1 X92.856 Y100.77 E.02803
G1 X92.159 Y100.104 E.02803
G1 X91.355 Y99.573 E.02803
G1 X90.469 Y99.194 E.02803
G1 X89.53 Y98.98 E.02803
G1 X88.962 Y98.954 E.01655
G1 X93.723 Y106.016 F9600
G1 F3000
G1 X93.723 Y103.199 E.08195
G1 X93.538 Y102.53 E.02018
G1 X93.326 Y102.09 E.01423
G1 X93.326 Y106.521 E.12894
G1 X93.145 Y106.896 E.01212
G1 X92.929 Y107.194 E.01069
G1 X92.929 Y101.417 E.16808
G1 X92.613 Y100.982 E.01566
G1 X92.532 Y100.905 E.00324
G1 X92.532 Y107.706 E.19789
G1 X92.369 Y107.862 E.00656
G1 X92.136 Y107.862 E.0068
G1 X92.136 Y100.526 E.21346
G1 X91.958 Y100.356 E.00714
G1 X91.739 Y100.211 E.00765
G1 X91.739 Y107.862 E.22261
G1 X91.342 Y107.862 E.01154
G1 X91.342 Y99.949 E.23023
G1 X91.202 Y99.857 E.00487
G1 X90.945 Y99.747 E.00814
G1 X90.945 Y107.862 E.23611
G1 X90.549 Y107.862 E.01154
G1 X90.549 Y99.578 E.24104
G1 X90.37 Y99.501 E.00566
G1 X90.152 Y99.452 E.0065
G1 X90.152 Y107.862 E.24471
G1 X89.755 Y107.862 E.01154
G1 X89.755 Y99.361 E.24735
G1 X89.487 Y99.3 E.00801
G1 X89.358 Y99.294 E.00374
G1 X89.358 Y107.862 E.2493
G1 X88.961 Y107.862 E.01154
G1 X88.961 Y99.276 E.24981
G1 X88.582 Y99.259 E.01105
G1 X88.565 Y99.261 E.00051
G1 X88.565 Y107.862 E.25024
G1 X88.168 Y107.862 E.01154
G1 X88.168 Y99.315 E.24868
G1 X87.771 Y99.369 E.01165
G1 X87.771 Y107.862 E.24711
G1 X87.374 Y107.862 E.01154
G1 X87.374 Y99.481 E.24384
G1 X86.978 Y99.61 E.01214
G1 X86.978 Y107.862 E.24009
G1 X86.581 Y107.862 E.01154
G1 X86.581 Y99.791 E.23483
G1 X86.184 Y100.004 E.01311
G1 X86.184 Y107.862 E.22862
G1 X85.787 Y107.862 E.01154
G1 X85.787 Y100.28 E.22061
G1 X85.391 Y100.596 E.01477
G1 X85.391 Y107.862 E.2114
G1 X85.235 Y107.861 E.00454
G1 X84.994 Y107.586 E.01065
G1 X84.994 Y101.025 E.1909
G1 X84.722 Y101.336 E.01202
G1 X84.597 Y101.545 E.00708
G1 X84.597 Y107.066 E.16063
G1 X84.258 Y106.497 E.01927
G1 X84.2 Y106.345 E.00473
G1 X84.2 Y102.266 E.11869
G1 X83.939 Y102.962 E.02162
G1 X83.804 Y103.709 E.02211
G1 X83.804 Y105.745 E.05924
;WIPE_START
;WIPE_END
G1 E-3 F2400
G1 Z.6 F9600
G1 X144.11 Y102.048 Z.6
G1 Z.2
G1 E3 F2400
G1 F3000
G1 X144.11 Y106.105 E.11804
G1 X144.258 Y106.497 E.01218
G1 X144.507 Y106.915 E.01416
G1 X144.507 Y101.696 E.15186
G1 X144.722 Y101.336 E.01219
G1 X144.904 Y101.128 E.00805
G1 X144.904 Y107.483 E.18491
G1 X145.236 Y107.863 E.01468
G1 X145.301 Y107.863 E.00188
G1 X145.301 Y100.674 E.20918
G1 X145.697 Y100.352 E.01487
G1 X145.697 Y107.863 E.21856
G1 X146.094 Y107.863 E.01154
G1 X146.094 Y100.053 E.22725
G1 X146.491 Y99.839 E.01311
G1 X146.491 Y107.863 E.23346
G1 X146.888 Y107.863 E.01154
G1 X146.888 Y99.64 E.23927
G1 X147.284 Y99.511 E.01214
G1 X147.284 Y107.863 E.24303
G1 X147.681 Y107.863 E.01154
G1 X147.681 Y99.382 E.24678
G1 X148.078 Y99.327 E.01165
G1 X148.078 Y107.863 E.24836
G1 X148.475 Y107.863 E.01154
G1 X148.475 Y99.274 E.24992
G1 X148.582 Y99.259 E.00315
G1 X148.871 Y99.272 E.00843
G1 X148.871 Y107.863 E.24997
M73 P1 R76
G1 X149.268 Y107.863 E.01154
G1 X149.268 Y99.29 E.24945
G1 X149.487 Y99.3 E.00636
G1 X149.665 Y99.34 E.00532
G1 X149.665 Y107.863 E.24798
G1 X150.062 Y107.863 E.01154
G1 X150.062 Y99.431 E.24535
G1 X150.37 Y99.501 E.00919
G1 X150.459 Y99.539 E.00281
G1 X150.459 Y107.863 E.2422
G1 X150.855 Y107.863 E.01154
G1 X150.855 Y99.709 E.23726
G1 X151.202 Y99.857 E.01098
G1 X151.252 Y99.89 E.00173
G1 X151.252 Y107.863 E.23199
G1 X151.649 Y107.863 E.01154
G1 X151.649 Y100.152 E.22437
G1 X151.958 Y100.356 E.01079
G1 X152.046 Y100.44 E.00352
G1 X152.046 Y107.863 E.216
G1 X152.368 Y107.863 E.00938
G1 X152.442 Y107.792 E.00299
G1 X152.442 Y100.819 E.2029
G1 X152.613 Y100.982 E.00686
G1 X152.839 Y101.293 E.0112
G1 X152.839 Y107.317 E.17529
G1 X153.145 Y106.896 E.01515
G1 X153.236 Y106.708 E.00608
G1 X153.236 Y101.903 E.13981
G1 X153.538 Y102.53 E.02027
G1 X153.633 Y102.873 E.01034
G1 X153.633 Y106.254 E.09839
G1 X148.962 Y98.954 F9600
G1 F3000
G1 X149.53 Y98.98 E.01655
G1 X150.469 Y99.194 E.02803
G1 X151.355 Y99.573 E.02803
G1 X152.159 Y100.104 E.02803
G1 X152.856 Y100.77 E.02803
G1 X153.422 Y101.549 E.02803
G1 X153.84 Y102.417 E.02803
G1 X154.096 Y103.346 E.02803
G1 X154.183 Y104.305 E.02803
G1 X154.096 Y105.265 E.02803
G1 X153.84 Y106.194 E.02803
G1 X153.422 Y107.062 E.02803
G1 X152.856 Y107.841 E.02803
G1 X152.497 Y108.184 E.01445
G1 X145.09 Y108.184 E.21552
G1 X144.461 Y107.464 E.02782
G1 X143.967 Y106.637 E.02803
G1 X143.628 Y105.735 E.02803
G1 X143.456 Y104.787 E.02803
G1 X143.456 Y103.824 E.02803
G1 X143.628 Y102.876 E.02803
G1 X143.967 Y101.974 E.02803
G1 X144.461 Y101.147 E.02803
G1 X145.095 Y100.421 E.02803
G1 X145.848 Y99.82 E.02803
G1 X146.697 Y99.364 E.02803
G1 X147.613 Y99.066 E.02803
G1 X148.568 Y98.937 E.02803
G1 X148.908 Y98.952 E.00992
G1 E-2.2 F2400
;WIPE_START
G1 F3000
G1 X149.53 Y98.98 E-.49799
G1 X149.898 Y99.064 E-.30201
;WIPE_END
G1 Z.6 F9600
G1 X150.791 Y110.153 Z.6
G1 Z.2
G1 E3 F2400
;TYPE:Inner wall
;WIDTH:0.399999
G1 F3000
G1 X150.675 Y109.804 E.0107
G1 X150.507 Y109.72 E.00549
G1 X154.097 Y109.72 E.10448
G1 X154.368 Y109.806 E.00826
G1 X154.524 Y109.991 E.00706
G1 X154.582 Y110.301 E.00915
G1 X154.581 Y130.901 E.59942
G1 X154.546 Y131.128 E.00668
G1 X154.41 Y131.33 E.00709
G1 X154.174 Y131.436 E.00753
G1 X150.854 Y131.445 E.09662
G1 X150.854 Y110.34 E.61409
G1 X150.804 Y110.191 E.00457
G1 E-2.2 F2400
;WIPE_START
G1 F3000
G1 X150.675 Y109.804 E-.32607
G1 X150.507 Y109.72 E-.15086
G1 X150.91 Y109.72 E-.32306
;WIPE_END
G1 Z.6 F9600
G1 X134.899 Y109.72 Z.6
G1 Z.2
G1 E3 F2400
G1 F3000
G1 X134.761 Y109.804 E.00469
G1 X134.582 Y110.34 E.01643
G1 X134.582 Y113.93 E.10448
G1 X134.405 Y113.762 E.00711
G1 X133.922 Y113.452 E.0167
G1 X133.43 Y113.273 E.01525
G1 X132.858 Y113.2 E.01679
G1 X132.345 Y113.258 E.01501
G1 X131.931 Y113.391 E.01265
G1 X131.499 Y113.633 E.01442
G1 X131.164 Y113.916 E.01276
G1 X130.855 Y114.304 E.01443
G1 X130.854 Y110.34 E.11535
G1 X130.675 Y109.804 E.01643
G1 X130.506 Y109.72 E.00549
G1 X134.859 Y109.72 E.12663
G1 E-2.2 F2400
;WIPE_START
G1 F3000
G1 X134.761 Y109.804 E-.10313
G1 X134.582 Y110.34 E-.45167
G1 X134.582 Y110.646 E-.2452
;WIPE_END
G1 Z.6 F9600
G1 X131.685 Y117.638 Z.6
G1 Z.2
G1 E3 F2400
G1 F3000
G1 X131.959 Y117.785 E.00904
G1 X132.38 Y117.916 E.01283
G1 X132.838 Y117.963 E.01339
G1 X133.308 Y117.926 E.01372
G1 X133.783 Y117.783 E.01443
G1 X134.237 Y117.533 E.01507
G1 X134.582 Y117.238 E.01321
G1 X134.582 Y123.948 E.19525
G1 X134.271 Y123.663 E.01229
G1 X133.773 Y123.379 E.01668
G1 X133.182 Y123.221 E.01781
G1 X132.664 Y123.209 E.01507
G1 X132.104 Y123.331 E.01667
G1 X131.632 Y123.552 E.01518
G1 X131.176 Y123.905 E.01677
G1 X130.854 Y124.308 E.01501
G1 X130.854 Y116.854 E.2169
G1 X131.188 Y117.273 E.01559
G1 X131.523 Y117.551 E.01265
G1 X131.65 Y117.619 E.00421
G1 E-2.2 F2400
;WIPE_START
G1 F3000
G1 X131.959 Y117.785 E-.28061
G1 X132.38 Y117.916 E-.35285
G1 X132.587 Y117.938 E-.16653
;WIPE_END
G1 Z.6 F9600
G1 X132.709 Y127.944 Z.6
G1 Z.2
G1 E3 F2400
G1 F3000
G1 X132.878 Y127.966 E.00496
G1 X133.391 Y127.908 E.01501
G1 X133.805 Y127.775 E.01265
G1 X134.237 Y127.533 E.01442
G1 X134.582 Y127.21 E.01376
G1 X134.582 Y131.447 E.12331
G1 X130.854 Y131.447 E.1085
G1 X130.854 Y126.846 E.13389
G1 X130.92 Y126.955 E.00373
G1 X131.331 Y127.403 E.01769
G1 X131.814 Y127.714 E.0167
G1 X132.306 Y127.893 E.01525
G1 X132.67 Y127.939 E.01066
G1 E-2.2 F2400
;WIPE_START
G1 F3000
G1 X132.878 Y127.966 E-.16833
G1 X133.391 Y127.908 E-.41263
G1 X133.652 Y127.824 E-.21904
;WIPE_END
G1 Z.6 F9600
G1 X86.899 Y109.72 Z.6
G1 Z.2
G1 E3 F2400
G1 F3000
G1 X86.761 Y109.804 E.0047
G1 X86.582 Y110.34 E.01643
G1 X86.581 Y114.304 E.11535
G1 X86.212 Y113.866 E.01666
G1 X85.578 Y113.425 E.02249
G1 X85.11 Y113.261 E.01443
G1 X84.675 Y113.202 E.01276
G1 X84.162 Y113.235 E.01496
G1 X83.613 Y113.405 E.01671
G1 X83.16 Y113.667 E.01525
G1 X82.856 Y113.933 E.01175
G1 X82.855 Y110.266 E.10672
G1 X82.909 Y109.981 E.00844
G1 X83.087 Y109.794 E.0075
G1 X83.32 Y109.72 E.00713
G1 X86.859 Y109.72 E.10296
G1 E-2.2 F2400
;WIPE_START
G1 F3000
G1 X86.761 Y109.804 E-.10331
G1 X86.582 Y110.34 E-.45167
G1 X86.582 Y110.646 E-.24502
;WIPE_END
G1 Z.6 F9600
